; generated by Slic3r 0.9.9 on 2013-10-01 at 12:22:18

; July 20, 2013:
; - Updated support material width to 50%
; 
; 
; Initial:
; Doubled the infill and perimeter speeds, trying this at 220

; layer_height = 0.25
; perimeters = 2
; top_solid_layers = 3
; bottom_solid_layers = 3
; fill_density = 0.1
; perimeter_speed = 60
; infill_speed = 100
; travel_speed = 200
; nozzle_diameter = 0.35
; filament_diameter = 2.92
; extrusion_multiplier = 1
; perimeters extrusion width = 0.39mm
; infill extrusion width = 0.39mm
; solid infill extrusion width = 0.39mm
; top infill extrusion width = 0.39mm
; support material extrusion width = 0.19mm
; first layer extrusion width = 0.70mm

G21 ; set units to millimeters
M107
M190 S85 ; wait for bed temperature to be reached
M104 S220 ; set temperature
G1 X30 Y30 F3000
G1 Z5 F5000 ; lift nozzle
M42 P5 S255 ; turn on the lights
M109 S220 ; wait for temperature to be reached
G90 ; use absolute coordinates
G92 E0
M82 ; use absolute distances for extrusion
G1 F1800.000 E-1.00000
G92 E0
G1 Z0.350 F12000.000
G1 X12.180 Y16.233
G1 F1800.000 E1.00000
G1 X12.650 Y15.923 F1080.000 E1.01839
G1 X13.150 Y15.643 E1.03710
G1 X13.670 Y15.403 E1.05581
G1 X14.470 Y15.123 E1.08349
G1 X15.030 Y14.993 E1.10227
G1 X15.590 Y14.903 E1.12079
G1 X15.870 Y14.873 E1.12999
G1 X16.440 Y14.853 E1.14862
G1 X140.150 Y14.853 E5.18898
G1 X140.720 Y14.873 E5.20761
G1 X141.000 Y14.903 E5.21680
G1 X141.830 Y15.053 E5.24435
G1 X142.640 Y15.293 E5.27194
G1 X143.420 Y15.633 E5.29973
G1 X143.670 Y15.763 E5.30894
G1 X144.160 Y16.063 E5.32770
G1 X144.620 Y16.393 E5.34619
G1 X145.050 Y16.753 E5.36451
G1 X145.450 Y17.153 E5.38298
G1 X145.820 Y17.583 E5.40151
G1 X146.740 Y18.833 E5.45220
G1 X147.100 Y19.363 E5.47312
G1 X147.260 Y19.633 E5.48337
G1 X147.540 Y20.203 E5.50411
G1 X147.660 Y20.503 E5.51467
G1 X147.770 Y20.803 E5.52510
G1 X147.950 Y21.413 E5.54588
G1 X171.150 Y117.203 E8.76482
G1 X171.280 Y117.883 E8.78743
G1 X171.320 Y118.223 E8.79861
G1 X171.350 Y118.913 E8.82117
G1 X171.350 Y217.893 E12.05385
G1 X171.330 Y218.443 E12.07183
G1 X171.300 Y218.723 E12.08103
G1 X171.220 Y219.273 E12.09918
G1 X171.160 Y219.543 E12.10821
G1 X170.920 Y220.343 E12.13549
G1 X170.720 Y220.863 E12.15369
G1 X170.600 Y221.113 E12.16274
G1 X170.190 Y221.833 E12.18980
G1 X169.870 Y222.283 E12.20784
G1 X169.690 Y222.503 E12.21712
G1 X169.130 Y223.113 E12.24416
G1 X168.490 Y223.663 E12.27173
G1 X168.040 Y223.983 E12.28976
G1 X167.320 Y224.393 E12.31682
G1 X167.070 Y224.513 E12.32588
G1 X166.290 Y224.803 E12.35306
G1 X165.480 Y225.013 E12.38038
G1 X164.650 Y225.123 E12.40773
G1 X164.100 Y225.143 E12.42570
G1 X40.370 Y225.143 E16.46672
G1 X39.710 Y225.113 E16.48830
G1 X39.380 Y225.073 E16.49916
G1 X39.050 Y225.023 E16.51006
G1 X38.410 Y224.873 E16.53152
G1 X37.780 Y224.663 E16.55321
G1 X36.240 Y224.073 E16.60707
G1 X35.980 Y223.953 E16.61643
G1 X35.240 Y223.553 E16.64390
G1 X34.780 Y223.233 E16.66220
G1 X34.340 Y222.883 E16.68056
G1 X33.930 Y222.503 E16.69882
G1 X33.550 Y222.083 E16.71732
G1 X33.210 Y221.643 E16.73548
G1 X32.900 Y221.173 E16.75387
G1 X32.500 Y220.433 E16.78134
G1 X32.290 Y219.913 E16.79966
G1 X32.040 Y219.113 E16.82703
G1 X8.850 Y123.313 E20.04622
G1 X8.720 Y122.633 E20.06883
G1 X8.680 Y122.293 E20.08001
G1 X8.650 Y121.603 E20.10257
G1 X8.650 Y22.643 E23.33460
G1 X8.670 Y22.073 E23.35323
G1 X8.700 Y21.793 E23.36242
G1 X8.790 Y21.233 E23.38095
G1 X8.920 Y20.673 E23.39972
G1 X9.200 Y19.873 E23.42740
G1 X9.570 Y19.103 E23.45531
G1 X10.030 Y18.383 E23.48321
G1 X10.390 Y17.933 E23.50203
G1 X10.770 Y17.513 E23.52053
G1 X11.310 Y16.973 E23.54547
G1 X11.730 Y16.593 E23.56397
G1 X12.106 Y16.291 E23.57973
G1 X12.370 Y16.873 F12000.000
G1 X12.820 Y16.553 F1080.000 E23.59776
G1 X13.290 Y16.273 E23.61563
G1 X13.780 Y16.033 E23.63345
G1 X14.290 Y15.833 E23.65134
G1 X15.080 Y15.623 E23.67804
G1 X15.620 Y15.533 E23.69592
G1 X16.170 Y15.483 E23.71396
G1 X140.420 Y15.483 E27.77196
G1 X140.960 Y15.523 E27.78964
G1 X141.220 Y15.563 E27.79823
G1 X142.010 Y15.743 E27.82470
G1 X142.270 Y15.823 E27.83358
G1 X142.770 Y16.023 E27.85117
G1 X143.260 Y16.253 E27.86885
G1 X143.730 Y16.523 E27.88655
G1 X144.380 Y17.003 E27.91294
G1 X144.970 Y17.553 E27.93928
G1 X145.490 Y18.183 E27.96596
G1 X146.240 Y19.203 E28.00731
G1 X146.710 Y19.933 E28.03567
G1 X146.970 Y20.463 E28.05495
G1 X147.080 Y20.733 E28.06447
G1 X147.180 Y21.003 E28.07387
G1 X147.340 Y21.563 E28.09290
G1 X170.540 Y117.353 E31.31184
G1 X170.660 Y117.973 E31.33247
G1 X170.720 Y118.603 E31.35314
G1 X170.720 Y218.163 E34.60476
G1 X170.680 Y218.693 E34.62212
G1 X170.530 Y219.483 E34.64838
G1 X170.290 Y220.243 E34.67441
G1 X170.090 Y220.733 E34.69170
G1 X169.970 Y220.973 E34.70046
G1 X169.700 Y221.433 E34.71788
G1 X169.400 Y221.873 E34.73527
G1 X169.060 Y222.283 E34.75267
G1 X168.690 Y222.673 E34.77023
G1 X168.080 Y223.193 E34.79641
G1 X167.640 Y223.493 E34.81380
G1 X167.180 Y223.763 E34.83122
G1 X166.940 Y223.883 E34.83998
G1 X166.200 Y224.173 E34.86594
G1 X165.430 Y224.383 E34.89201
G1 X164.900 Y224.473 E34.90957
G1 X164.370 Y224.513 E34.92692
G1 X40.070 Y224.513 E38.98656
G1 X39.460 Y224.453 E39.00658
G1 X38.580 Y224.273 E39.03591
G1 X38.000 Y224.083 E39.05584
G1 X36.720 Y223.593 E39.10061
G1 X36.210 Y223.373 E39.11875
G1 X35.480 Y222.963 E39.14609
G1 X34.810 Y222.463 E39.17340
G1 X34.210 Y221.883 E39.20065
G1 X34.020 Y221.673 E39.20990
G1 X33.680 Y221.233 E39.22806
G1 X33.240 Y220.523 E39.25534
G1 X33.000 Y220.023 E39.27346
G1 X32.800 Y219.493 E39.29196
G1 X32.650 Y218.963 E39.30995
G1 X9.460 Y123.163 E42.52913
G1 X9.390 Y122.853 E42.53951
G1 X9.300 Y122.233 E42.55998
G1 X9.280 Y121.913 E42.57045
G1 X9.280 Y22.373 E45.82142
G1 X9.370 Y21.553 E45.84836
G1 X9.550 Y20.753 E45.87514
G1 X9.630 Y20.493 E45.88403
G1 X9.830 Y19.983 E45.90192
G1 X10.070 Y19.493 E45.91974
G1 X10.350 Y19.023 E45.93761
G1 X10.840 Y18.363 E45.96445
G1 X11.950 Y17.233 E46.01619
G1 X12.297 Y16.932 E46.03119
G1 F1800.000 E45.03119
G92 E0
G1 X16.433 Y22.100 F12000.000
G1 F1800.000 E1.00000
G1 X15.900 Y22.633 F1260.000 E1.02464
G1 X15.900 Y24.401 E1.08237
G1 X18.201 Y22.100 E1.18865
G1 X19.968 Y22.100 E1.24637
G1 X15.966 Y26.102 E1.43122
G1 X17.653 Y26.183 E1.48636
G1 X21.736 Y22.100 E1.67495
G1 X23.503 Y22.100 E1.73268
G1 X19.228 Y26.375 E1.93013
G1 X20.696 Y26.675 E1.97905
G1 X25.271 Y22.100 E2.19035
G1 X27.038 Y22.100 E2.24807
G1 X22.077 Y27.061 E2.47723
G1 X23.383 Y27.523 E2.52248
G1 X28.806 Y22.100 E2.77295
G1 X30.573 Y22.100 E2.83067
G1 X24.621 Y28.052 E3.10559
G1 X25.794 Y28.646 E3.14855
G1 X32.341 Y22.100 E3.45090
G1 X32.504 Y23.704 E3.50355
G1 X26.902 Y29.306 E3.76232
G1 X27.952 Y30.024 E3.80385
G1 X32.782 Y25.194 E4.02694
G1 X33.190 Y26.553 E4.07329
G1 X28.946 Y30.797 E4.26931
G1 X29.887 Y31.623 E4.31021
G1 X33.721 Y27.789 E4.48729
G1 X34.345 Y28.933 E4.52984
G1 X30.774 Y32.504 E4.69478
G1 X31.606 Y33.439 E4.73566
G1 X35.069 Y29.976 E4.89560
G1 X35.874 Y30.939 E4.93658
G1 X32.386 Y34.426 E5.09765
G1 X33.110 Y35.470 E5.13913
G1 X36.770 Y31.810 E5.30818
G1 X37.749 Y32.598 E5.34923
G1 X33.776 Y36.571 E5.53272
G1 X34.381 Y37.734 E5.57553
G1 X38.817 Y33.298 E5.78042
G1 X39.980 Y33.903 E5.82322
G1 X34.918 Y38.964 E6.05698
G1 X35.387 Y40.263 E6.10207
G1 X41.243 Y34.407 E6.37253
G1 X42.629 Y34.789 E6.41947
G1 X35.783 Y41.634 E6.73566
G1 X36.097 Y43.088 E6.78422
G1 X44.159 Y35.025 E7.15660
G1 X45.877 Y35.075 E7.21273
G1 X36.301 Y44.651 E7.65504
G1 X36.394 Y46.325 E7.70980
G1 X47.874 Y34.846 E8.24000
G1 X50.411 Y34.076 E8.32661
G1 X36.335 Y48.153 E8.97678
G1 X36.083 Y50.172 E9.04324
G1 X54.783 Y31.472 E9.90696
G1 F1800.000 E8.90696
G92 E0
G1 X54.853 Y34.936 F12000.000
G1 F1800.000 E1.00000
G1 X61.561 Y28.228 F1260.000 E1.30983
G1 F1800.000 E0.30983
G92 E0
G1 X58.488 Y29.534 F12000.000
G1 F1800.000 E1.00000
G1 X35.530 Y52.492 F1260.000 E2.06039
G1 F1800.000 E1.06039
G92 E0
G1 X34.523 Y55.266 F12000.000
G1 F1800.000 E1.00000
G1 X41.247 Y48.543 F1260.000 E1.31053
G1 X38.968 Y52.589 E1.46220
G1 X33.577 Y57.980 E1.71119
G1 F1800.000 E0.71119
G92 E0
G1 X37.546 Y55.778 F12000.000
G1 F1800.000 E1.00000
G1 X32.873 Y60.451 F1260.000 E1.21584
G1 X32.342 Y62.750 E1.29290
G1 X36.538 Y58.554 E1.48674
G1 X35.821 Y61.038 E1.57119
G1 X31.962 Y64.897 E1.74944
G1 X31.693 Y66.934 E1.81655
G1 X35.280 Y63.347 E1.98223
G1 X34.906 Y65.488 E2.05321
G1 X31.518 Y68.876 E2.20971
G1 X31.426 Y70.735 E2.27050
G1 X34.648 Y67.514 E2.41930
G1 X34.488 Y69.442 E2.48247
G1 X31.408 Y72.521 E2.62472
G1 X31.455 Y74.242 E2.68093
G1 X34.413 Y71.283 E2.81758
G1 X34.415 Y73.049 E2.87525
G1 X31.561 Y75.903 E3.00708
G1 X31.720 Y77.512 E3.05986
G1 X34.484 Y74.747 E3.18754
G1 X34.614 Y76.385 E3.24119
G1 X31.928 Y79.071 E3.36527
G1 X32.180 Y80.586 E3.41543
G1 X34.804 Y77.963 E3.53660
G1 X35.034 Y79.500 E3.58737
G1 X32.475 Y82.059 E3.70558
G1 X32.806 Y83.495 E3.75371
G1 X35.315 Y80.987 E3.86958
G1 X35.638 Y82.431 E3.91790
G1 X33.175 Y84.893 E4.03166
G1 X33.586 Y86.250 E4.07795
G1 X36.001 Y83.835 E4.18951
G1 X36.401 Y85.202 E4.23604
G1 X34.029 Y87.575 E4.34562
G1 X34.500 Y88.872 E4.39068
G1 X36.836 Y86.535 E4.49860
G1 X37.311 Y87.827 E4.54357
G1 X34.988 Y90.150 E4.65086
G1 X35.451 Y91.455 E4.69608
G1 X37.819 Y89.087 E4.80547
G1 X38.359 Y90.314 E4.84927
G1 X35.835 Y92.839 E4.96588
G1 X36.134 Y94.307 E5.01482
G1 X38.923 Y91.518 E5.14366
G1 X39.517 Y92.691 E5.18662
G1 X36.322 Y95.887 E5.33421
G1 X36.399 Y97.577 E5.38947
G1 X40.146 Y93.830 E5.56255
G1 X40.802 Y94.941 E5.60470
G1 X36.311 Y99.432 E5.81212
G1 X36.021 Y101.490 E5.88000
G1 X41.483 Y96.027 E6.13230
G1 X42.189 Y97.089 E6.17394
G1 X35.410 Y103.869 E6.48709
G1 X34.177 Y106.869 E6.59303
G1 X42.928 Y98.117 E6.99726
G1 X43.688 Y99.126 E7.03848
G1 X20.713 Y122.100 E8.09963
G1 X22.480 Y122.100 E8.15735
G1 X44.474 Y100.107 E9.17320
G1 X45.283 Y101.065 E9.21416
G1 X24.248 Y122.100 E10.18574
G1 F1800.000 E9.18574
G92 E0
G1 X25.169 Y115.876 F12000.000
G1 F1800.000 E1.00000
G1 X18.946 Y122.100 F1260.000 E1.28746
G1 X17.178 Y122.100 E1.34518
G1 X22.169 Y117.110 E1.57568
G1 X19.792 Y117.719 E1.65582
G1 X15.900 Y121.611 E1.83557
G1 X15.900 Y119.843 E1.89330
G1 X17.733 Y118.010 E1.97798
G1 F1800.000 E0.97798
G92 E0
G1 X32.456 Y120.962 F12000.000
G1 F1800.000 E1.00000
G1 X31.318 Y122.100 F1260.000 E1.05259
G1 X29.550 Y122.100 E1.11031
G1 X32.826 Y118.824 E1.26162
G1 X33.980 Y115.903 E1.36420
G1 X27.783 Y122.100 E1.65043
G1 X26.015 Y122.100 E1.70816
G1 X46.121 Y101.995 E2.63678
G1 X46.986 Y102.897 E2.67760
G1 X39.192 Y110.691 E3.03758
G1 X42.118 Y109.533 E3.14035
G1 X47.873 Y103.777 E3.40618
G1 X48.783 Y104.635 E3.44701
G1 X44.252 Y109.166 E3.65626
G1 X46.052 Y109.134 E3.71504
G1 X49.721 Y105.464 E3.88452
G1 X50.687 Y106.266 E3.92552
G1 X47.641 Y109.312 E4.06622
G1 X49.076 Y109.645 E4.11433
G1 X51.675 Y107.045 E4.23440
G1 X52.687 Y107.801 E4.27565
G1 X50.377 Y110.110 E4.38232
G1 X51.569 Y110.686 E4.42554
G1 X53.728 Y108.527 E4.52526
G1 X54.801 Y109.222 E4.56700
G1 X52.626 Y111.397 E4.66746
G1 X53.709 Y112.081 E4.70930
G1 X55.892 Y109.898 E4.81012
G1 X57.011 Y110.546 E4.85237
G1 X54.812 Y112.745 E4.95392
G1 X55.940 Y113.385 E4.99626
G1 X58.159 Y111.166 E5.09876
G1 X59.341 Y111.751 E5.14185
G1 X57.101 Y113.991 E5.24531
G1 X58.289 Y114.571 E5.28847
G1 X60.554 Y112.306 E5.39311
G1 X61.790 Y112.837 E5.43705
G1 X59.502 Y115.126 E5.54277
G1 X60.741 Y115.654 E5.58677
G1 X63.060 Y113.335 E5.69387
G1 X64.363 Y113.800 E5.73904
G1 X62.015 Y116.148 E5.84749
G1 X63.321 Y116.608 E5.89275
G1 X65.706 Y114.224 E6.00287
G1 X67.084 Y114.613 E6.04966
G1 X64.659 Y117.038 E6.16169
G1 X66.029 Y117.436 E6.20827
G1 X68.501 Y114.964 E6.32245
G1 X69.958 Y115.274 E6.37110
G1 X67.433 Y117.799 E6.48770
G1 X68.875 Y118.124 E6.53598
G1 X71.458 Y115.542 E6.65527
G1 X73.005 Y115.762 E6.70632
G1 X70.363 Y118.404 E6.82836
G1 X71.893 Y118.641 E6.87892
G1 X74.606 Y115.929 E7.00422
G1 X76.260 Y116.042 E7.05836
G1 X73.468 Y118.833 E7.18727
G1 X75.093 Y118.976 E7.24055
G1 X77.977 Y116.092 E7.37375
G1 X79.765 Y116.072 E7.43214
G1 X76.773 Y119.064 E7.57034
G1 X78.512 Y119.092 E7.62716
G1 X81.631 Y115.973 E7.77121
G1 X83.586 Y115.786 E7.83536
G1 X80.318 Y119.053 E7.98629
G1 X82.200 Y118.939 E8.04785
G1 X85.644 Y115.495 E8.20692
G1 X87.837 Y115.070 E8.27987
G1 X84.166 Y118.740 E8.44940
G1 X86.232 Y118.442 E8.51756
G1 X90.191 Y114.483 E8.70043
G1 X92.755 Y113.686 E8.78812
G1 X88.431 Y118.010 E8.98782
G1 X90.774 Y117.435 E9.06659
G1 X95.621 Y112.588 E9.29047
G1 F1800.000 E8.29047
G92 E0
G1 X99.009 Y110.967 F12000.000
G1 F1800.000 E1.00000
G1 X93.310 Y116.667 F1260.000 E1.26324
G1 X96.110 Y115.634 E1.36071
G1 X103.550 Y108.194 E1.70435
G1 F1800.000 E0.70435
G92 E0
G1 X103.367 Y111.911 F12000.000
G1 F1800.000 E1.00000
G1 X120.618 Y94.661 F1260.000 E1.79676
G1 X121.066 Y92.446 E1.87058
G1 X99.329 Y114.182 E2.87454
G1 F1800.000 E1.87454
G92 E0
G1 X107.246 Y109.800 F12000.000
G1 F1800.000 E1.00000
G1 X120.425 Y96.622 F1260.000 E1.60869
G1 X120.423 Y98.391 E1.66647
G1 X109.573 Y109.240 E2.16759
G1 X111.469 Y109.112 E2.22964
G1 X120.546 Y100.035 E2.64892
G1 X120.792 Y101.556 E2.69925
G1 X113.126 Y109.223 E3.05336
G1 X114.602 Y109.514 E3.10252
G1 X121.127 Y102.989 E3.40389
G1 X121.543 Y104.341 E3.45008
G1 X115.949 Y109.934 E3.70845
G1 X117.182 Y110.469 E3.75233
G1 X122.035 Y105.616 E3.97648
G1 X122.597 Y106.821 E4.01991
G1 X118.315 Y111.103 E4.21770
G1 X119.355 Y111.831 E4.25915
G1 X123.221 Y107.964 E4.43772
G1 X123.904 Y109.049 E4.47958
G1 X120.311 Y112.642 E4.64553
G1 X121.176 Y113.545 E4.68636
G1 X124.644 Y110.077 E4.84655
G1 X125.438 Y111.050 E4.88758
G1 X121.961 Y114.527 E5.04815
G1 X122.651 Y115.604 E5.08994
G1 X126.286 Y111.970 E5.25781
G1 X127.188 Y112.835 E5.29864
G1 X123.252 Y116.771 E5.48042
G1 X123.744 Y118.047 E5.52507
G1 X128.144 Y113.647 E5.72830
G1 X129.158 Y114.400 E5.76955
G1 X124.121 Y119.437 E6.00218
G1 X124.346 Y120.980 E6.05310
G1 X130.229 Y115.097 E6.32483
G1 X131.357 Y115.736 E6.36718
G1 X124.993 Y122.100 E6.66115
G1 X126.760 Y122.100 E6.71887
G1 X132.548 Y116.313 E6.98619
G1 X133.803 Y116.825 E7.03047
G1 X128.528 Y122.100 E7.27414
G1 X130.295 Y122.100 E7.33186
G1 X135.128 Y117.267 E7.55507
G1 X136.538 Y117.625 E7.60258
G1 X132.063 Y122.100 E7.80928
G1 X133.830 Y122.100 E7.86701
G1 X138.039 Y117.891 E8.06141
G1 X139.639 Y118.058 E8.11396
G1 X135.598 Y122.100 E8.30064
G1 X137.365 Y122.100 E8.35837
G1 X140.900 Y118.565 E8.52165
G1 X140.900 Y120.332 E8.57937
G1 X139.132 Y122.100 E8.66102
G1 X140.900 Y122.100 E8.71875
G1 F1800.000 E7.71875
G92 E0
G1 X114.504 Y97.240 F12000.000
G1 F1800.000 E1.00000
G1 X121.947 Y89.797 F1260.000 E1.34377
G1 F1800.000 E0.34377
G92 E0
G1 X122.966 Y87.010 F12000.000
G1 F1800.000 E1.00000
G1 X117.280 Y92.696 F1260.000 E1.26261
G1 X118.882 Y89.327 E1.38446
G1 X123.735 Y84.473 E1.60862
G1 F1800.000 E0.60862
G92 E0
G1 X119.994 Y86.448 F12000.000
G1 F1800.000 E1.00000
G1 X124.310 Y82.132 F1260.000 E1.19935
G1 X124.742 Y79.932 E1.27255
G1 X120.783 Y83.891 E1.45541
G1 X121.375 Y81.532 E1.53486
G1 X125.041 Y77.866 E1.70417
G1 X125.239 Y75.900 E1.76872
G1 X121.788 Y79.352 E1.92815
G1 X122.086 Y77.286 E1.99632
G1 X125.353 Y74.018 E2.14724
G1 X125.392 Y72.212 E2.20624
G1 X122.277 Y75.328 E2.35014
G1 X122.377 Y73.460 E2.41123
G1 X125.364 Y70.473 E2.54919
G1 X125.276 Y68.793 E2.60412
G1 X122.398 Y71.672 E2.73706
G1 X122.346 Y69.955 E2.79313
G1 X125.133 Y67.168 E2.92186
G1 X124.941 Y65.593 E2.97369
G1 X122.229 Y68.305 E3.09895
G1 X122.067 Y66.700 E3.15163
G1 X124.704 Y64.063 E3.27342
G1 X124.424 Y62.576 E3.32287
G1 X121.846 Y65.154 E3.44195
G1 X121.577 Y63.655 E3.49169
G1 X124.099 Y61.133 E3.60818
G1 X123.736 Y59.729 E3.65555
G1 X121.265 Y62.200 E3.76969
G1 X120.912 Y60.785 E3.81731
G1 X123.338 Y58.359 E3.92937
G1 X122.908 Y57.022 E3.97525
G1 X120.521 Y59.408 E4.08548
G1 X120.095 Y58.067 E4.13144
G1 X122.448 Y55.714 E4.24010
G1 X121.959 Y54.436 E4.28481
G1 X119.636 Y56.759 E4.39212
G1 X119.140 Y55.487 E4.43671
G1 X121.476 Y53.151 E4.54461
G1 X121.073 Y51.787 E4.59106
G1 X118.606 Y54.254 E4.70502
G1 X118.050 Y53.043 E4.74856
G1 X120.750 Y50.342 E4.87329
G1 X120.518 Y48.807 E4.92400
G1 X117.462 Y51.863 E5.06514
G1 X116.848 Y50.710 E5.10781
