; generated by Slic3r 0.9.9 on 2013-09-30 at 13:58:12

; July 20, 2013:
; - Updated support material width to 50%
; 
; 
; Initial:
; Doubled the infill and perimeter speeds, trying this at 220

; layer_height = 0.25
; perimeters = 2
; top_solid_layers = 3
; bottom_solid_layers = 3
; fill_density = 0.1
; perimeter_speed = 60
; infill_speed = 100
; travel_speed = 200
; nozzle_diameter = 0.35
; filament_diameter = 2.92
; extrusion_multiplier = 1
; perimeters extrusion width = 0.39mm
; infill extrusion width = 0.39mm
; solid infill extrusion width = 0.39mm
; top infill extrusion width = 0.39mm
; support material extrusion width = 0.19mm
; first layer extrusion width = 0.70mm

G21 ; set units to millimeters
M107
M190 S70 ; wait for bed temperature to be reached
M104 S220 ; set temperature
G1 X30 Y30 F3000
G1 Z5 F5000 ; lift nozzle
M42 P5 S255 ; turn on the lights
M109 S220 ; wait for temperature to be reached
G90 ; use absolute coordinates
G92 E0
M82 ; use absolute distances for extrusion
G1 F1800.000 E-1.00000
G92 E0
G1 Z0.350 F12000.000
G1 X54.208 Y51.046
G1 F1800.000 E1.00000
G1 X54.738 Y50.516 F1080.000 E1.02448
G1 X55.158 Y50.136 E1.04298
G1 X55.608 Y49.776 E1.06180
G1 X56.328 Y49.316 E1.08970
G1 X56.828 Y49.066 E1.10796
G1 X57.358 Y48.846 E1.12670
G1 X57.898 Y48.666 E1.14529
G1 X58.178 Y48.596 E1.15472
G1 X59.018 Y48.446 E1.18259
G1 X59.298 Y48.416 E1.19179
G1 X59.868 Y48.396 E1.21041
G1 X130.338 Y48.396 E3.51196
G1 X130.898 Y48.416 E3.53026
G1 X131.178 Y48.446 E3.53946
G1 X132.008 Y48.586 E3.56695
G1 X132.278 Y48.656 E3.57606
G1 X132.808 Y48.826 E3.59424
G1 X133.328 Y49.046 E3.61268
G1 X133.588 Y49.166 E3.62203
G1 X134.078 Y49.436 E3.64030
G1 X134.548 Y49.736 E3.65851
G1 X134.768 Y49.906 E3.66759
G1 X135.198 Y50.266 E3.68591
G1 X135.598 Y50.656 E3.70416
G1 X135.968 Y51.076 E3.72244
G1 X136.308 Y51.526 E3.74086
G1 X136.608 Y52.006 E3.75934
G1 X136.988 Y52.756 E3.78680
G1 X137.278 Y53.546 E3.81429
G1 X137.418 Y54.086 E3.83251
G1 X137.798 Y55.846 E3.89131
G1 X137.878 Y56.466 E3.91173
G1 X137.908 Y57.096 E3.93233
G1 X137.908 Y184.346 E8.08831
G1 X137.888 Y184.896 E8.10628
G1 X137.858 Y185.176 E8.11548
G1 X137.778 Y185.726 E8.13363
G1 X137.648 Y186.266 E8.15177
G1 X137.478 Y186.796 E8.16995
G1 X137.278 Y187.316 E8.18815
G1 X137.028 Y187.806 E8.20611
G1 X136.748 Y188.286 E8.22426
G1 X136.428 Y188.736 E8.24230
G1 X136.248 Y188.956 E8.25158
G1 X135.688 Y189.566 E8.27862
G1 X135.048 Y190.116 E8.30619
G1 X134.598 Y190.436 E8.32422
G1 X134.118 Y190.716 E8.34237
G1 X133.628 Y190.966 E8.36033
G1 X133.108 Y191.166 E8.37853
G1 X132.308 Y191.406 E8.40581
G1 X132.038 Y191.466 E8.41484
G1 X131.488 Y191.546 E8.43299
G1 X131.208 Y191.576 E8.44219
G1 X130.658 Y191.596 E8.46017
G1 X60.178 Y191.596 E10.76204
G1 X59.608 Y191.576 E10.78067
G1 X59.038 Y191.506 E10.79942
G1 X58.478 Y191.396 E10.81806
G1 X57.648 Y191.146 E10.84637
G1 X57.118 Y190.916 E10.86524
G1 X56.608 Y190.656 E10.88394
G1 X55.888 Y190.196 E10.91184
G1 X55.438 Y189.836 E10.93066
G1 X55.018 Y189.446 E10.94938
G1 X53.988 Y188.316 E10.99932
G1 X53.598 Y187.856 E11.01902
G1 X53.258 Y187.376 E11.03823
G1 X52.948 Y186.856 E11.05800
G1 X52.688 Y186.326 E11.07728
G1 X52.578 Y186.046 E11.08711
G1 X52.308 Y185.196 E11.11623
G1 X52.188 Y184.616 E11.13558
G1 X52.108 Y184.026 E11.15502
G1 X52.088 Y183.426 E11.17463
G1 X52.088 Y56.176 E15.33061
G1 X52.108 Y55.606 E15.34924
G1 X52.228 Y54.766 E15.37695
G1 X52.358 Y54.206 E15.39573
G1 X52.638 Y53.406 E15.42341
G1 X53.008 Y52.636 E15.45131
G1 X53.308 Y52.146 E15.47007
G1 X53.648 Y51.686 E15.48876
G1 X54.145 Y51.116 E15.51347
G1 X54.468 Y51.686 F12000.000
G1 X55.588 Y50.586 F1080.000 E15.56474
G1 X56.248 Y50.096 E15.59159
G1 X56.718 Y49.816 E15.60945
G1 X57.208 Y49.576 E15.62727
G1 X57.718 Y49.376 E15.64517
G1 X57.978 Y49.296 E15.65405
G1 X58.778 Y49.116 E15.68083
G1 X59.598 Y49.026 E15.70777
G1 X130.608 Y49.026 E18.02696
G1 X131.418 Y49.106 E18.05354
G1 X131.948 Y49.216 E18.07122
G1 X132.478 Y49.376 E18.08930
G1 X132.978 Y49.566 E18.10677
G1 X133.708 Y49.936 E18.13350
G1 X134.378 Y50.396 E18.16004
G1 X134.798 Y50.746 E18.17790
G1 X135.188 Y51.126 E18.19568
G1 X135.538 Y51.536 E18.21329
G1 X135.858 Y51.976 E18.23106
G1 X136.138 Y52.446 E18.24892
G1 X136.268 Y52.686 E18.25784
G1 X136.488 Y53.176 E18.27538
G1 X136.588 Y53.436 E18.28448
G1 X136.748 Y53.956 E18.30225
G1 X137.188 Y55.946 E18.36881
G1 X137.278 Y56.806 E18.39705
G1 X137.278 Y184.616 E22.57132
G1 X137.238 Y185.146 E22.58868
G1 X137.198 Y185.406 E22.59727
G1 X137.018 Y186.186 E22.62342
G1 X136.848 Y186.696 E22.64097
G1 X136.648 Y187.186 E22.65826
G1 X136.398 Y187.656 E22.67565
G1 X135.958 Y188.326 E22.70182
G1 X135.438 Y188.936 E22.72800
G1 X135.048 Y189.306 E22.74556
G1 X134.638 Y189.646 E22.76296
G1 X133.968 Y190.086 E22.78914
G1 X133.498 Y190.336 E22.80652
G1 X133.008 Y190.536 E22.82381
G1 X132.498 Y190.706 E22.84137
G1 X131.718 Y190.886 E22.86751
G1 X131.458 Y190.926 E22.87610
G1 X130.928 Y190.966 E22.89346
G1 X59.898 Y190.966 E25.21330
G1 X59.078 Y190.876 E25.24024
G1 X58.278 Y190.696 E25.26702
G1 X57.758 Y190.516 E25.28499
G1 X57.258 Y190.296 E25.30283
G1 X56.538 Y189.886 E25.32989
G1 X55.878 Y189.386 E25.35694
G1 X55.288 Y188.816 E25.38373
G1 X54.268 Y187.686 E25.43345
G1 X53.778 Y187.036 E25.46003
G1 X53.638 Y186.796 E25.46911
G1 X53.378 Y186.316 E25.48693
G1 X53.158 Y185.826 E25.50448
G1 X52.988 Y185.306 E25.52234
G1 X52.848 Y184.776 E25.54025
G1 X52.798 Y184.506 E25.54922
G1 X52.718 Y183.696 E25.57580
G1 X52.718 Y55.906 E29.74942
G1 X52.768 Y55.356 E29.76745
G1 X52.918 Y54.546 E29.79436
G1 X53.068 Y54.026 E29.81203
G1 X53.268 Y53.516 E29.82992
G1 X53.508 Y53.026 E29.84774
G1 X53.788 Y52.556 E29.86561
G1 X54.108 Y52.106 E29.88365
G1 X54.405 Y51.756 E29.89865
G1 F1800.000 E28.89865
G92 E0
G1 X98.530 Y55.647 F12000.000
G1 F1800.000 E1.00000
G1 X98.000 Y56.177 F1260.000 E1.02450
G1 X98.000 Y57.945 E1.08223
G1 X100.298 Y55.647 E1.18836
G1 X102.065 Y55.647 E1.24609
G1 X98.000 Y59.712 E1.43386
G1 X98.000 Y61.479 E1.49159
G1 X103.833 Y55.647 E1.76099
G1 X105.600 Y55.647 E1.81872
G1 X98.000 Y63.247 E2.16976
G1 X98.000 Y65.014 E2.22749
G1 X107.368 Y55.647 E2.66017
G1 X109.135 Y55.647 E2.71789
G1 X98.000 Y66.782 E3.23220
G1 X98.000 Y68.549 E3.28993
G1 X110.903 Y55.647 E3.88588
G1 X112.670 Y55.647 E3.94360
G1 X98.000 Y70.317 E4.62119
G1 X98.000 Y72.084 E4.67891
G1 X114.437 Y55.647 E5.43813
G1 X116.205 Y55.647 E5.49586
G1 X98.000 Y73.852 E6.33672
G1 X98.000 Y75.619 E6.39444
G1 X117.972 Y55.647 E7.31693
G1 X119.740 Y55.647 E7.37466
G1 X99.138 Y76.248 E8.32621
G1 X100.705 Y76.449 E8.37781
G1 X121.507 Y55.647 E9.33861
G1 X123.275 Y55.647 E9.39634
G1 X102.136 Y76.785 E10.37269
G1 X103.455 Y77.233 E10.41820
G1 X125.042 Y55.647 E11.41525
G1 F1800.000 E10.41525
G92 E0
G1 X129.720 Y58.038 F12000.000
G1 F1800.000 E1.00000
G1 X130.662 Y57.097 F1260.000 E1.04350
G1 X130.345 Y55.647 E1.09197
G1 X128.186 Y57.805 E1.19166
G1 X126.151 Y58.073 E1.25871
G1 X128.577 Y55.647 E1.37078
G1 X126.810 Y55.647 E1.42851
G1 X104.684 Y77.773 E2.45046
G1 X105.818 Y78.406 E2.49289
G1 X121.854 Y62.370 E3.23357
G1 X121.555 Y64.436 E3.30177
G1 X106.879 Y79.113 E3.97964
G1 X107.857 Y79.901 E4.02070
G1 X121.766 Y65.993 E4.66312
G1 X122.247 Y67.279 E4.70796
G1 X108.765 Y80.761 E5.33068
G1 X109.599 Y81.695 E5.37156
G1 X122.931 Y68.362 E5.98737
G1 X123.789 Y69.272 E6.02820
G1 X110.356 Y82.705 E6.64864
G1 X111.039 Y83.790 E6.69050
G1 X124.820 Y70.009 E7.32701
G1 X126.041 Y70.555 E7.37071
G1 X111.635 Y84.961 E8.03612
G1 X112.145 Y86.219 E8.08044
G1 X127.522 Y70.841 E8.79069
G1 X129.433 Y70.698 E8.85328
G1 X112.552 Y87.579 E9.63296
G1 X112.839 Y89.059 E9.68221
G1 X130.662 Y71.236 E10.50541
G1 X130.662 Y73.004 E10.56314
G1 X112.985 Y90.681 E11.37962
G1 X113.000 Y92.433 E11.43685
G1 X130.662 Y74.771 E12.25264
G1 X130.662 Y76.538 E12.31036
G1 X113.000 Y94.201 E13.12615
G1 X113.000 Y95.968 E13.18387
G1 X130.662 Y78.306 E13.99966
G1 X130.662 Y80.073 E14.05738
G1 X113.000 Y97.736 E14.87317
G1 X113.000 Y99.503 E14.93089
G1 X130.662 Y81.841 E15.74667
G1 X130.662 Y83.608 E15.80440
G1 X113.000 Y101.271 E16.62018
G1 X113.000 Y103.038 E16.67791
G1 X130.662 Y85.376 E17.49369
G1 X130.662 Y87.143 E17.55142
G1 X113.000 Y104.805 E18.36720
G1 X113.000 Y106.573 E18.42493
G1 X130.662 Y88.911 E19.24071
G1 X130.662 Y90.678 E19.29844
G1 X113.000 Y108.340 E20.11422
G1 X113.000 Y110.108 E20.17195
G1 X130.662 Y92.446 E20.98773
G1 X130.662 Y94.213 E21.04546
G1 X113.000 Y111.875 E21.86124
G1 X113.000 Y113.643 E21.91896
G1 X130.662 Y95.980 E22.73475
G1 X130.662 Y97.748 E22.79247
G1 X113.000 Y115.410 E23.60826
G1 X113.000 Y117.178 E23.66598
G1 X130.662 Y99.515 E24.48177
G1 X130.662 Y101.283 E24.53949
G1 X113.000 Y118.945 E25.35528
G1 X113.000 Y120.713 E25.41300
G1 X130.662 Y103.050 E26.22879
G1 X130.662 Y104.818 E26.28651
G1 X113.000 Y122.480 E27.10230
G1 X113.000 Y124.247 E27.16002
G1 X130.662 Y106.585 E27.97581
G1 X130.662 Y108.353 E28.03353
G1 X113.000 Y126.015 E28.84931
G1 X113.000 Y127.782 E28.90704
G1 X130.662 Y110.120 E29.72282
G1 X130.662 Y111.888 E29.78055
G1 X113.000 Y129.550 E30.59633
G1 X113.000 Y131.317 E30.65406
G1 X130.662 Y113.655 E31.46984
G1 X130.662 Y115.422 E31.52757
G1 X113.000 Y133.085 E32.34335
G1 X113.000 Y134.852 E32.40108
G1 X130.662 Y117.190 E33.21686
G1 X130.662 Y118.957 E33.27459
G1 X113.000 Y136.620 E34.09037
G1 X113.000 Y138.387 E34.14810
G1 X130.662 Y120.725 E34.96388
G1 X130.662 Y122.492 E35.02161
G1 X113.000 Y140.155 E35.83739
G1 X113.000 Y141.922 E35.89511
G1 X130.662 Y124.260 E36.71090
G1 X130.662 Y126.027 E36.76862
G1 X113.000 Y143.689 E37.58441
G1 X113.000 Y145.457 E37.64213
G1 X130.662 Y127.795 E38.45792
G1 X130.662 Y129.562 E38.51564
G1 X113.000 Y147.224 E39.33143
G1 X112.994 Y148.998 E39.38934
G1 X130.662 Y131.330 E40.20539
G1 X130.662 Y133.097 E40.26311
G1 X112.844 Y150.915 E41.08611
G1 X112.343 Y153.184 E41.16198
G1 X130.662 Y134.864 E42.00812
G1 X130.662 Y136.632 E42.06584
G1 X110.981 Y156.313 E42.97486
G1 F1800.000 E41.97486
G92 E0
G1 X98.000 Y163.992 F12000.000
G1 F1800.000 E1.00000
G1 X98.197 Y163.795 F1260.000 E1.00911
G1 X100.115 Y163.644 E1.07195
G1 X98.000 Y165.759 E1.16965
G1 X98.000 Y167.527 E1.22737
G1 X102.383 Y163.143 E1.42984
G1 X105.509 Y161.785 E1.54113
G1 X98.000 Y169.294 E1.88795
G1 X98.000 Y171.062 E1.94567
G1 X130.662 Y138.399 E3.45428
G1 X130.662 Y140.167 E3.51200
G1 X98.000 Y172.829 E5.02061
G1 X98.000 Y174.596 E5.07834
G1 X130.662 Y141.934 E6.58694
G1 X130.662 Y143.702 E6.64467
G1 X98.000 Y176.364 E8.15327
G1 X98.000 Y178.131 E8.21100
G1 X130.662 Y145.469 E9.71961
G1 X130.662 Y147.237 E9.77733
G1 X98.000 Y179.899 E11.28594
G1 X98.000 Y181.666 E11.34366
G1 X130.662 Y149.004 E12.85227
G1 X130.662 Y150.772 E12.90999
G1 X98.000 Y183.434 E14.41860
G1 X98.848 Y184.353 E14.45945
G1 X130.662 Y152.539 E15.92890
G1 X130.662 Y154.306 E15.98662
G1 X100.615 Y184.353 E17.37444
G1 X102.383 Y184.353 E17.43216
G1 X130.662 Y156.074 E18.73834
G1 X130.662 Y157.841 E18.79606
G1 X104.150 Y184.353 E20.02060
G1 X105.918 Y184.353 E20.07833
G1 X130.662 Y159.609 E21.22123
G1 X130.662 Y161.376 E21.27896
G1 X107.685 Y184.353 E22.34023
G1 X109.452 Y184.353 E22.39795
G1 X130.662 Y163.144 E23.37759
G1 F1800.000 E22.37759
G92 E0
G1 X130.662 Y168.446 F12000.000
G1 F1800.000 E1.00000
G1 X129.729 Y169.379 F1260.000 E1.04309
G1 X128.198 Y169.143 E1.09370
G1 X130.662 Y166.679 E1.20753
G1 X130.662 Y164.911 E1.26525
G1 X126.166 Y169.407 E1.47291
G1 F1800.000 E0.47291
G92 E0
G1 X121.848 Y173.725 F12000.000
G1 F1800.000 E1.00000
G1 X111.220 Y184.353 F1260.000 E1.49091
G1 X112.987 Y184.353 E1.54863
G1 X121.555 Y175.785 E1.94437
G1 X121.768 Y177.340 E1.99562
G1 X114.755 Y184.353 E2.31955
G1 X116.522 Y184.353 E2.37728
G1 X122.252 Y178.624 E2.64191
G1 X122.936 Y179.707 E2.68375
G1 X118.290 Y184.353 E2.89836
G1 X120.057 Y184.353 E2.95608
G1 X123.795 Y180.616 E3.12873
G1 X124.827 Y181.351 E3.17012
G1 X121.825 Y184.353 E3.30878
G1 X123.592 Y184.353 E3.36650
G1 X126.049 Y181.896 E3.48000
G1 X127.533 Y182.180 E3.52933
G1 X125.360 Y184.353 E3.62971
G1 X127.127 Y184.353 E3.68744
G1 X129.447 Y182.033 E3.79461
G1 X130.662 Y182.586 E3.83820
G1 X128.894 Y184.353 E3.91984
G1 X130.662 Y184.353 E3.97757
G1 F1800.000 E2.97757
G92 E0
G1 X92.000 Y184.353 F12000.000
G1 F1800.000 E1.00000
G1 X90.232 Y184.353 F1260.000 E1.05773
G1 X92.000 Y182.586 E1.13938
G1 X90.785 Y182.033 E1.18296
G1 X88.465 Y184.353 E1.29013
G1 X86.698 Y184.353 E1.34786
G1 X88.871 Y182.180 E1.44824
G1 X87.387 Y181.896 E1.49757
G1 X84.930 Y184.353 E1.61107
G1 X83.163 Y184.353 E1.66879
G1 X86.165 Y181.351 E1.80746
G1 X85.133 Y180.616 E1.84884
G1 X81.395 Y184.353 E2.02149
G1 X79.628 Y184.353 E2.07921
G1 X84.274 Y179.707 E2.29382
G1 X83.590 Y178.624 E2.33567
G1 X77.860 Y184.353 E2.60030
G1 X76.093 Y184.353 E2.65802
G1 X83.106 Y177.340 E2.98195
G1 X82.893 Y175.785 E3.03320
G1 X74.325 Y184.353 E3.42894
G1 X72.558 Y184.353 E3.48666
G1 X83.186 Y173.725 E3.97757
G1 F1800.000 E2.97757
G92 E0
G1 X87.504 Y169.407 F12000.000
G1 F1800.000 E1.00000
G1 X92.000 Y164.911 F1260.000 E1.20765
G1 X92.000 Y166.679 E1.26538
G1 X89.536 Y169.143 E1.37920
G1 X91.067 Y169.379 E1.42982
G1 X92.000 Y168.446 E1.47291
G1 F1800.000 E0.47291
G92 E0
G1 X92.000 Y163.144 F12000.000
G1 F1800.000 E1.00000
G1 X70.790 Y184.353 F1260.000 E1.97963
G1 X69.023 Y184.353 E2.03736
G1 X92.000 Y161.376 E3.09863
G1 X92.000 Y159.609 E3.15635
G1 X67.256 Y184.353 E4.29926
G1 X65.488 Y184.353 E4.35698
G1 X92.000 Y157.841 E5.58153
G1 X92.000 Y156.074 E5.63925
G1 X63.721 Y184.353 E6.94543
G1 X61.953 Y184.353 E7.00315
G1 X92.000 Y154.306 E8.39096
G1 X92.000 Y152.539 E8.44869
G1 X60.186 Y184.353 E9.91814
G1 X59.338 Y183.434 E9.95899
G1 X92.000 Y150.772 E11.46759
G1 X92.000 Y149.004 E11.52532
G1 X59.338 Y181.666 E13.03392
G1 X59.338 Y179.899 E13.09165
G1 X92.000 Y147.237 E14.60026
G1 X92.000 Y145.469 E14.65798
G1 X59.338 Y178.131 E16.16659
G1 X59.338 Y176.364 E16.22431
G1 X92.000 Y143.702 E17.73292
G1 X92.000 Y141.934 E17.79064
G1 X59.338 Y174.596 E19.29925
G1 X59.338 Y172.829 E19.35698
G1 X92.000 Y140.167 E20.86558
G1 X92.000 Y138.399 E20.92331
G1 X59.338 Y171.062 E22.43191
G1 X59.338 Y169.294 E22.48964
G1 X66.847 Y161.785 E22.83646
G1 X63.721 Y163.143 E22.94775
G1 X59.338 Y167.527 E23.15021
G1 X59.338 Y165.759 E23.20794
G1 X61.453 Y163.644 E23.30564
G1 X59.535 Y163.795 E23.36848
G1 X59.338 Y163.992 E23.37759
G1 F1800.000 E22.37759
G92 E0
G1 X72.319 Y156.313 F12000.000
G1 F1800.000 E1.00000
G1 X92.000 Y136.632 F1260.000 E1.90902
G1 X92.000 Y134.864 E1.96675
G1 X73.681 Y153.184 E2.81288
G1 X74.182 Y150.915 E2.88875
G1 X92.000 Y133.097 E3.71175
G1 X92.000 Y131.330 E3.76948
G1 X74.332 Y148.998 E4.58552
G1 X74.338 Y147.224 E4.64344
G1 X92.000 Y129.562 E5.45922
G1 X92.000 Y127.795 E5.51695
G1 X74.338 Y145.457 E6.33273
G1 X74.338 Y143.689 E6.39046
G1 X92.000 Y126.027 E7.20624
G1 X92.000 Y124.260 E7.26396
G1 X74.338 Y141.922 E8.07975
G1 X74.338 Y140.155 E8.13747
G1 X92.000 Y122.492 E8.95326
G1 X92.000 Y120.725 E9.01098
G1 X74.338 Y138.387 E9.82677
G1 X74.338 Y136.620 E9.88449
G1 X92.000 Y118.957 E10.70028
G1 X92.000 Y117.190 E10.75800
G1 X74.338 Y134.852 E11.57379
G1 X74.338 Y133.085 E11.63151
G1 X92.000 Y115.422 E12.44730
G1 X92.000 Y113.655 E12.50502
G1 X74.338 Y131.317 E13.32081
G1 X74.338 Y129.550 E13.37853
G1 X92.000 Y111.888 E14.19431
G1 X92.000 Y110.120 E14.25204
G1 X74.338 Y127.782 E15.06782
G1 X74.338 Y126.015 E15.12555
G1 X92.000 Y108.353 E15.94133
G1 X92.000 Y106.585 E15.99906
G1 X74.338 Y124.247 E16.81484
G1 X74.338 Y122.480 E16.87257
G1 X92.000 Y104.818 E17.68835
G1 X92.000 Y103.050 E17.74608
G1 X74.338 Y120.713 E18.56186
G1 X74.338 Y118.945 E18.61959
G1 X92.000 Y101.283 E19.43537
G1 X92.000 Y99.515 E19.49310
G1 X74.338 Y117.178 E20.30888
G1 X74.338 Y115.410 E20.36660
G1 X92.000 Y97.748 E21.18239
G1 X92.000 Y95.980 E21.24011
G1 X74.338 Y113.643 E22.05590
G1 X74.338 Y111.875 E22.11362
G1 X92.000 Y94.213 E22.92941
G1 X92.000 Y92.446 E22.98713
G1 X74.338 Y110.108 E23.80292
G1 X74.338 Y108.340 E23.86064
G1 X92.000 Y90.678 E24.67643
G1 X92.000 Y88.911 E24.73415
G1 X74.338 Y106.573 E25.54994
