; generated by Slic3r 0.9.9 on 2013-09-30 at 19:12:16

; July 20, 2013:
; - Updated support material width to 50%
; 
; 
; Initial:
; Doubled the infill and perimeter speeds, trying this at 220

; layer_height = 0.25
; perimeters = 2
; top_solid_layers = 3
; bottom_solid_layers = 3
; fill_density = 0.1
; perimeter_speed = 60
; infill_speed = 100
; travel_speed = 200
; nozzle_diameter = 0.35
; filament_diameter = 2.92
; extrusion_multiplier = 1
; perimeters extrusion width = 0.39mm
; infill extrusion width = 0.39mm
; solid infill extrusion width = 0.39mm
; top infill extrusion width = 0.39mm
; support material extrusion width = 0.19mm
; first layer extrusion width = 0.70mm

G21 ; set units to millimeters
M107
M190 S70 ; wait for bed temperature to be reached
M104 S220 ; set temperature
G1 X30 Y30 F3000
G1 Z5 F5000 ; lift nozzle
M42 P5 S255 ; turn on the lights
M109 S220 ; wait for temperature to be reached
G90 ; use absolute coordinates
G92 E0
M82 ; use absolute distances for extrusion
G1 F1800.000 E-1.00000
G92 E0
G1 Z0.350 F12000.000
G1 X53.093 Y75.133
G1 F1800.000 E1.00000
G1 X53.563 Y74.823 F1080.000 E1.01839
G1 X54.063 Y74.543 E1.03710
G1 X54.583 Y74.303 E1.05581
G1 X55.383 Y74.023 E1.08349
G1 X55.943 Y73.893 E1.10227
G1 X56.503 Y73.803 E1.12079
G1 X56.783 Y73.773 E1.12999
G1 X57.353 Y73.753 E1.14862
G1 X104.653 Y73.753 E2.69343
G1 X125.853 Y73.763 E3.38582
G1 X126.423 Y73.783 E3.40445
G1 X128.353 Y73.943 E3.46770
G1 X129.203 Y74.093 E3.49589
G1 X131.333 Y74.713 E3.56834
G1 X132.043 Y75.013 E3.59352
G1 X133.233 Y75.593 E3.63675
G1 X134.223 Y76.183 E3.67439
G1 X135.263 Y76.913 E3.71589
G1 X136.133 Y77.633 E3.75277
G1 X137.033 Y78.503 E3.79366
G1 X137.813 Y79.393 E3.83231
G1 X138.563 Y80.403 E3.87339
G1 X139.163 Y81.353 E3.91009
G1 X139.993 Y82.963 E3.96925
G1 X140.253 Y83.663 E3.99364
G1 X140.683 Y85.003 E4.03960
G1 X140.833 Y85.523 E4.05728
G1 X140.973 Y86.303 E4.08316
G1 X141.173 Y87.873 E4.13485
G1 X141.233 Y88.793 E4.16496
G1 X141.233 Y130.783 E5.53635
G1 X141.203 Y131.453 E5.55826
G1 X140.993 Y133.693 E5.63173
G1 X140.813 Y134.563 E5.66075
G1 X140.543 Y135.413 E5.68988
G1 X140.163 Y136.213 E5.71880
G1 X139.683 Y136.973 E5.74816
G1 X139.123 Y137.663 E5.77718
G1 X116.843 Y161.723 E6.84815
G1 X116.423 Y162.103 E6.86665
G1 X115.973 Y162.463 E6.88547
G1 X115.243 Y162.923 E6.91365
G1 X111.253 Y165.143 E7.06278
G1 X110.453 Y165.523 E7.09171
G1 X109.893 Y165.723 E7.11113
G1 X109.313 Y165.883 E7.13078
G1 X108.433 Y166.023 E7.15988
G1 X106.473 Y166.213 E7.22419
G1 X105.773 Y166.243 E7.24708
G1 X63.783 Y166.243 E8.61847
G1 X62.813 Y166.173 E8.65023
G1 X61.253 Y165.963 E8.70164
G1 X60.073 Y165.703 E8.74110
G1 X58.193 Y165.103 E8.80555
G1 X57.683 Y164.873 E8.82383
G1 X56.283 Y164.123 E8.87570
G1 X55.403 Y163.563 E8.90976
G1 X54.393 Y162.813 E8.95085
G1 X53.503 Y162.033 E8.98950
G1 X52.633 Y161.133 E9.03038
G1 X51.913 Y160.263 E9.06727
G1 X51.183 Y159.223 E9.10877
G1 X50.573 Y158.183 E9.14814
G1 X50.003 Y156.993 E9.19124
G1 X49.583 Y155.883 E9.23000
G1 X49.103 Y154.223 E9.28643
G1 X48.993 Y153.673 E9.30475
G1 X48.923 Y153.103 E9.32351
G1 X48.783 Y151.483 E9.37662
G1 X48.753 Y150.863 E9.39689
G1 X48.753 Y82.353 E11.63442
G1 X48.773 Y81.783 E11.65305
G1 X48.803 Y81.503 E11.66225
G1 X48.893 Y80.943 E11.68077
G1 X49.023 Y80.383 E11.69955
G1 X49.303 Y79.583 E11.72723
G1 X49.673 Y78.813 E11.75513
G1 X50.133 Y78.093 E11.78303
G1 X50.493 Y77.643 E11.80186
G1 X50.873 Y77.223 E11.82035
G1 X52.223 Y75.873 E11.88271
G1 X52.643 Y75.493 E11.90121
G1 X53.019 Y75.190 E11.91697
G1 X53.283 Y75.773 F12000.000
G1 X53.733 Y75.453 F1080.000 E11.93500
G1 X54.203 Y75.173 E11.95287
G1 X54.693 Y74.933 E11.97069
G1 X55.203 Y74.733 E11.98858
G1 X55.993 Y74.523 E12.01528
G1 X56.533 Y74.433 E12.03316
G1 X57.083 Y74.383 E12.05119
G1 X104.653 Y74.383 E13.60483
G1 X125.853 Y74.393 E14.29722
G1 X126.373 Y74.413 E14.31422
G1 X128.273 Y74.563 E14.37646
G1 X128.793 Y74.643 E14.39365
G1 X129.053 Y74.703 E14.40236
G1 X131.123 Y75.303 E14.47275
G1 X131.763 Y75.573 E14.49544
G1 X132.953 Y76.153 E14.53867
G1 X133.863 Y76.693 E14.57323
G1 X134.903 Y77.423 E14.61473
G1 X135.693 Y78.083 E14.64835
G1 X136.593 Y78.953 E14.68923
G1 X137.313 Y79.763 E14.72463
G1 X138.063 Y80.773 E14.76571
G1 X138.603 Y81.643 E14.79916
G1 X139.323 Y83.003 E14.84941
G1 X139.503 Y83.423 E14.86434
G1 X139.663 Y83.863 E14.87963
G1 X140.093 Y85.203 E14.92559
G1 X140.223 Y85.663 E14.94120
G1 X140.323 Y86.143 E14.95722
G1 X140.553 Y87.953 E15.01681
G1 X140.603 Y88.793 E15.04429
G1 X140.603 Y130.783 E16.41568
G1 X140.583 Y131.393 E16.43561
G1 X140.403 Y133.343 E16.49957
G1 X140.323 Y133.913 E16.51837
G1 X140.193 Y134.483 E16.53747
G1 X139.913 Y135.303 E16.56576
G1 X139.663 Y135.823 E16.58461
G1 X139.213 Y136.563 E16.61290
G1 X138.853 Y137.023 E16.63197
G1 X116.633 Y161.033 E17.70041
G1 X116.253 Y161.413 E17.71796
G1 X115.633 Y161.933 E17.74439
G1 X114.943 Y162.373 E17.77112
G1 X110.953 Y164.593 E17.92024
G1 X110.413 Y164.863 E17.93996
G1 X109.853 Y165.083 E17.95961
G1 X109.563 Y165.173 E17.96953
G1 X108.973 Y165.313 E17.98933
G1 X108.673 Y165.363 E17.99927
G1 X106.413 Y165.583 E18.07343
G1 X105.773 Y165.613 E18.09435
G1 X63.783 Y165.613 E19.46575
G1 X62.903 Y165.563 E19.49453
G1 X61.343 Y165.353 E19.54594
G1 X60.253 Y165.113 E19.58239
G1 X58.663 Y164.613 E19.63683
G1 X57.953 Y164.313 E19.66200
G1 X56.583 Y163.573 E19.71286
G1 X55.773 Y163.063 E19.74412
G1 X54.763 Y162.313 E19.78521
G1 X53.953 Y161.593 E19.82060
G1 X53.083 Y160.693 E19.86148
G1 X52.423 Y159.903 E19.89510
G1 X51.693 Y158.863 E19.93660
G1 X51.143 Y157.913 E19.97245
G1 X50.573 Y156.723 E20.01555
G1 X50.183 Y155.703 E20.05121
G1 X49.713 Y154.073 E20.10662
G1 X49.603 Y153.573 E20.12334
G1 X49.403 Y151.433 E20.19354
G1 X49.383 Y150.863 E20.21216
G1 X49.383 Y82.083 E22.45851
G1 X49.433 Y81.533 E22.47655
G1 X49.523 Y80.993 E22.49443
G1 X49.733 Y80.203 E22.52113
G1 X49.933 Y79.693 E22.53902
G1 X50.053 Y79.443 E22.54808
G1 X50.173 Y79.203 E22.55684
G1 X50.453 Y78.733 E22.57471
G1 X50.773 Y78.283 E22.59274
G1 X51.133 Y77.863 E22.61081
G1 X52.863 Y76.133 E22.69071
G1 X53.210 Y75.832 E22.70572
G1 F1800.000 E21.70572
G92 E0
G1 X99.359 Y81.003 F12000.000
G1 F1800.000 E1.00000
G1 X98.000 Y82.362 F1260.000 E1.06275
G1 X98.000 Y84.129 E1.12048
G1 X101.125 Y81.004 E1.26484
G1 X102.892 Y81.004 E1.32254
G1 X98.000 Y85.897 E1.54850
G1 X98.000 Y87.664 E1.60623
G1 X104.659 Y81.005 E1.91380
G1 X106.426 Y81.006 E1.97150
G1 X98.000 Y89.432 E2.36067
G1 X98.000 Y91.199 E2.41840
G1 X108.193 Y81.006 E2.88918
G1 X109.959 Y81.007 E2.94688
G1 X98.000 Y92.966 E3.49927
G1 X98.000 Y94.734 E3.55699
G1 X111.726 Y81.008 E4.19098
G1 X113.493 Y81.008 E4.24868
G1 X98.000 Y96.501 E4.96428
G1 X98.000 Y98.269 E5.02200
G1 X115.260 Y81.009 E5.81920
G1 X117.026 Y81.010 E5.87690
G1 X98.000 Y100.036 E6.75571
G1 X98.000 Y101.804 E6.81343
G1 X118.793 Y81.010 E7.77384
G1 X120.560 Y81.011 E7.83154
G1 X98.000 Y103.571 E8.87356
G1 X98.000 Y105.339 E8.93128
G1 X122.327 Y81.012 E10.05490
G1 X124.094 Y81.012 E10.11260
G1 X98.000 Y107.106 E11.31783
G1 X98.000 Y108.874 E11.37555
G1 X125.860 Y81.013 E12.66238
G1 X127.495 Y81.146 E12.71593
G1 X98.147 Y110.494 E14.07146
G1 X98.541 Y111.867 E14.11810
G1 X128.869 Y81.539 E15.51888
G1 X130.060 Y82.116 E15.56209
G1 X99.116 Y113.060 E16.99133
G1 X99.844 Y114.099 E17.03277
G1 X131.096 Y82.847 E18.47624
G1 X131.998 Y83.713 E18.51706
G1 X116.675 Y99.036 E19.22482
G1 X116.143 Y99.568 F12000.000
G1 X100.710 Y115.001 F1260.000 E19.93762
G1 X101.723 Y115.755 E19.97887
G1 X114.197 Y103.281 E20.55502
G1 X114.009 Y105.237 E20.61919
G1 X102.880 Y116.366 E21.13323
G1 X104.221 Y116.792 E21.17919
G1 X114.005 Y107.008 E21.63108
G1 X114.001 Y108.780 E21.68894
G1 X105.781 Y116.999 E22.06857
G1 X107.742 Y116.806 E22.13290
G1 X113.803 Y110.745 E22.41287
G1 X111.730 Y114.585 E22.55539
G1 F1800.000 E21.55539
G92 E0
G1 X120.284 Y97.194 F12000.000
G1 F1800.000 E1.00000
G1 X132.752 Y84.727 F1260.000 E1.57584
G1 X133.362 Y85.884 E1.61857
G1 X122.235 Y97.010 E2.13247
G1 X124.011 Y97.003 E2.19044
G1 X133.789 Y87.224 E2.64210
G1 X133.987 Y88.794 E2.69378
G1 X125.786 Y96.995 E3.07257
G1 X127.742 Y96.806 E3.13677
G1 X133.804 Y90.744 E3.41674
G1 F1800.000 E2.41674
G92 E0
G1 X91.806 Y90.744 F12000.000
G1 F1800.000 E1.00000
G1 X85.745 Y96.806 F1260.000 E1.27997
G1 X83.788 Y96.995 E1.34417
G1 X91.989 Y88.794 E1.72296
G1 X91.792 Y87.224 E1.77464
G1 X82.013 Y97.003 E2.22630
G1 X80.238 Y97.010 E2.28427
G1 X91.364 Y85.884 E2.79817
G1 X90.754 Y84.727 E2.84090
G1 X78.287 Y97.194 E3.41674
G1 F1800.000 E2.41674
G92 E0
G1 X74.677 Y99.036 F12000.000
G1 F1800.000 E1.00000
G1 X90.001 Y83.713 F1260.000 E1.70776
G1 X89.099 Y82.847 E1.74859
G1 X57.847 Y114.099 E3.19205
G1 X57.118 Y113.060 E3.23349
G1 X88.062 Y82.116 E4.66273
G1 X86.872 Y81.539 E4.70594
G1 X56.544 Y111.867 E6.10672
G1 X56.149 Y110.494 E6.15336
G1 X85.497 Y81.146 E7.50890
G1 X83.863 Y81.013 E7.56244
G1 X56.003 Y108.874 E8.84927
G1 X56.003 Y107.106 E8.90700
G1 X82.096 Y81.012 E10.11222
G1 X80.330 Y81.012 E10.16992
G1 X56.003 Y105.339 E11.29354
G1 X56.003 Y103.571 E11.35127
G1 X78.563 Y81.011 E12.39328
G1 X76.796 Y81.010 E12.45098
G1 X56.003 Y101.804 E13.41139
G1 X56.003 Y100.036 E13.46912
G1 X75.029 Y81.010 E14.34792
G1 X73.262 Y81.009 E14.40562
G1 X56.003 Y98.269 E15.20282
G1 X56.003 Y96.501 E15.26055
G1 X71.496 Y81.008 E15.97614
G1 X69.729 Y81.008 E16.03384
G1 X56.003 Y94.734 E16.66783
G1 X56.003 Y92.966 E16.72556
G1 X67.962 Y81.007 E17.27794
G1 X66.195 Y81.006 E17.33564
G1 X56.003 Y91.199 E17.80642
G1 X56.003 Y89.432 E17.86415
G1 X64.428 Y81.006 E18.25332
G1 X62.662 Y81.005 E18.31102
G1 X56.003 Y87.664 E18.61859
G1 X56.003 Y85.897 E18.67632
G1 X60.895 Y81.004 E18.90228
G1 X59.128 Y81.004 E18.95999
G1 X56.003 Y84.129 E19.10434
G1 X56.003 Y82.362 E19.16207
G1 X57.361 Y81.003 E19.22482
G1 F1800.000 E18.22482
G92 E0
G1 X74.145 Y99.568 F12000.000
G1 F1800.000 E1.00000
G1 X58.713 Y115.001 F1260.000 E1.71280
G1 X59.726 Y115.755 E1.75405
G1 X72.200 Y103.281 E2.33020
G1 X72.012 Y105.237 E2.39437
G1 X60.882 Y116.366 E2.90840
G1 X62.224 Y116.792 E2.95437
G1 X72.007 Y107.008 E3.40625
G1 X72.003 Y108.780 E3.46411
G1 X63.784 Y116.999 E3.84375
G1 X65.744 Y116.806 E3.90808
G1 X71.806 Y110.745 E4.18804
G1 X69.733 Y114.585 E4.33057
G1 F1800.000 E3.33057
G92 E0
G1 X57.361 Y123.000 F12000.000
G1 F1800.000 E1.00000
G1 X56.003 Y124.359 F1260.000 E1.06275
G1 X56.003 Y126.127 E1.12048
G1 X59.128 Y123.001 E1.26484
G1 X60.895 Y123.002 E1.32254
G1 X56.003 Y127.894 E1.54850
G1 X56.003 Y129.661 E1.60623
G1 X62.662 Y123.002 E1.91380
G1 X64.428 Y123.003 E1.97150
G1 X56.003 Y131.429 E2.36067
G1 X56.003 Y133.196 E2.41840
G1 X66.195 Y123.004 E2.88918
G1 X67.962 Y123.004 E2.94688
G1 X56.003 Y134.964 E3.49927
G1 X56.003 Y136.731 E3.55699
G1 X69.729 Y123.005 E4.19098
G1 X71.496 Y123.006 E4.24868
G1 X56.003 Y138.499 E4.96428
G1 X56.003 Y140.266 E5.02200
G1 X73.262 Y123.006 E5.81920
G1 X75.029 Y123.007 E5.87690
G1 X56.003 Y142.034 E6.75571
G1 X56.003 Y143.801 E6.81343
G1 X76.796 Y123.008 E7.77384
G1 X78.563 Y123.008 E7.83154
G1 X56.003 Y145.569 E8.87356
G1 X56.003 Y147.336 E8.93128
G1 X80.330 Y123.009 E10.05490
G1 X82.096 Y123.010 E10.11260
G1 X56.003 Y149.103 E11.31783
G1 X56.003 Y150.871 E11.37555
G1 X83.863 Y123.010 E12.66238
G1 X85.497 Y123.144 E12.71593
G1 X56.149 Y152.492 E14.07146
G1 X56.544 Y153.864 E14.11810
G1 X86.872 Y123.537 E15.51888
G1 X88.062 Y124.113 E15.56209
G1 X57.118 Y155.057 E16.99133
G1 X57.847 Y156.096 E17.03277
G1 X89.099 Y124.844 E18.47624
G1 X90.001 Y125.710 E18.51706
G1 X74.677 Y141.033 E19.22482
G1 X74.145 Y141.566 F12000.000
G1 X58.713 Y156.998 F1260.000 E19.93762
G1 X59.726 Y157.752 E19.97887
G1 X72.200 Y145.278 E20.55502
G1 X72.012 Y147.234 E20.61919
G1 X60.882 Y158.363 E21.13323
G1 X62.224 Y158.789 E21.17919
G1 X72.007 Y149.006 E21.63108
G1 X72.003 Y150.777 E21.68894
G1 X63.784 Y158.996 E22.06857
G1 X65.744 Y158.804 E22.13290
G1 X71.806 Y152.742 E22.41287
G1 X69.733 Y156.582 E22.55539
G1 F1800.000 E21.55539
G92 E0
G1 X78.287 Y139.191 F12000.000
G1 F1800.000 E1.00000
G1 X90.754 Y126.724 F1260.000 E1.57584
G1 X91.364 Y127.881 E1.61857
G1 X80.238 Y139.008 E2.13247
G1 X82.013 Y139.000 E2.19044
G1 X91.792 Y129.221 E2.64210
G1 X91.989 Y130.791 E2.69378
G1 X83.788 Y138.992 E3.07257
G1 X85.745 Y138.803 E3.13677
G1 X91.806 Y132.742 E3.41674
G1 F1800.000 E2.41674
G92 E0
G1 X99.359 Y123.000 F12000.000
G1 F1800.000 E1.00000
G1 X98.000 Y124.359 F1260.000 E1.06275
G1 X98.000 Y126.127 E1.12048
G1 X101.125 Y123.001 E1.26484
G1 X102.892 Y123.002 E1.32254
G1 X98.000 Y127.894 E1.54850
G1 X98.000 Y129.661 E1.60623
G1 X104.659 Y123.002 E1.91380
G1 X106.426 Y123.003 E1.97150
G1 X98.000 Y131.429 E2.36067
G1 X98.000 Y133.196 E2.41840
G1 X108.193 Y123.004 E2.88918
G1 X109.959 Y123.004 E2.94688
G1 X98.000 Y134.964 E3.49927
G1 X98.000 Y136.731 E3.55699
G1 X111.726 Y123.005 E4.19098
G1 X113.493 Y123.006 E4.24868
G1 X98.000 Y138.499 E4.96428
G1 X98.000 Y140.266 E5.02200
G1 X115.260 Y123.006 E5.81920
G1 X117.026 Y123.007 E5.87690
G1 X98.000 Y142.034 E6.75571
G1 X98.000 Y143.801 E6.81343
G1 X118.793 Y123.008 E7.77384
G1 X120.560 Y123.008 E7.83154
G1 X98.000 Y145.569 E8.87356
G1 X98.000 Y147.336 E8.93128
G1 X122.327 Y123.009 E10.05490
G1 X124.094 Y123.010 E10.11260
G1 X98.000 Y149.103 E11.31783
G1 X98.000 Y150.871 E11.37555
G1 X125.860 Y123.010 E12.66238
G1 X127.495 Y123.144 E12.71593
G1 X98.147 Y152.492 E14.07146
G1 X98.541 Y153.864 E14.11810
G1 X128.869 Y123.537 E15.51888
G1 X130.060 Y124.113 E15.56209
G1 X99.116 Y155.057 E16.99133
G1 X99.844 Y156.096 E17.03277
G1 X131.096 Y124.844 E18.47624
G1 X131.998 Y125.710 E18.51706
G1 X116.675 Y141.033 E19.22482
G1 X116.143 Y141.566 F12000.000
G1 X100.710 Y156.998 F1260.000 E19.93762
G1 X101.723 Y157.752 E19.97887
G1 X114.197 Y145.278 E20.55502
G1 X114.009 Y147.234 E20.61919
G1 X102.880 Y158.363 E21.13323
G1 X104.221 Y158.789 E21.17919
G1 X114.005 Y149.006 E21.63108
G1 X114.001 Y150.777 E21.68894
G1 X105.781 Y158.996 E22.06857
G1 X107.742 Y158.804 E22.13290
G1 X113.803 Y152.742 E22.41287
G1 X111.730 Y156.582 E22.55539
G1 F1800.000 E21.55539
G92 E0
G1 X120.284 Y139.191 F12000.000
G1 F1800.000 E1.00000
G1 X132.752 Y126.724 F1260.000 E1.57584
G1 X133.362 Y127.881 E1.61857
G1 X122.235 Y139.008 E2.13247
G1 X124.011 Y139.000 E2.19044
G1 X133.789 Y129.221 E2.64210
G1 X133.987 Y130.791 E2.69378
G1 X125.786 Y138.992 E3.07257
G1 X127.742 Y138.803 E3.13677
G1 X133.804 Y132.742 E3.41674
M104 S195 ; set temperature
M140 S50 ; set bed temperature
G1 F1800.000 E2.41674
G92 E0
G1 Z0.600 F12000.000
G1 X133.361 Y88.050
G1 F1800.000 E1.00000
G1 X133.420 Y88.812 F3600.000 E1.01098
G1 X133.420 Y89.194 E1.01647
G1 X133.361 Y89.956 E1.02745
G1 X133.302 Y90.333 E1.03294
G1 X133.127 Y91.077 E1.04392
G1 X132.880 Y91.789 E1.05474
G1 X132.723 Y92.149 E1.06039
G1 X132.552 Y92.491 E1.06588
G1 X132.164 Y93.137 E1.07671
G1 X131.700 Y93.758 E1.08784
G1 X131.188 Y94.311 E1.09867
G1 X130.900 Y94.578 E1.10431
G1 X130.301 Y95.052 E1.11529
G1 X129.984 Y95.266 E1.12078
G1 X129.319 Y95.642 E1.13176
G1 X128.618 Y95.948 E1.14274
G1 X127.890 Y96.180 E1.15372
G1 X127.142 Y96.337 E1.16470
G1 X126.382 Y96.415 E1.17568
G1 X125.993 Y96.425 E1.18128
G1 X121.566 Y96.436 E1.24488
G1 X121.132 Y96.469 E1.25113
G1 X120.313 Y96.594 E1.26304
G1 X119.432 Y96.819 E1.27609
G1 X118.617 Y97.120 E1.28858
G1 X118.223 Y97.302 E1.29482
G1 X117.837 Y97.503 E1.30106
G1 X117.133 Y97.941 E1.31297
G1 X116.413 Y98.494 E1.32603
G1 X116.090 Y98.786 E1.33227
G1 X115.492 Y99.416 E1.34476
G1 X114.960 Y100.103 E1.35724
G1 X114.500 Y100.840 E1.36972
G1 X114.299 Y101.225 E1.37597
G1 X114.118 Y101.620 E1.38221
G1 X113.829 Y102.397 E1.39412
G1 X113.598 Y103.276 E1.40718
G1 X113.467 Y104.135 E1.41966
G1 X113.434 Y104.568 E1.42590
G1 X113.413 Y109.385 E1.49510
G1 X113.383 Y109.766 E1.50059
G1 X113.268 Y110.510 E1.51142
G1 X113.071 Y111.260 E1.52255
G1 X112.801 Y111.975 E1.53353
G1 X112.639 Y112.321 E1.53902
G1 X112.269 Y112.977 E1.54985
G1 X112.050 Y113.303 E1.55550
G1 X111.820 Y113.609 E1.56099
G1 X111.316 Y114.183 E1.57197
G1 X111.042 Y114.450 E1.57746
