; generated by Slic3r 0.9.9 on 2013-09-28 at 17:33:35

; July 20, 2013:
; - Updated support material width to 50%
; 
; 
; Initial:
; Doubled the infill and perimeter speeds, trying this at 220

; layer_height = 0.25
; perimeters = 2
; top_solid_layers = 3
; bottom_solid_layers = 3
; fill_density = 0.1
; perimeter_speed = 60
; infill_speed = 100
; travel_speed = 200
; nozzle_diameter = 0.35
; filament_diameter = 2.92
; extrusion_multiplier = 1
; perimeters extrusion width = 0.39mm
; infill extrusion width = 0.39mm
; solid infill extrusion width = 0.39mm
; top infill extrusion width = 0.39mm
; first layer extrusion width = 0.70mm

G21 ; set units to millimeters
M107
M190 S60 ; wait for bed temperature to be reached
M104 S220 ; set temperature
G1 X30 Y30 F3000
G1 Z5 F5000 ; lift nozzle
M42 P5 S255 ; turn on the lights
M109 S220 ; wait for temperature to be reached
G90 ; use absolute coordinates
G92 E0
M82 ; use absolute distances for extrusion
G1 F1800.000 E-1.00000
G92 E0
G1 Z0.350 F12000.000
G1 X87.850 Y105.690
G1 F1800.000 E1.00000
G1 X88.650 Y105.100 F600.000 E1.03247
G1 X89.380 Y104.660 E1.06030
G1 X89.820 Y104.430 E1.07652
G1 X90.800 Y104.020 E1.11121
G1 X91.770 Y103.730 E1.14428
G1 X92.090 Y103.660 E1.15498
G1 X93.100 Y103.520 E1.18828
G1 X93.580 Y103.490 E1.20399
G1 X96.200 Y103.480 E1.28956
G1 X96.520 Y103.490 E1.30001
G1 X97.630 Y103.620 E1.33651
G1 X98.120 Y103.720 E1.35285
G1 X98.890 Y103.930 E1.37891
G1 X99.190 Y104.030 E1.38924
G1 X100.030 Y104.360 E1.41872
G1 X100.840 Y104.780 E1.44852
G1 X101.120 Y104.950 E1.45921
G1 X101.720 Y105.360 E1.48295
G1 X101.980 Y105.560 E1.49366
G1 X102.620 Y106.130 E1.52165
G1 X102.960 Y106.470 E1.53736
G1 X103.530 Y107.110 E1.56535
G1 X103.730 Y107.370 E1.57606
G1 X104.230 Y108.120 E1.60550
G1 X104.390 Y108.400 E1.61603
G1 X104.720 Y109.030 E1.63926
G1 X105.010 Y109.710 E1.66340
G1 X105.300 Y110.650 E1.69553
G1 X105.490 Y111.550 E1.72557
G1 X105.590 Y112.360 E1.75223
G1 X105.620 Y113.090 E1.77609
G1 X105.620 Y126.890 E2.22680
G1 X105.590 Y127.550 E2.24838
G1 X105.540 Y128.050 E2.26479
G1 X105.390 Y128.990 E2.29588
G1 X105.130 Y129.910 E2.32710
G1 X105.020 Y130.220 E2.33784
G1 X104.760 Y130.850 E2.36010
G1 X104.310 Y131.750 E2.39297
G1 X104.040 Y132.180 E2.40955
G1 X103.600 Y132.780 E2.43385
G1 X103.030 Y133.450 E2.46258
G1 X102.330 Y134.140 E2.49468
G1 X101.940 Y134.460 E2.51116
G1 X101.340 Y134.890 E2.53526
G1 X100.610 Y135.330 E2.56310
G1 X100.170 Y135.560 E2.57932
G1 X99.190 Y135.970 E2.61401
G1 X98.220 Y136.260 E2.64708
G1 X97.900 Y136.330 E2.65778
G1 X97.020 Y136.460 E2.68683
G1 X95.990 Y136.520 E2.72053
G1 X93.590 Y136.510 E2.79891
G1 X92.690 Y136.430 E2.82842
G1 X92.360 Y136.380 E2.83932
G1 X91.340 Y136.140 E2.87354
G1 X90.870 Y135.990 E2.88966
G1 X90.170 Y135.730 E2.91405
G1 X89.880 Y135.600 E2.92442
G1 X89.150 Y135.210 E2.95146
G1 X88.870 Y135.040 E2.96215
G1 X88.170 Y134.550 E2.99006
G1 X87.340 Y133.840 E3.02573
G1 X86.630 Y133.080 E3.05970
G1 X86.320 Y132.690 E3.07597
G1 X85.810 Y131.950 E3.10532
G1 X85.650 Y131.680 E3.11557
G1 X85.240 Y130.890 E3.14464
G1 X84.890 Y129.990 E3.17618
G1 X84.740 Y129.510 E3.19261
G1 X84.520 Y128.580 E3.22382
G1 X84.470 Y128.270 E3.23407
G1 X84.390 Y127.420 E3.26196
G1 X84.380 Y127.090 E3.27274
G1 X84.380 Y113.100 E3.72965
G1 X84.440 Y112.070 E3.76335
G1 X84.540 Y111.300 E3.78871
G1 X84.600 Y111.000 E3.79870
G1 X84.860 Y110.080 E3.82993
G1 X85.230 Y109.140 E3.86292
G1 X85.680 Y108.240 E3.89578
G1 X85.950 Y107.810 E3.91236
G1 X86.390 Y107.210 E3.93667
G1 X86.960 Y106.540 E3.96539
G1 X87.300 Y106.190 E3.98133
G1 X87.778 Y105.750 E4.00255
G1 F1800.000 E3.00255
G92 E0
G1 X93.562 Y112.419 F12000.000
G1 F1800.000 E1.00000
G1 X93.938 Y112.159 F600.000 E1.01494
G1 X94.360 Y111.982 E1.02988
G1 X94.791 Y111.898 E1.04421
G1 X95.115 Y111.890 E1.05480
G1 X95.567 Y111.961 E1.06974
G1 X95.977 Y112.115 E1.08406
G1 X96.257 Y112.279 E1.09465
G1 X96.605 Y112.576 E1.10959
G1 X96.884 Y112.939 E1.12453
G1 X97.082 Y113.351 E1.13947
G1 X97.192 Y113.795 E1.15442
G1 X97.208 Y114.234 E1.16874
G1 X97.165 Y114.555 E1.17933
G1 X97.025 Y114.991 E1.19427
G1 X96.799 Y115.388 E1.20921
G1 X96.496 Y115.731 E1.22415
G1 X96.128 Y116.003 E1.23910
G1 X95.713 Y116.195 E1.25404
G1 X95.267 Y116.296 E1.26898
G1 X94.828 Y116.305 E1.28331
G1 X94.508 Y116.257 E1.29389
G1 X94.075 Y116.110 E1.30883
G1 X93.681 Y115.876 E1.32378
G1 X93.344 Y115.567 E1.33872
G1 X93.077 Y115.195 E1.35366
G1 X92.893 Y114.776 E1.36860
G1 X92.799 Y114.329 E1.38354
G1 X92.789 Y114.024 E1.39351
G1 X92.852 Y113.570 E1.40846
G1 X93.006 Y113.140 E1.42340
G1 X93.247 Y112.751 E1.43834
G1 X93.492 Y112.482 E1.45023
G1 X93.493 Y111.966 F12000.000
G1 F1800.000 E0.45023
G92 E0
G1 X94.809 Y123.696 F12000.000
G1 F1800.000 E1.00000
G1 X95.267 Y123.704 F600.000 E1.01494
G1 X95.713 Y123.805 E1.02988
G1 X96.128 Y123.997 E1.04482
G1 X96.380 Y124.170 E1.05480
G1 X96.706 Y124.491 E1.06974
G1 X96.950 Y124.855 E1.08407
G1 X97.082 Y125.151 E1.09465
G1 X97.192 Y125.595 E1.10959
G1 X97.207 Y126.053 E1.12454
G1 X97.133 Y126.485 E1.13886
G1 X97.025 Y126.791 E1.14945
G1 X96.799 Y127.188 E1.16439
G1 X96.496 Y127.531 E1.17933
G1 X96.128 Y127.803 E1.19427
G1 X95.713 Y127.995 E1.20921
G1 X95.267 Y128.096 E1.22415
G1 X94.809 Y128.104 E1.23910
G1 X94.378 Y128.023 E1.25342
G1 X94.075 Y127.910 E1.26401
G1 X93.681 Y127.676 E1.27895
G1 X93.344 Y127.367 E1.29389
G1 X93.077 Y126.995 E1.30884
G1 X92.893 Y126.576 E1.32378
G1 X92.799 Y126.129 E1.33872
G1 X92.799 Y125.671 E1.35366
G1 X92.852 Y125.370 E1.36363
G1 X93.007 Y124.940 E1.37858
G1 X93.247 Y124.551 E1.39352
G1 X93.562 Y124.219 E1.40846
G1 X93.938 Y123.959 E1.42340
G1 X94.360 Y123.782 E1.43834
G1 X94.716 Y123.707 E1.45023
G1 X95.017 Y123.288 F12000.000
G1 X98.063 Y114.912
G1 X98.063 Y125.088 F600.000 E1.78258
G1 X97.836 Y125.148 E1.79025
G1 X97.416 Y124.411 E1.81795
G1 X97.188 Y124.093 E1.83074
G1 X96.918 Y123.809 E1.84354
G1 X96.612 Y123.564 E1.85632
G1 X96.275 Y123.365 E1.86911
G1 X95.914 Y123.213 E1.88190
G1 X95.535 Y123.113 E1.89470
G1 X95.147 Y123.066 E1.90748
G1 X94.951 Y123.063 E1.91388
G1 X94.561 Y123.096 E1.92667
G1 X94.179 Y123.183 E1.93945
G1 X93.813 Y123.322 E1.95225
G1 X93.469 Y123.510 E1.96503
G1 X93.155 Y123.744 E1.97782
G1 X92.876 Y124.018 E1.99061
G1 X92.751 Y124.169 E1.99701
G1 X92.534 Y124.495 E2.00980
G1 X92.185 Y125.160 E2.03433
G1 X91.937 Y125.099 E2.04266
G1 X91.937 Y114.901 E2.37574
G1 X92.185 Y114.840 E2.38408
G1 X92.534 Y115.505 E2.40860
G1 X92.751 Y115.831 E2.42139
G1 X93.011 Y116.124 E2.43418
G1 X93.308 Y116.379 E2.44697
G1 X93.469 Y116.490 E2.45337
G1 X93.813 Y116.678 E2.46616
G1 X94.179 Y116.817 E2.47895
G1 X94.561 Y116.904 E2.49174
G1 X94.951 Y116.937 E2.50452
G1 X95.342 Y116.917 E2.51731
G1 X95.727 Y116.843 E2.53010
G1 X96.097 Y116.717 E2.54289
G1 X96.275 Y116.635 E2.54929
G1 X96.612 Y116.436 E2.56208
G1 X96.918 Y116.191 E2.57487
G1 X97.188 Y115.907 E2.58766
G1 X97.416 Y115.589 E2.60044
G1 X97.836 Y114.852 E2.62816
G1 X97.972 Y114.888 E2.63276
G1 X98.688 Y113.104 F12000.000
G1 X98.688 Y126.898 F600.000 E3.08327
G1 X98.652 Y127.335 E3.09757
G1 X98.547 Y127.758 E3.11182
G1 X98.439 Y128.028 E3.12132
G1 X98.224 Y128.408 E3.13557
G1 X98.048 Y128.640 E3.14508
G1 X97.848 Y128.851 E3.15458
G1 X97.626 Y129.039 E3.16408
G1 X97.386 Y129.203 E3.17359
G1 X97.128 Y129.339 E3.18309
G1 X96.858 Y129.447 E3.19259
G1 X96.435 Y129.552 E3.20684
G1 X95.996 Y129.588 E3.22123
G1 X93.855 Y129.584 E3.29116
G1 X93.565 Y129.552 E3.30067
G1 X93.142 Y129.447 E3.31491
G1 X92.741 Y129.274 E3.32916
G1 X92.492 Y129.124 E3.33866
G1 X92.260 Y128.948 E3.34817
G1 X91.952 Y128.640 E3.36241
G1 X91.697 Y128.286 E3.37666
G1 X91.561 Y128.028 E3.38616
G1 X91.411 Y127.619 E3.40041
G1 X91.328 Y127.191 E3.41466
G1 X91.312 Y126.896 E3.42430
G1 X91.312 Y113.102 E3.87481
G1 X91.348 Y112.665 E3.88912
G1 X91.453 Y112.242 E3.90337
G1 X91.561 Y111.972 E3.91287
G1 X91.697 Y111.714 E3.92237
G1 X91.860 Y111.474 E3.93188
G1 X92.049 Y111.252 E3.94138
G1 X92.260 Y111.052 E3.95088
G1 X92.492 Y110.876 E3.96039
G1 X92.741 Y110.726 E3.96989
G1 X93.005 Y110.603 E3.97939
G1 X93.422 Y110.475 E3.99364
G1 X93.854 Y110.417 E4.00789
G1 X95.998 Y110.412 E4.07791
G1 X96.291 Y110.428 E4.08747
G1 X96.719 Y110.510 E4.10171
G1 X97.128 Y110.661 E4.11596
G1 X97.386 Y110.797 E4.12546
G1 X97.626 Y110.960 E4.13497
G1 X97.951 Y111.252 E4.14921
G1 X98.224 Y111.592 E4.16346
G1 X98.374 Y111.841 E4.17297
G1 X98.497 Y112.105 E4.18247
G1 X98.625 Y112.522 E4.19672
G1 X98.685 Y113.011 E4.21279
G1 X98.158 Y113.436 F12000.000
G1 X97.610 Y116.335
G1 X97.061 Y116.686 F887.587 E4.23442
G1 X97.610 Y117.234 E4.26019
G1 X97.610 Y118.133 E4.29008
G1 X96.498 Y117.022 E4.34231
G1 X95.849 Y117.272 E4.36543
G1 X97.610 Y119.032 E4.44818
G1 X97.610 Y119.932 E4.47806
G1 X95.067 Y117.388 E4.59759
G1 X94.018 Y117.239 E4.63278
G1 X97.610 Y120.831 E4.80157
G1 X97.610 Y121.730 E4.83146
G1 X92.390 Y116.511 E5.07676
G1 X92.390 Y117.410 E5.10665
G1 X97.610 Y122.629 E5.35196
G1 X97.610 Y123.529 E5.38184
G1 X92.390 Y118.309 E5.62715
G1 X92.390 Y119.208 E5.65703
G1 X95.926 Y122.744 E5.82319
G1 X94.895 Y122.612 E5.85771
G1 X92.390 Y120.108 E5.97544
G1 X92.390 Y121.007 E6.00532
G1 X94.117 Y122.733 E6.08647
G1 X93.477 Y122.993 E6.10942
G1 X92.390 Y121.906 E6.16048
G1 X92.390 Y122.805 E6.19037
G1 X92.922 Y123.337 E6.21538
G1 X92.390 Y123.705 E6.23686
G1 X91.975 Y126.358 F12000.000
G1 X91.975 Y126.358 F600.000 E6.23687
G1 X94.547 Y128.925 F12000.000
G1 X95.345 Y128.755 F600.000 E6.26603
G1 X97.854 Y126.240 F12000.000
G1 X97.854 Y126.240 F600.000 E6.26605
G1 X97.873 Y114.177 F12000.000
G1 X97.873 Y114.176 F600.000 E6.26606
G1 F1800.000 E5.26606
G92 E0
G1 X94.669 Y111.245 F12000.000
G1 F1800.000 E1.00000
G1 X95.470 Y111.075 F600.000 E1.02944
G1 X91.975 Y114.209 F12000.000
G1 X91.975 Y114.209 F600.000 E1.02945
M106 S255
M104 S195 ; set temperature
G1 F1800.000 E0.02945
G92 E0
G1 Z0.600 F12000.000
G1 X92.524 Y114.185
G1 F1800.000 E1.00000
G1 X92.559 Y113.674 F600.000 E1.00736
G1 X92.699 Y113.182 E1.01472
G1 X92.937 Y112.728 E1.02208
G1 X93.263 Y112.333 E1.02944
G1 X93.664 Y112.014 E1.03680
G1 X94.121 Y111.783 E1.04416
G1 X94.449 Y111.685 E1.04907
G1 X94.957 Y111.623 E1.05643
G1 X95.468 Y111.667 E1.06379
G1 X95.958 Y111.815 E1.07115
G1 X96.372 Y112.038 E1.07791
G1 X96.675 Y112.274 E1.08342
G1 X97.014 Y112.658 E1.09078
G1 X97.250 Y113.065 E1.09754
G1 X97.384 Y113.424 E1.10305
G1 X97.472 Y113.929 E1.11041
G1 X97.454 Y114.441 E1.11777
G1 X97.331 Y114.938 E1.12513
G1 X97.109 Y115.400 E1.13249
G1 X96.797 Y115.806 E1.13985
G1 X96.407 Y116.139 E1.14721
G1 X95.958 Y116.385 E1.15457
G1 X95.508 Y116.524 E1.16133
G1 X95.128 Y116.574 E1.16685
G1 X94.617 Y116.548 E1.17421
G1 X94.121 Y116.417 E1.18157
G1 X93.811 Y116.274 E1.18648
G1 X93.389 Y115.983 E1.19384
G1 X93.037 Y115.611 E1.20120
G1 X92.768 Y115.175 E1.20856
G1 X92.594 Y114.693 E1.21592
G1 X92.528 Y114.243 E1.22245
G1 X92.911 Y114.201 F12000.000
G1 X92.919 Y113.884 F600.000 E1.22701
G1 X93.008 Y113.460 E1.23322
G1 X93.182 Y113.064 E1.23944
G1 X93.434 Y112.712 E1.24566
G1 X93.753 Y112.420 E1.25187
G1 X94.099 Y112.212 E1.25768
G1 X94.395 Y112.097 E1.26224
G1 X94.820 Y112.015 E1.26845
G1 X95.252 Y112.023 E1.27467
G1 X95.674 Y112.119 E1.28089
G1 X96.067 Y112.300 E1.28710
G1 X96.414 Y112.558 E1.29332
G1 X96.701 Y112.882 E1.29953
G1 X96.903 Y113.232 E1.30534
G1 X97.013 Y113.529 E1.30990
G1 X97.088 Y113.956 E1.31611
G1 X97.073 Y114.388 E1.32233
G1 X96.969 Y114.808 E1.32855
G1 X96.781 Y115.198 E1.33476
G1 X96.517 Y115.541 E1.34098
G1 X96.189 Y115.822 E1.34720
G1 X95.809 Y116.030 E1.35341
G1 X95.423 Y116.149 E1.35922
G1 X95.108 Y116.190 E1.36378
G1 X94.676 Y116.167 E1.36999
G1 X94.258 Y116.057 E1.37621
G1 X93.996 Y115.936 E1.38036
G1 X93.640 Y115.690 E1.38657
G1 X93.342 Y115.376 E1.39279
G1 X93.115 Y115.008 E1.39900
G1 X92.968 Y114.601 E1.40522
G1 X92.915 Y114.258 E1.41020
G1 X92.631 Y114.051 F12000.000
G1 X94.449 Y123.485
G1 X94.957 Y123.423 F600.000 E1.41756
G1 X95.468 Y123.467 E1.42492
G1 X95.958 Y123.615 E1.43228
G1 X96.372 Y123.838 E1.43904
G1 X96.675 Y124.074 E1.44455
G1 X97.014 Y124.458 E1.45191
G1 X97.268 Y124.903 E1.45927
G1 X97.425 Y125.390 E1.46663
G1 X97.472 Y125.729 E1.47154
G1 X97.454 Y126.241 E1.47890
G1 X97.331 Y126.738 E1.48626
G1 X97.109 Y127.200 E1.49362
G1 X96.910 Y127.478 E1.49854
G1 X96.545 Y127.837 E1.50590
G1 X96.113 Y128.113 E1.51326
G1 X95.634 Y128.295 E1.52062
G1 X95.128 Y128.374 E1.52798
G1 X94.617 Y128.348 E1.53534
G1 X94.121 Y128.217 E1.54270
G1 X93.664 Y127.986 E1.55006
G1 X93.263 Y127.667 E1.55742
G1 X92.961 Y127.306 E1.56418
G1 X92.768 Y126.975 E1.56969
G1 X92.594 Y126.493 E1.57705
G1 X92.524 Y125.985 E1.58441
G1 X92.553 Y125.516 E1.59117
G1 X92.641 Y125.143 E1.59668
G1 X92.847 Y124.674 E1.60404
G1 X93.145 Y124.257 E1.61140
G1 X93.523 Y123.911 E1.61876
G1 X93.964 Y123.650 E1.62612
G1 X94.393 Y123.499 E1.63265
G1 X94.507 Y123.867 F12000.000
G1 X94.820 Y123.815 F600.000 E1.63721
G1 X95.252 Y123.823 E1.64343
G1 X95.674 Y123.919 E1.64964
G1 X96.067 Y124.100 E1.65586
G1 X96.414 Y124.358 E1.66207
G1 X96.701 Y124.682 E1.66829
G1 X96.916 Y125.058 E1.67451
G1 X97.013 Y125.329 E1.67865
G1 X97.088 Y125.756 E1.68487
G1 X97.073 Y126.188 E1.69109
G1 X96.969 Y126.608 E1.69730
G1 X96.781 Y126.998 E1.70352
G1 X96.613 Y127.233 E1.70767
G1 X96.305 Y127.536 E1.71388
G1 X95.940 Y127.769 E1.72010
G1 X95.536 Y127.923 E1.72632
G1 X95.108 Y127.990 E1.73253
G1 X94.676 Y127.967 E1.73875
G1 X94.258 Y127.857 E1.74497
G1 X93.871 Y127.662 E1.75118
G1 X93.533 Y127.392 E1.75740
G1 X93.274 Y127.082 E1.76320
G1 X93.115 Y126.808 E1.76776
G1 X92.968 Y126.401 E1.77398
G1 X92.911 Y126.001 E1.77978
G1 X92.919 Y125.684 E1.78434
G1 X93.008 Y125.260 E1.79056
G1 X93.182 Y124.864 E1.79677
G1 X93.434 Y124.512 E1.80299
G1 X93.753 Y124.220 E1.80921
G1 X94.125 Y123.999 E1.81542
G1 X94.451 Y123.882 E1.82040
G1 X94.601 Y123.564 F12000.000
G1 F1800.000 E0.82040
G92 E0
G1 X97.468 Y128.827 F12000.000
G1 F1800.000 E1.00000
G1 X97.240 Y128.981 F600.000 E1.00395
G1 X96.898 Y129.150 E1.00943
G1 X96.638 Y129.237 E1.01338
G1 X96.262 Y129.308 E1.01886
G1 X95.992 Y129.323 E1.02275
G1 X93.998 Y129.323 E1.05140
G1 X93.732 Y129.308 E1.05524
G1 X93.473 Y129.264 E1.05901
G1 X93.108 Y129.152 E1.06450
G1 X92.754 Y128.978 E1.07015
G1 X92.527 Y128.823 E1.07410
G1 X92.243 Y128.568 E1.07959
G1 X92.066 Y128.358 E1.08354
G1 X91.861 Y128.036 E1.08902
G1 X91.746 Y127.787 E1.09297
G1 X91.634 Y127.422 E1.09845
G1 X91.592 Y127.162 E1.10223
G1 X91.577 Y126.892 E1.10612
G1 X91.577 Y113.104 E1.30421
G1 X91.591 Y112.844 E1.30796
G1 X91.664 Y112.457 E1.31362
G1 X91.799 Y112.087 E1.31927
G1 X91.993 Y111.744 E1.32493
G1 X92.159 Y111.525 E1.32888
G1 X92.430 Y111.255 E1.33437
G1 X92.749 Y111.025 E1.34002
G1 X93.102 Y110.850 E1.34568
G1 X93.478 Y110.734 E1.35134
G1 X93.738 Y110.692 E1.35512
G1 X94.008 Y110.677 E1.35900
G1 X96.125 Y110.681 E1.38943
G1 X96.516 Y110.733 E1.39508
G1 X96.892 Y110.848 E1.40074
G1 X97.131 Y110.958 E1.40452
G1 X97.366 Y111.100 E1.40846
G1 X97.664 Y111.339 E1.41395
G1 X97.845 Y111.530 E1.41772
G1 X98.004 Y111.739 E1.42150
G1 X98.145 Y111.974 E1.42545
G1 X98.295 Y112.325 E1.43093
G1 X98.366 Y112.578 E1.43471
G1 X98.408 Y112.838 E1.43848
G1 X98.423 Y113.108 E1.44237
G1 X98.419 Y127.025 E1.64232
G1 X98.392 Y127.287 E1.64610
G1 X98.336 Y127.543 E1.64987
G1 X98.252 Y127.792 E1.65365
G1 X98.142 Y128.031 E1.65742
G1 X98.007 Y128.256 E1.66120
G1 X97.849 Y128.466 E1.66497
G1 X97.513 Y128.791 E1.67168
G1 X97.804 Y129.051 F12000.000
G1 X97.451 Y129.304 F600.000 E1.67792
G1 X97.042 Y129.507 E1.68449
G1 X96.731 Y129.610 E1.68919
G1 X96.304 Y129.691 E1.69543
G1 X95.997 Y129.708 E1.69985
G1 X93.990 Y129.707 E1.72869
G1 X93.685 Y129.690 E1.73308
G1 X93.384 Y129.639 E1.73746
G1 X92.969 Y129.511 E1.74370
G1 X92.559 Y129.309 E1.75027
G1 X92.288 Y129.125 E1.75497
G1 X91.966 Y128.835 E1.76121
G1 X91.754 Y128.585 E1.76591
G1 X91.521 Y128.218 E1.77215
G1 X91.385 Y127.921 E1.77685
G1 X91.258 Y127.505 E1.78309
G1 X91.209 Y127.204 E1.78747
G1 X91.192 Y126.897 E1.79189
G1 X91.192 Y113.101 E1.99010
G1 X91.210 Y112.785 E1.99466
G1 X91.292 Y112.358 E2.00090
G1 X91.449 Y111.929 E2.00746
