; generated by Slic3r 0.9.9 on 2013-09-26 at 17:48:43

; July 20, 2013:
; - Updated support material width to 50%
; 
; 
; Initial:
; Doubled the infill and perimeter speeds, trying this at 220

; layer_height = 0.25
; perimeters = 2
; top_solid_layers = 3
; bottom_solid_layers = 3
; fill_density = 0.1
; perimeter_speed = 60
; infill_speed = 100
; travel_speed = 200
; nozzle_diameter = 0.35
; filament_diameter = 2.92
; extrusion_multiplier = 1
; perimeters extrusion width = 0.39mm
; infill extrusion width = 0.39mm
; solid infill extrusion width = 0.39mm
; top infill extrusion width = 0.39mm
; support material extrusion width = 0.19mm
; first layer extrusion width = 0.70mm

G21 ; set units to millimeters
M107
M190 S70 ; wait for bed temperature to be reached
M104 S220 ; set temperature
G1 X30 Y30 F3000
G1 Z5 F5000 ; lift nozzle
M42 P5 S255 ; turn on the lights
M109 S220 ; wait for temperature to be reached
G90 ; use absolute coordinates
G92 E0
M82 ; use absolute distances for extrusion
G1 F1800.000 E-1.00000
G92 E0
G1 Z0.350 F12000.000
G1 X67.135 Y98.866
G1 F1800.000 E1.00000
G1 X67.595 Y98.586 F1080.000 E1.01759
G1 X68.085 Y98.336 E1.03555
G1 X68.345 Y98.226 E1.04477
G1 X68.855 Y98.046 E1.06244
G1 X69.385 Y97.906 E1.08034
G1 X69.655 Y97.856 E1.08931
G1 X114.905 Y91.726 E2.58067
G1 X115.985 Y91.666 E2.61600
G1 X117.965 Y91.726 E2.68070
G1 X118.495 Y91.786 E2.69812
G1 X119.025 Y91.886 E2.71573
G1 X119.285 Y91.956 E2.72452
G1 X119.795 Y92.116 E2.74198
G1 X120.525 Y92.436 E2.76801
G1 X120.765 Y92.566 E2.77693
G1 X121.215 Y92.846 E2.79424
G1 X121.645 Y93.166 E2.81174
G1 X121.855 Y93.336 E2.82057
G1 X122.245 Y93.706 E2.83813
G1 X122.765 Y94.306 E2.86406
G1 X123.075 Y94.746 E2.88164
G1 X123.465 Y95.446 E2.90781
G1 X123.775 Y96.186 E2.93401
G1 X123.985 Y96.956 E2.96008
G1 X124.105 Y97.756 E2.98650
G1 X124.125 Y98.016 E2.99501
G1 X124.125 Y98.556 E3.01265
G1 X124.115 Y98.826 E3.02147
G1 X124.055 Y99.356 E3.03889
G1 X116.905 Y145.396 E4.56058
G1 X116.735 Y146.176 E4.58666
G1 X116.655 Y146.436 E4.59554
G1 X116.465 Y146.936 E4.61301
G1 X116.235 Y147.426 E4.63069
G1 X115.975 Y147.886 E4.64795
G1 X115.665 Y148.336 E4.66579
G1 X115.335 Y148.746 E4.68298
G1 X114.965 Y149.136 E4.70054
G1 X114.565 Y149.496 E4.71812
G1 X113.915 Y149.966 E4.74431
G1 X113.445 Y150.236 E4.76202
G1 X112.965 Y150.466 E4.77940
G1 X112.465 Y150.656 E4.79687
G1 X111.685 Y150.866 E4.82325
G1 X111.155 Y150.956 E4.84081
G1 X110.625 Y150.996 E4.85817
G1 X71.175 Y150.996 E6.14660
G1 X70.595 Y150.946 E6.16561
G1 X70.015 Y150.836 E6.18490
G1 X69.175 Y150.596 E6.21343
G1 X68.635 Y150.366 E6.23260
G1 X68.115 Y150.096 E6.25173
G1 X67.005 Y149.446 E6.29374
G1 X66.545 Y149.146 E6.31168
G1 X66.105 Y148.806 E6.32984
G1 X65.695 Y148.436 E6.34788
G1 X65.325 Y148.036 E6.36567
G1 X64.825 Y147.376 E6.39272
G1 X64.675 Y147.136 E6.40196
G1 X64.295 Y146.406 E6.42884
G1 X64.185 Y146.156 E6.43776
G1 X63.935 Y145.366 E6.46482
G1 X63.785 Y144.556 E6.49173
G1 X63.735 Y144.006 E6.50976
G1 X63.735 Y104.556 E7.79820
G1 X63.825 Y103.716 E7.82579
G1 X63.945 Y103.156 E7.84449
G1 X64.025 Y102.876 E7.85401
G1 X64.115 Y102.606 E7.86330
G1 X64.335 Y102.086 E7.88174
G1 X64.595 Y101.576 E7.90044
G1 X65.065 Y100.856 E7.92852
G1 X65.425 Y100.416 E7.94709
G1 X66.275 Y99.546 E7.98681
G1 X66.475 Y99.366 E7.99560
G1 X67.058 Y98.920 E8.01958
G1 F1800.000 E7.01958
G92 E0
G1 X70.819 Y104.383 F12000.000
G1 F1800.000 E1.00000
G1 X70.354 Y104.848 F1260.000 E1.02147
G1 X70.354 Y106.616 E1.07919
G1 X72.587 Y104.383 E1.18229
G1 X74.354 Y104.383 E1.24002
G1 X70.354 Y108.383 E1.42476
G1 X70.354 Y110.151 E1.48248
G1 X76.122 Y104.383 E1.74885
G1 X77.889 Y104.383 E1.80658
G1 X70.354 Y111.918 E2.15459
G1 X70.354 Y113.686 E2.21231
G1 X79.656 Y104.383 E2.64196
G1 X81.424 Y104.383 E2.69968
G1 X70.354 Y115.453 E3.21096
G1 X70.354 Y117.220 E3.26869
G1 X83.191 Y104.383 E3.86160
G1 X84.959 Y104.383 E3.91933
G1 X70.354 Y118.988 E4.59388
G1 X70.354 Y120.755 E4.65160
G1 X86.726 Y104.383 E5.40779
G1 X88.494 Y104.383 E5.46551
G1 X70.354 Y122.523 E6.30333
G1 X70.354 Y124.290 E6.36106
G1 X90.261 Y104.383 E7.28051
G1 X92.029 Y104.383 E7.33824
G1 X70.354 Y126.058 E8.33933
G1 F1800.000 E7.33933
G92 E0
G1 X74.671 Y123.509 F12000.000
G1 F1800.000 E1.00000
G1 X70.354 Y127.825 F1260.000 E1.19936
G1 X70.354 Y129.593 E1.25709
G1 X74.677 Y125.270 E1.45676
G1 X75.595 Y126.119 E1.49761
G1 X70.354 Y131.360 E1.73968
G1 F1800.000 E0.73968
G92 E0
G1 X70.354 Y140.197 F12000.000
G1 F1800.000 E1.00000
G1 X106.174 Y104.378 F1260.000 E2.65442
G1 X104.401 Y104.383 E2.71232
G1 X70.354 Y138.430 E4.28486
G1 X70.354 Y136.662 E4.34258
G1 X102.633 Y104.383 E5.83349
G1 X100.866 Y104.383 E5.89121
G1 X70.354 Y134.895 E7.30048
G1 X70.354 Y133.128 E7.35820
G1 X99.098 Y104.383 E8.68584
G1 X97.331 Y104.383 E8.74356
G1 X78.091 Y123.624 E9.63223
G1 X77.239 Y122.708 E9.67308
G1 X95.564 Y104.383 E10.51946
G1 X93.796 Y104.383 E10.57718
G1 X75.480 Y122.700 E11.42318
G1 F1800.000 E10.42318
G92 E0
G1 X71.470 Y144.384 F12000.000
G1 F1800.000 E1.00000
G1 X117.511 Y98.343 F1260.000 E3.12653
G1 X115.796 Y98.290 E3.18255
G1 X70.354 Y143.732 E5.28143
G1 X70.354 Y141.965 E5.33915
G1 X108.051 Y104.268 E7.08029
G1 F1800.000 E6.08029
G92 E0
G1 X110.420 Y107.201 F12000.000
G1 F1800.000 E1.00000
G1 X73.238 Y144.384 F1260.000 E2.71738
G1 X75.005 Y144.384 E2.77510
G1 X110.355 Y109.034 E4.40782
G1 X110.355 Y110.802 E4.46555
G1 X76.773 Y144.384 E6.01663
G1 X78.540 Y144.384 E6.07435
G1 X110.355 Y112.569 E7.54380
G1 X110.355 Y114.337 E7.60153
G1 X80.308 Y144.384 E8.98934
G1 X82.075 Y144.384 E9.04706
G1 X102.512 Y123.947 E9.99100
G1 X102.782 Y125.445 F12000.000
G1 X83.843 Y144.384 F1260.000 E10.86576
G1 X85.610 Y144.384 E10.92348
G1 X103.798 Y126.195 E11.76357
G1 F1800.000 E10.76357
G92 E0
G1 X103.921 Y122.538 F12000.000
G1 F1800.000 E1.00000
G1 X110.355 Y116.104 F1260.000 E1.29718
G1 X110.355 Y117.872 E1.35490
G1 X105.416 Y122.811 E1.58302
G1 X106.166 Y123.828 E1.62430
G1 X110.355 Y119.639 E1.81779
G1 X110.355 Y121.407 E1.87551
G1 X87.378 Y144.384 E2.93678
G1 X89.145 Y144.384 E2.99451
G1 X110.355 Y123.174 E3.97414
G1 X110.355 Y124.941 E4.03186
G1 X90.912 Y144.384 E4.92986
G1 X92.680 Y144.384 E4.98759
G1 X110.355 Y126.709 E5.80395
G1 X110.355 Y128.476 E5.86168
G1 X94.447 Y144.384 E6.59641
G1 X96.215 Y144.384 E6.65413
G1 X110.355 Y130.244 E7.30722
G1 X110.355 Y132.011 E7.36495
G1 X97.982 Y144.384 E7.93641
G1 X99.750 Y144.384 E7.99413
G1 X110.355 Y133.779 E8.48395
G1 X110.355 Y135.546 E8.54168
G1 X101.517 Y144.384 E8.94986
G1 X103.285 Y144.384 E9.00759
G1 X110.355 Y137.314 E9.33414
G1 X110.355 Y139.081 E9.39186
G1 X105.052 Y144.384 E9.63678
G1 X106.820 Y144.384 E9.69450
G1 X110.355 Y140.849 E9.85778
G1 X110.355 Y142.616 E9.91551
G1 X108.587 Y144.384 E9.99715
G1 X110.355 Y144.383 E10.05489
M104 S195 ; set temperature
M140 S50 ; set bed temperature
G1 F1800.000 E9.05489
G92 E0
G1 Z0.600 F12000.000
G1 X78.485 Y125.650
G1 F1800.000 E1.00000
G1 X78.267 Y125.961 F3600.000 E1.00545
G1 X78.004 Y126.234 E1.01091
G1 X77.702 Y126.464 E1.01636
G1 X77.369 Y126.646 E1.02181
G1 X77.011 Y126.774 E1.02726
G1 X76.639 Y126.846 E1.03272
G1 X76.260 Y126.861 E1.03817
G1 X75.883 Y126.817 E1.04362
G1 X75.517 Y126.717 E1.04907
G1 X75.170 Y126.561 E1.05452
G1 X74.852 Y126.355 E1.05998
G1 X74.534 Y126.061 E1.06620
G1 X74.327 Y125.810 E1.07088
G1 X74.133 Y125.484 E1.07633
G1 X73.991 Y125.132 E1.08178
G1 X73.905 Y124.762 E1.08723
G1 X73.876 Y124.384 E1.09269
G1 X73.905 Y124.005 E1.09814
G1 X73.991 Y123.636 E1.10359
G1 X74.133 Y123.284 E1.10905
G1 X74.327 Y122.957 E1.11450
G1 X74.568 Y122.665 E1.11995
G1 X74.852 Y122.412 E1.12540
G1 X75.170 Y122.206 E1.13086
G1 X75.517 Y122.051 E1.13631
G1 X75.882 Y121.950 E1.14176
G1 X76.260 Y121.906 E1.14721
G1 X76.639 Y121.921 E1.15267
G1 X77.011 Y121.993 E1.15812
G1 X77.369 Y122.122 E1.16357
G1 X77.702 Y122.303 E1.16903
G1 X78.004 Y122.533 E1.17448
G1 X78.267 Y122.806 E1.17993
G1 X78.485 Y123.117 E1.18539
G1 X78.654 Y123.457 E1.19084
G1 X78.768 Y123.819 E1.19629
G1 X78.826 Y124.194 E1.20174
G1 X78.826 Y124.574 E1.20720
G1 X78.768 Y124.949 E1.21265
G1 X78.654 Y125.310 E1.21810
G1 X78.511 Y125.599 E1.22272
G1 X78.154 Y125.453 F12000.000
G1 X77.969 Y125.715 F3600.000 E1.22733
G1 X77.747 Y125.946 E1.23193
G1 X77.492 Y126.140 E1.23653
G1 X77.211 Y126.293 E1.24114
G1 X76.909 Y126.402 E1.24574
G1 X76.595 Y126.463 E1.25035
G1 X76.274 Y126.475 E1.25495
G1 X75.956 Y126.438 E1.25955
G1 X75.647 Y126.353 E1.26416
G1 X75.355 Y126.222 E1.26876
G1 X75.086 Y126.048 E1.27336
G1 X74.831 Y125.816 E1.27831
G1 X74.643 Y125.588 E1.28257
G1 X74.479 Y125.312 E1.28717
G1 X74.359 Y125.015 E1.29178
G1 X74.286 Y124.703 E1.29638
G1 X74.262 Y124.384 E1.30098
G1 X74.286 Y124.064 E1.30559
G1 X74.359 Y123.752 E1.31019
G1 X74.479 Y123.455 E1.31479
G1 X74.643 Y123.179 E1.31940
G1 X74.846 Y122.932 E1.32400
G1 X75.086 Y122.719 E1.32860
G1 X75.355 Y122.545 E1.33321
G1 X75.647 Y122.414 E1.33781
G1 X75.956 Y122.329 E1.34242
G1 X76.274 Y122.292 E1.34702
G1 X76.595 Y122.304 E1.35162
G1 X76.909 Y122.365 E1.35623
G1 X77.211 Y122.474 E1.36083
G1 X77.492 Y122.627 E1.36543
G1 X77.764 Y122.839 E1.37038
G1 X77.969 Y123.052 E1.37464
G1 X78.154 Y123.314 E1.37924
G1 X78.296 Y123.601 E1.38385
G1 X78.392 Y123.907 E1.38845
G1 X78.441 Y124.223 E1.39305
G1 X78.441 Y124.544 E1.39766
G1 X78.392 Y124.861 E1.40226
G1 X78.296 Y125.166 E1.40686
G1 X78.179 Y125.401 E1.41064
G1 X78.303 Y125.737 F12000.000
G1 X101.876 Y124.384
G1 X101.905 Y124.005 F3600.000 E1.41609
G1 X102.011 Y123.586 E1.42231
G1 X102.133 Y123.284 E1.42699
G1 X102.327 Y122.957 E1.43244
G1 X102.568 Y122.665 E1.43790
G1 X102.852 Y122.412 E1.44335
G1 X103.170 Y122.206 E1.44880
G1 X103.517 Y122.051 E1.45425
G1 X103.882 Y121.950 E1.45970
G1 X104.260 Y121.906 E1.46516
G1 X104.639 Y121.921 E1.47061
G1 X105.011 Y121.993 E1.47606
G1 X105.368 Y122.121 E1.48151
G1 X105.702 Y122.303 E1.48697
G1 X106.004 Y122.533 E1.49242
G1 X106.267 Y122.806 E1.49787
G1 X106.485 Y123.117 E1.50333
G1 X106.654 Y123.457 E1.50878
G1 X106.768 Y123.819 E1.51423
G1 X106.826 Y124.194 E1.51969
G1 X106.826 Y124.574 E1.52514
G1 X106.752 Y125.000 E1.53136
G1 X106.654 Y125.310 E1.53603
G1 X106.485 Y125.650 E1.54149
G1 X106.267 Y125.961 E1.54694
G1 X106.004 Y126.234 E1.55239
G1 X105.655 Y126.490 E1.55861
G1 X105.369 Y126.646 E1.56329
G1 X105.011 Y126.774 E1.56874
G1 X104.639 Y126.846 E1.57420
G1 X104.259 Y126.861 E1.57965
G1 X103.882 Y126.817 E1.58510
G1 X103.517 Y126.717 E1.59055
G1 X103.170 Y126.561 E1.59601
G1 X102.852 Y126.355 E1.60146
G1 X102.534 Y126.061 E1.60768
G1 X102.327 Y125.810 E1.61236
G1 X102.133 Y125.484 E1.61781
G1 X101.991 Y125.132 E1.62326
G1 X101.905 Y124.762 E1.62872
G1 X101.880 Y124.441 E1.63334
G1 X102.263 Y124.408 F12000.000
G1 X102.286 Y124.064 F3600.000 E1.63829
G1 X102.359 Y123.752 E1.64289
G1 X102.479 Y123.455 E1.64749
G1 X102.643 Y123.179 E1.65210
G1 X102.847 Y122.932 E1.65670
G1 X103.086 Y122.719 E1.66131
G1 X103.355 Y122.545 E1.66591
G1 X103.647 Y122.414 E1.67051
G1 X103.956 Y122.329 E1.67512
G1 X104.274 Y122.292 E1.67972
G1 X104.595 Y122.304 E1.68433
G1 X104.909 Y122.365 E1.68893
G1 X105.211 Y122.474 E1.69353
G1 X105.492 Y122.627 E1.69814
G1 X105.747 Y122.821 E1.70274
G1 X105.969 Y123.052 E1.70734
G1 X106.154 Y123.314 E1.71195
G1 X106.296 Y123.601 E1.71655
G1 X106.392 Y123.907 E1.72115
G1 X106.441 Y124.223 E1.72576
G1 X106.441 Y124.544 E1.73036
G1 X106.385 Y124.884 E1.73531
G1 X106.296 Y125.166 E1.73956
G1 X106.154 Y125.453 E1.74417
G1 X105.969 Y125.715 E1.74877
G1 X105.747 Y125.946 E1.75338
G1 X105.471 Y126.152 E1.75833
G1 X105.211 Y126.293 E1.76258
G1 X104.909 Y126.402 E1.76718
G1 X104.595 Y126.463 E1.77179
G1 X104.274 Y126.475 E1.77639
G1 X103.956 Y126.438 E1.78100
G1 X103.647 Y126.353 E1.78560
G1 X103.355 Y126.222 E1.79020
G1 X103.086 Y126.048 E1.79481
G1 X102.831 Y125.816 E1.79975
G1 X102.643 Y125.588 E1.80401
G1 X102.479 Y125.312 E1.80861
G1 X102.359 Y125.015 E1.81322
G1 X102.286 Y124.703 E1.81782
G1 X102.268 Y124.465 E1.82125
G1 X101.968 Y124.230 F12000.000
G1 F1800.000 E0.82125
G92 E0
G1 X117.126 Y98.778 F12000.000
G1 F1800.000 E1.00000
G1 X110.442 Y104.771 F3600.000 E1.12898
G1 X110.277 Y104.976 E1.13276
G1 X110.121 Y105.283 E1.13771
G1 X110.017 Y105.645 E1.14312
G1 X109.965 Y105.925 E1.14722
G1 X109.866 Y106.839 E1.16042
G1 X109.777 Y108.408 E1.18301
G1 X109.777 Y143.806 E1.69157
G1 X70.932 Y143.806 E2.24967
G1 X70.932 Y104.961 E2.80777
G1 X106.085 Y104.961 E3.31283
G1 X107.648 Y104.880 E3.33530
G1 X108.541 Y104.800 E3.34819
G1 X109.068 Y104.713 E3.35586
G1 X109.410 Y104.617 E3.36097
G1 X109.667 Y104.498 E3.36504
G1 X109.860 Y104.363 E3.36841
G1 X116.670 Y98.284 E3.49957
G1 X116.871 Y98.475 E3.50354
G1 X117.089 Y98.733 E3.50841
G1 X117.391 Y98.499 F12000.000
G1 X117.624 Y98.849 F2520.000 E3.51444
G1 X110.715 Y105.042 E3.64773
G1 X110.604 Y105.178 E3.65026
G1 X110.481 Y105.419 E3.65415
G1 X110.392 Y105.730 E3.65879
G1 X110.345 Y105.990 E3.66259
G1 X110.249 Y106.866 E3.67526
G1 X110.162 Y108.413 E3.69751
G1 X110.162 Y144.191 E4.21154
G1 X70.547 Y144.191 E4.78070
G1 X70.547 Y104.576 E5.34986
G1 X106.081 Y104.576 E5.86038
G1 X107.624 Y104.496 E5.88258
G1 X108.493 Y104.418 E5.89512
G1 X109.132 Y104.301 E5.90445
G1 X109.382 Y104.210 E5.90828
G1 X109.615 Y104.066 E5.91220
G1 X116.655 Y97.782 E6.04777
G1 X116.884 Y97.956 E6.05190
G1 X117.125 Y98.184 E6.05667
G1 X117.356 Y98.453 E6.06177
G1 X117.233 Y98.850 F12000.000
G1 F1800.000 E5.06177
G92 E0
G1 X99.192 Y105.240 F12000.000
G1 F1800.000 E1.00000
M106 S255
G1 X78.812 Y125.620 F3600.000 E1.41409
G1 X79.042 Y125.000 E1.42359
G1 X98.803 Y105.240 E1.82509
G1 X98.414 Y105.240 E1.83067
G1 X79.105 Y124.549 E2.22300
G1 X79.103 Y124.162 E2.22856
G1 X98.026 Y105.240 E2.61302
G1 X97.637 Y105.240 E2.61861
G1 X79.051 Y123.825 E2.99623
G1 X78.967 Y123.521 E3.00076
G1 X97.248 Y105.240 E3.37221
G1 X96.859 Y105.240 E3.37779
G1 X78.858 Y123.241 E3.74355
G1 X78.729 Y122.981 E3.74772
G1 X96.471 Y105.240 E4.10819
G1 X96.082 Y105.240 E4.11377
G1 X78.570 Y122.752 E4.46959
G1 X78.395 Y122.537 E4.47356
G1 X95.693 Y105.240 E4.82501
G1 X95.304 Y105.240 E4.83060
G1 X78.205 Y122.339 E5.17803
G1 X77.986 Y122.169 E5.18201
G1 X94.916 Y105.240 E5.52598
G1 X94.527 Y105.240 E5.53157
G1 X77.753 Y122.013 E5.87238
G1 X77.501 Y121.876 E5.87649
G1 X94.138 Y105.240 E6.21452
G1 X93.749 Y105.240 E6.22010
G1 X77.218 Y121.771 E6.55599
G1 X76.911 Y121.690 E6.56056
G1 X93.361 Y105.240 E6.89479
G1 X92.972 Y105.240 E6.90038
G1 X76.572 Y121.639 E7.23359
G1 X76.189 Y121.634 E7.23909
G1 X92.583 Y105.240 E7.57219
G1 X92.194 Y105.240 E7.57778
G1 X75.732 Y121.702 E7.91226
G1 X75.121 Y121.924 E7.92160
G1 X91.806 Y105.240 E8.26060
G1 X91.417 Y105.240 E8.26618
G1 X71.211 Y125.446 E8.67674
G1 X71.211 Y125.835 E8.68232
G1 X73.880 Y123.165 E8.73656
G1 X73.676 Y123.758 E8.74556
G1 X71.211 Y126.223 E8.79565
G1 X71.211 Y126.612 E8.80124
G1 X73.609 Y124.214 E8.84996
G1 X73.612 Y124.599 E8.85550
G1 X71.211 Y127.001 E8.90430
G1 X71.211 Y127.390 E8.90988
G1 X73.660 Y124.940 E8.95965
G1 X73.738 Y125.251 E8.96424
G1 X71.211 Y127.778 E9.01560
G1 X71.211 Y128.167 E9.02119
G1 X73.850 Y125.528 E9.07482
G1 X73.985 Y125.781 E9.07894
G1 X71.211 Y128.556 E9.13532
G1 X71.211 Y128.945 E9.14091
G1 X74.137 Y126.018 E9.20037
G1 X74.313 Y126.231 E9.20433
G1 X71.211 Y129.333 E9.26737
G1 X71.211 Y129.722 E9.27295
G1 X74.509 Y126.423 E9.33997
G1 X74.726 Y126.596 E9.34395
G1 X71.211 Y130.111 E9.41536
G1 X71.211 Y130.500 E9.42095
G1 X74.957 Y126.753 E9.49707
G1 X75.213 Y126.886 E9.50121
G1 X71.211 Y130.888 E9.58253
G1 X71.211 Y131.277 E9.58811
G1 X75.489 Y126.998 E9.67505
G1 X75.794 Y127.082 E9.67959
G1 X71.211 Y131.666 E9.77272
G1 X71.211 Y132.055 E9.77831
G1 X76.138 Y127.127 E9.87842
G1 X76.524 Y127.130 E9.88397
G1 X71.211 Y132.443 E9.99194
G1 X71.211 Y132.832 E9.99752
G1 X76.978 Y127.064 E10.11471
G1 X77.587 Y126.844 E10.12402
G1 X71.211 Y133.221 E10.25358
G1 X71.211 Y133.610 E10.25917
G1 X99.581 Y105.240 E10.83559
G1 X99.969 Y105.240 E10.84118
G1 X71.211 Y133.998 E11.42550
G1 X71.211 Y134.387 E11.43109
G1 X100.358 Y105.240 E12.02331
G1 X100.747 Y105.240 E12.02890
G1 X71.211 Y134.776 E12.62902
