; generated by Slic3r 0.9.9 on 2013-09-26 at 20:21:34

; layer_height = 0.4
; perimeters = 3
; top_solid_layers = 3
; bottom_solid_layers = 3
; fill_density = 0.4
; perimeter_speed = 30
; infill_speed = 60
; travel_speed = 130
; nozzle_diameter = 0.5
; filament_diameter = 3
; extrusion_multiplier = 1
; perimeters extrusion width = 0.53mm
; infill extrusion width = 0.53mm
; solid infill extrusion width = 0.53mm
; top infill extrusion width = 0.53mm
; first layer extrusion width = 0.70mm

G21 ; set units to millimeters
M107
M104 S200 ; set temperature
G28 ; home all axes
G1 Z5 F5000 ; lift nozzle

M109 S200 ; wait for temperature to be reached
G90 ; use absolute coordinates
G92 E0
M82 ; use absolute distances for extrusion
G1 F1800.000 E-1.00000
G92 E0
G1 Z0.350 F7800.000
G1 X91.810 Y66.640
G1 F1800.000 E1.00000
G1 X92.260 Y66.170 F540.000 E1.02117
G1 X92.970 Y65.550 E1.05184
G1 X93.620 Y65.080 E1.07794
G1 X94.490 Y64.560 E1.11091
G1 X95.230 Y64.210 E1.13754
G1 X95.990 Y63.920 E1.16401
G1 X96.730 Y63.710 E1.18904
G1 X97.780 Y63.520 E1.22375
G1 X98.470 Y63.460 E1.24629
G1 X99.020 Y63.440 E1.26419
G1 X101.300 Y63.450 E1.33838
G1 X102.410 Y63.550 E1.37464
G1 X102.930 Y63.640 E1.39181
G1 X103.960 Y63.910 E1.42645
G1 X104.760 Y64.210 E1.45425
G1 X105.740 Y64.690 E1.48975
G1 X106.370 Y65.080 E1.51386
G1 X107.020 Y65.550 E1.53995
G1 X107.730 Y66.170 E1.57062
G1 X108.180 Y66.640 E1.59179
G1 X124.970 Y85.470 E2.41260
G1 X125.500 Y86.140 E2.44040
G1 X125.800 Y86.630 E2.45909
G1 X126.060 Y87.130 E2.47743
G1 X126.360 Y87.930 E2.50523
G1 X126.560 Y88.760 E2.53300
G1 X126.630 Y89.330 E2.55169
G1 X126.660 Y89.900 E2.57026
G1 X126.660 Y129.900 E3.87167
G1 X126.640 Y130.440 E3.88925
G1 X126.520 Y131.230 E3.91525
G1 X126.310 Y132.010 E3.94153
G1 X126.010 Y132.750 E3.96751
G1 X125.770 Y133.230 E3.98497
G1 X125.480 Y133.680 E4.00238
G1 X125.160 Y134.110 E4.01982
G1 X124.800 Y134.510 E4.03733
G1 X124.210 Y135.060 E4.06357
G1 X123.780 Y135.380 E4.08101
G1 X123.330 Y135.670 E4.09843
G1 X122.610 Y136.020 E4.12448
G1 X122.110 Y136.210 E4.14188
G1 X121.330 Y136.420 E4.16816
G1 X120.540 Y136.540 E4.19416
G1 X120.000 Y136.560 E4.21174
G1 X80.000 Y136.560 E5.51315
G1 X79.460 Y136.540 E5.53073
G1 X78.670 Y136.420 E5.55673
G1 X77.890 Y136.210 E5.58301
G1 X77.150 Y135.910 E5.60899
G1 X76.670 Y135.670 E5.62645
G1 X76.220 Y135.380 E5.64387
G1 X75.790 Y135.060 E5.66130
G1 X75.390 Y134.700 E5.67881
G1 X74.840 Y134.110 E5.70506
G1 X74.520 Y133.680 E5.72249
G1 X74.230 Y133.230 E5.73991
G1 X73.880 Y132.510 E5.76596
G1 X73.690 Y132.010 E5.78336
G1 X73.480 Y131.230 E5.80964
G1 X73.360 Y130.440 E5.83564
G1 X73.340 Y129.900 E5.85322
G1 X73.340 Y89.900 E7.15463
G1 X73.400 Y89.050 E7.18235
G1 X73.490 Y88.490 E7.20081
G1 X73.560 Y88.210 E7.21020
G1 X73.730 Y87.660 E7.22893
G1 X73.940 Y87.140 E7.24717
G1 X74.070 Y86.880 E7.25663
G1 X74.200 Y86.630 E7.26580
G1 X74.500 Y86.140 E7.28449
G1 X74.840 Y85.690 E7.30284
G1 X91.744 Y66.714 E8.12969
G1 F1800.000 E7.12969
G92 E0
G1 X112.227 Y106.829 F7800.000
G1 F1800.000 E1.00000
G1 X112.618 Y106.635 F540.000 E1.01420
G1 X113.030 Y106.490 E1.02841
G1 X113.456 Y106.396 E1.04260
G1 X113.891 Y106.356 E1.05682
G1 X114.217 Y106.366 E1.06744
G1 X114.759 Y106.436 E1.08520
G1 X115.178 Y106.556 E1.09940
G1 X115.580 Y106.726 E1.11360
G1 X115.959 Y106.944 E1.12781
G1 X116.307 Y107.207 E1.14202
G1 X116.620 Y107.511 E1.15621
G1 X116.894 Y107.851 E1.17042
G1 X117.124 Y108.222 E1.18461
G1 X117.306 Y108.619 E1.19882
G1 X117.439 Y109.035 E1.21304
G1 X117.519 Y109.464 E1.22723
G1 X117.546 Y109.900 E1.24144
G1 X117.526 Y110.226 E1.25207
G1 X117.439 Y110.765 E1.26984
G1 X117.306 Y111.181 E1.28403
G1 X117.124 Y111.577 E1.29823
G1 X116.894 Y111.949 E1.31244
G1 X116.620 Y112.289 E1.32665
G1 X116.307 Y112.593 E1.34084
G1 X115.958 Y112.856 E1.35506
G1 X115.580 Y113.074 E1.36926
G1 X115.279 Y113.202 E1.37989
G1 X114.758 Y113.364 E1.39764
G1 X114.327 Y113.431 E1.41183
G1 X113.891 Y113.444 E1.42604
G1 X113.456 Y113.404 E1.44025
G1 X113.137 Y113.334 E1.45088
G1 X112.618 Y113.165 E1.46863
G1 X112.227 Y112.971 E1.48284
G1 X111.863 Y112.730 E1.49704
G1 X111.532 Y112.446 E1.51125
G1 X111.237 Y112.123 E1.52545
G1 X110.985 Y111.767 E1.53965
G1 X110.779 Y111.382 E1.55386
G1 X110.621 Y110.975 E1.56807
G1 X110.515 Y110.552 E1.58227
G1 X110.461 Y110.118 E1.59647
G1 X110.461 Y109.682 E1.61067
G1 X110.515 Y109.248 E1.62488
G1 X110.621 Y108.825 E1.63909
G1 X110.779 Y108.418 E1.65328
G1 X110.985 Y108.033 E1.66748
G1 X111.237 Y107.677 E1.68169
G1 X111.532 Y107.354 E1.69591
G1 X111.863 Y107.071 E1.71009
G1 X112.145 Y106.884 E1.72110
G1 X112.499 Y107.438 F7800.000
G1 X112.875 Y107.241 F540.000 E1.73491
G1 X113.210 Y107.123 E1.74648
G1 X113.557 Y107.047 E1.75804
G1 X113.911 Y107.014 E1.76961
G1 X114.197 Y107.023 E1.77892
G1 X114.618 Y107.079 E1.79273
G1 X114.960 Y107.177 E1.80429
G1 X115.287 Y107.315 E1.81586
G1 X115.595 Y107.493 E1.82742
G1 X115.879 Y107.707 E1.83900
G1 X116.134 Y107.955 E1.85056
G1 X116.357 Y108.232 E1.86213
G1 X116.544 Y108.534 E1.87369
G1 X116.692 Y108.857 E1.88526
G1 X116.800 Y109.196 E1.89683
G1 X116.866 Y109.545 E1.90839
G1 X116.887 Y109.900 E1.91996
G1 X116.866 Y110.255 E1.93153
G1 X116.813 Y110.536 E1.94085
G1 X116.692 Y110.943 E1.95465
G1 X116.544 Y111.266 E1.96621
G1 X116.357 Y111.568 E1.97778
G1 X116.134 Y111.845 E1.98935
G1 X115.879 Y112.093 E2.00091
G1 X115.595 Y112.307 E2.01249
G1 X115.287 Y112.485 E2.02405
G1 X115.023 Y112.596 E2.03336
G1 X114.618 Y112.721 E2.04717
G1 X114.267 Y112.775 E2.05873
G1 X113.911 Y112.786 E2.07030
G1 X113.557 Y112.753 E2.08187
G1 X113.277 Y112.692 E2.09118
G1 X112.875 Y112.559 E2.10498
G1 X112.556 Y112.401 E2.11655
G1 X112.260 Y112.204 E2.12812
G1 X111.990 Y111.973 E2.13968
G1 X111.750 Y111.710 E2.15125
G1 X111.545 Y111.420 E2.16281
G1 X111.377 Y111.107 E2.17438
G1 X111.248 Y110.775 E2.18595
G1 X111.162 Y110.431 E2.19752
G1 X111.118 Y110.078 E2.20909
G1 X111.118 Y109.722 E2.22065
G1 X111.162 Y109.369 E2.23222
G1 X111.248 Y109.025 E2.24379
G1 X111.377 Y108.693 E2.25535
G1 X111.545 Y108.380 E2.26692
G1 X111.750 Y108.090 E2.27848
G1 X111.990 Y107.827 E2.29006
G1 X112.260 Y107.596 E2.30161
G1 X112.416 Y107.492 E2.30772
G1 X112.861 Y107.985 F7800.000
G1 X113.131 Y107.847 F540.000 E2.31759
G1 X113.390 Y107.756 E2.32652
G1 X113.658 Y107.697 E2.33544
G1 X113.931 Y107.672 E2.34438
G1 X114.177 Y107.679 E2.35237
G1 X114.477 Y107.722 E2.36223
G1 X114.741 Y107.798 E2.37116
G1 X114.994 Y107.905 E2.38008
G1 X115.231 Y108.042 E2.38901
G1 X115.450 Y108.207 E2.39795
G1 X115.647 Y108.398 E2.40687
G1 X115.819 Y108.612 E2.41580
G1 X115.964 Y108.845 E2.42473
G1 X116.079 Y109.095 E2.43366
G1 X116.162 Y109.356 E2.44259
G1 X116.212 Y109.626 E2.45152
G1 X116.229 Y109.900 E2.46045
G1 X116.212 Y110.174 E2.46938
G1 X116.167 Y110.415 E2.47738
G1 X116.079 Y110.705 E2.48723
G1 X115.964 Y110.955 E2.49616
G1 X115.819 Y111.188 E2.50509
G1 X115.647 Y111.402 E2.51402
G1 X115.450 Y111.593 E2.52295
G1 X115.231 Y111.758 E2.53188
G1 X114.994 Y111.895 E2.54081
G1 X114.767 Y111.991 E2.54881
G1 X114.477 Y112.078 E2.55867
G1 X114.206 Y112.120 E2.56759
G1 X113.931 Y112.128 E2.57652
G1 X113.658 Y112.103 E2.58545
G1 X113.418 Y112.050 E2.59345
G1 X113.131 Y111.953 E2.60330
G1 X112.885 Y111.831 E2.61224
G1 X112.657 Y111.679 E2.62116
G1 X112.448 Y111.500 E2.63009
G1 X112.263 Y111.297 E2.63902
G1 X112.105 Y111.074 E2.64795
G1 X111.975 Y110.832 E2.65688
G1 X111.876 Y110.576 E2.66581
G1 X111.809 Y110.310 E2.67474
G1 X111.775 Y110.037 E2.68367
G1 X111.775 Y109.763 E2.69260
G1 X111.809 Y109.490 E2.70153
G1 X111.876 Y109.224 E2.71046
G1 X111.975 Y108.968 E2.71939
G1 X112.105 Y108.727 E2.72832
G1 X112.263 Y108.503 E2.73725
G1 X112.448 Y108.300 E2.74618
G1 X112.779 Y108.040 E2.75987
G1 X112.859 Y107.682 F7800.000
G1 X100.741 Y76.202
G1 X100.477 Y76.278 F540.000 E2.76880
G1 X100.206 Y76.320 E2.77773
G1 X99.931 Y76.328 E2.78666
G1 X99.658 Y76.303 E2.79559
G1 X99.430 Y76.253 E2.80319
G1 X99.131 Y76.153 E2.81344
G1 X98.885 Y76.031 E2.82237
G1 X98.691 Y75.901 E2.82997
G1 X98.448 Y75.700 E2.84022
G1 X98.263 Y75.498 E2.84915
G1 X98.105 Y75.273 E2.85808
G1 X97.975 Y75.032 E2.86701
G1 X97.876 Y74.776 E2.87594
G1 X97.809 Y74.510 E2.88487
G1 X97.775 Y74.237 E2.89380
G1 X97.775 Y73.963 E2.90273
G1 X97.809 Y73.690 E2.91166
G1 X97.876 Y73.424 E2.92059
G1 X97.960 Y73.206 E2.92819
G1 X98.105 Y72.926 E2.93844
G1 X98.263 Y72.702 E2.94737
G1 X98.448 Y72.500 E2.95629
G1 X98.657 Y72.321 E2.96522
G1 X98.885 Y72.169 E2.97415
G1 X99.131 Y72.047 E2.98308
G1 X99.390 Y71.956 E2.99201
G1 X99.658 Y71.897 E3.00094
G1 X99.931 Y71.872 E3.00987
G1 X100.165 Y71.879 E3.01748
G1 X100.477 Y71.922 E3.02772
G1 X100.741 Y71.998 E3.03665
G1 X100.994 Y72.105 E3.04558
G1 X101.231 Y72.242 E3.05451
G1 X101.450 Y72.407 E3.06344
G1 X101.647 Y72.598 E3.07237
G1 X101.819 Y72.812 E3.08130
G1 X101.964 Y73.045 E3.09023
G1 X102.079 Y73.295 E3.09916
G1 X102.162 Y73.556 E3.10809
G1 X102.212 Y73.826 E3.11702
G1 X102.229 Y74.100 E3.12595
G1 X102.212 Y74.374 E3.13488
G1 X102.162 Y74.644 E3.14381
G1 X102.079 Y74.905 E3.15274
G1 X101.964 Y75.155 E3.16167
G1 X101.819 Y75.388 E3.17060
G1 X101.647 Y75.602 E3.17953
G1 X101.450 Y75.793 E3.18845
G1 X101.231 Y75.958 E3.19739
G1 X100.994 Y76.095 E3.20631
G1 X100.832 Y76.164 E3.21204
G1 X100.685 Y76.471 F7800.000
G1 X100.266 Y83.025
G1 X100.618 Y83.079 F540.000 E3.22360
G1 X100.960 Y83.177 E3.23517
G1 X101.287 Y83.315 E3.24674
G1 X101.595 Y83.493 E3.25831
G1 X101.879 Y83.707 E3.26987
G1 X102.134 Y83.955 E3.28144
G1 X102.306 Y84.168 E3.29036
G1 X102.544 Y84.534 E3.30455
G1 X102.692 Y84.857 E3.31612
G1 X102.800 Y85.196 E3.32769
G1 X102.866 Y85.545 E3.33925
G1 X102.887 Y85.900 E3.35082
G1 X102.866 Y86.255 E3.36239
G1 X102.800 Y86.604 E3.37395
G1 X102.692 Y86.943 E3.38552
G1 X102.544 Y87.266 E3.39709
G1 X102.357 Y87.568 E3.40865
G1 X102.134 Y87.845 E3.42022
G1 X101.879 Y88.093 E3.43179
G1 X101.595 Y88.307 E3.44335
G1 X101.287 Y88.485 E3.45492
G1 X100.960 Y88.623 E3.46649
G1 X100.618 Y88.721 E3.47806
G1 X100.266 Y88.775 E3.48962
G1 X99.911 Y88.786 E3.50119
G1 X99.557 Y88.753 E3.51275
G1 X99.210 Y88.677 E3.52432
G1 X98.875 Y88.559 E3.53589
G1 X98.556 Y88.401 E3.54746
G1 X98.260 Y88.204 E3.55902
G1 X97.990 Y87.973 E3.57059
G1 X97.805 Y87.770 E3.57951
G1 X97.545 Y87.420 E3.59371
G1 X97.377 Y87.107 E3.60527
G1 X97.248 Y86.775 E3.61684
G1 X97.162 Y86.431 E3.62841
G1 X97.118 Y86.078 E3.63997
G1 X97.118 Y85.722 E3.65154
G1 X97.162 Y85.369 E3.66310
G1 X97.248 Y85.025 E3.67467
G1 X97.377 Y84.693 E3.68624
G1 X97.545 Y84.380 E3.69781
G1 X97.750 Y84.090 E3.70937
G1 X97.990 Y83.827 E3.72094
G1 X98.260 Y83.596 E3.73251
G1 X98.489 Y83.444 E3.74143
G1 X98.875 Y83.241 E3.75562
G1 X99.210 Y83.123 E3.76719
G1 X99.557 Y83.047 E3.77876
G1 X99.911 Y83.014 E3.79032
G1 X100.168 Y83.022 E3.79868
G1 X100.165 Y83.679 F7800.000
G1 X100.477 Y83.722 F540.000 E3.80893
G1 X100.741 Y83.798 E3.81786
G1 X100.994 Y83.905 E3.82679
G1 X101.231 Y84.042 E3.83572
G1 X101.450 Y84.207 E3.84465
G1 X101.647 Y84.398 E3.85358
G1 X101.819 Y84.612 E3.86251
G1 X101.964 Y84.845 E3.87144
G1 X102.079 Y85.095 E3.88037
G1 X102.162 Y85.356 E3.88930
G1 X102.212 Y85.626 E3.89822
G1 X102.229 Y85.900 E3.90716
G1 X102.212 Y86.174 E3.91608
G1 X102.162 Y86.444 E3.92501
G1 X102.079 Y86.705 E3.93394
G1 X101.964 Y86.955 E3.94287
G1 X101.819 Y87.188 E3.95180
G1 X101.647 Y87.402 E3.96073
G1 X101.450 Y87.593 E3.96966
G1 X101.231 Y87.758 E3.97859
G1 X100.994 Y87.895 E3.98752
G1 X100.741 Y88.002 E3.99645
G1 X100.477 Y88.078 E4.00538
G1 X100.206 Y88.120 E4.01431
G1 X99.931 Y88.128 E4.02324
G1 X99.658 Y88.103 E4.03217
G1 X99.390 Y88.044 E4.04110
G1 X99.131 Y87.953 E4.05003
G1 X98.885 Y87.831 E4.05896
G1 X98.657 Y87.679 E4.06789
G1 X98.448 Y87.500 E4.07682
G1 X98.291 Y87.328 E4.08442
G1 X98.105 Y87.073 E4.09467
G1 X97.975 Y86.832 E4.10360
G1 X97.876 Y86.576 E4.11253
G1 X97.809 Y86.310 E4.12146
G1 X97.780 Y86.078 E4.12906
G1 X97.775 Y85.763 E4.13931
G1 X97.809 Y85.490 E4.14824
G1 X97.876 Y85.224 E4.15717
G1 X97.975 Y84.968 E4.16609
G1 X98.105 Y84.726 E4.17502
G1 X98.263 Y84.502 E4.18395
G1 X98.448 Y84.300 E4.19288
G1 X98.657 Y84.121 E4.20181
G1 X98.851 Y83.992 E4.20942
G1 X99.131 Y83.847 E4.21966
G1 X99.390 Y83.756 E4.22859
G1 X99.658 Y83.697 E4.23752
G1 X100.066 Y83.676 E4.25083
G1 X100.344 Y83.420 F7800.000
G1 F1800.000 E3.25083
G92 E0
G1 X87.581 Y106.726 F7800.000
G1 F1800.000 E1.00000
G1 X87.959 Y106.944 F540.000 E1.01421
G1 X88.307 Y107.207 E1.02841
G1 X88.620 Y107.511 E1.04260
G1 X88.894 Y107.851 E1.05681
G1 X89.124 Y108.222 E1.07102
G1 X89.306 Y108.619 E1.08522
G1 X89.439 Y109.035 E1.09943
G1 X89.519 Y109.464 E1.11363
G1 X89.546 Y109.900 E1.12784
G1 X89.519 Y110.336 E1.14204
G1 X89.439 Y110.765 E1.15624
G1 X89.306 Y111.181 E1.17044
G1 X89.124 Y111.577 E1.18465
G1 X88.894 Y111.949 E1.19886
G1 X88.620 Y112.289 E1.21306
G1 X88.307 Y112.593 E1.22726
G1 X87.959 Y112.856 E1.24146
G1 X87.676 Y113.019 E1.25210
G1 X87.178 Y113.244 E1.26985
G1 X86.759 Y113.364 E1.28405
G1 X86.328 Y113.431 E1.29825
G1 X85.891 Y113.444 E1.31246
G1 X85.456 Y113.404 E1.32667
G1 X85.030 Y113.311 E1.34086
G1 X84.618 Y113.165 E1.35508
G1 X84.227 Y112.971 E1.36928
G1 X83.863 Y112.730 E1.38348
G1 X83.532 Y112.446 E1.39768
G1 X83.237 Y112.123 E1.41190
G1 X82.985 Y111.766 E1.42610
G1 X82.779 Y111.382 E1.44030
G1 X82.621 Y110.975 E1.45450
G1 X82.515 Y110.552 E1.46869
G1 X82.461 Y110.118 E1.48291
G1 X82.461 Y109.682 E1.49711
G1 X82.515 Y109.248 E1.51132
G1 X82.621 Y108.825 E1.52552
G1 X82.779 Y108.418 E1.53973
G1 X82.985 Y108.033 E1.55392
G1 X83.237 Y107.677 E1.56813
G1 X83.532 Y107.354 E1.58234
G1 X83.863 Y107.070 E1.59654
G1 X84.227 Y106.829 E1.61075
G1 X84.618 Y106.635 E1.62494
G1 X85.030 Y106.490 E1.63915
G1 X85.456 Y106.396 E1.65335
G1 X85.891 Y106.356 E1.66756
G1 X86.327 Y106.369 E1.68177
G1 X86.759 Y106.436 E1.69598
G1 X87.178 Y106.556 E1.71017
G1 X87.490 Y106.687 E1.72117
G1 X87.223 Y107.288 F7800.000
G1 X87.595 Y107.493 F540.000 E1.73498
G1 X87.879 Y107.707 E1.74655
G1 X88.134 Y107.955 E1.75810
G1 X88.357 Y108.232 E1.76968
G1 X88.544 Y108.534 E1.78124
G1 X88.692 Y108.857 E1.79281
G1 X88.800 Y109.196 E1.80438
G1 X88.866 Y109.545 E1.81594
G1 X88.887 Y109.900 E1.82751
G1 X88.866 Y110.255 E1.83907
G1 X88.800 Y110.604 E1.85064
G1 X88.693 Y110.943 E1.86221
G1 X88.544 Y111.266 E1.87378
G1 X88.357 Y111.568 E1.88535
G1 X88.134 Y111.845 E1.89691
G1 X87.879 Y112.093 E1.90848
G1 X87.595 Y112.307 E1.92004
G1 X87.287 Y112.485 E1.93161
G1 X87.023 Y112.596 E1.94092
G1 X86.618 Y112.721 E1.95473
G1 X86.267 Y112.775 E1.96629
G1 X85.911 Y112.786 E1.97786
G1 X85.557 Y112.753 E1.98943
G1 X85.210 Y112.677 E2.00099
G1 X84.874 Y112.559 E2.01256
G1 X84.556 Y112.401 E2.02413
G1 X84.260 Y112.204 E2.03569
G1 X83.990 Y111.973 E2.04726
G1 X83.750 Y111.710 E2.05883
G1 X83.545 Y111.420 E2.07040
G1 X83.377 Y111.107 E2.08196
G1 X83.248 Y110.775 E2.09353
G1 X83.162 Y110.431 E2.10509
G1 X83.118 Y110.078 E2.11667
G1 X83.118 Y109.722 E2.12823
G1 X83.162 Y109.369 E2.13980
G1 X83.248 Y109.025 E2.15136
G1 X83.377 Y108.693 E2.16293
G1 X83.545 Y108.380 E2.17449
G1 X83.750 Y108.090 E2.18606
G1 X83.990 Y107.827 E2.19763
G1 X84.260 Y107.596 E2.20919
G1 X84.556 Y107.399 E2.22077
G1 X84.874 Y107.241 E2.23233
G1 X85.210 Y107.123 E2.24390
G1 X85.557 Y107.047 E2.25546
G1 X85.911 Y107.014 E2.26703
G1 X86.267 Y107.025 E2.27860
G1 X86.618 Y107.079 E2.29017
G1 X86.960 Y107.177 E2.30173
G1 X87.132 Y107.250 E2.30783
G1 X86.967 Y107.893 F7800.000
G1 X87.231 Y108.042 F540.000 E2.31770
G1 X87.450 Y108.207 E2.32663
G1 X87.647 Y108.398 E2.33555
G1 X87.819 Y108.612 E2.34448
G1 X87.964 Y108.845 E2.35341
G1 X88.079 Y109.095 E2.36234
G1 X88.162 Y109.356 E2.37127
G1 X88.212 Y109.626 E2.38020
G1 X88.229 Y109.900 E2.38913
G1 X88.212 Y110.174 E2.39806
G1 X88.162 Y110.444 E2.40699
G1 X88.079 Y110.705 E2.41592
G1 X87.964 Y110.955 E2.42485
G1 X87.819 Y111.188 E2.43378
G1 X87.647 Y111.402 E2.44271
G1 X87.450 Y111.593 E2.45164
G1 X87.231 Y111.758 E2.46057
G1 X86.994 Y111.895 E2.46950
G1 X86.767 Y111.991 E2.47749
G1 X86.477 Y112.078 E2.48735
G1 X86.206 Y112.120 E2.49628
G1 X85.931 Y112.128 E2.50521
G1 X85.658 Y112.103 E2.51414
