; generated by Slic3r 0.9.9 on 2013-09-26 at 20:22:28

; July 20, 2013:
; - Updated support material width to 50%
; 
; 
; Initial:
; Doubled the infill and perimeter speeds, trying this at 220

; layer_height = 0.25
; perimeters = 2
; top_solid_layers = 3
; bottom_solid_layers = 3
; fill_density = 0.1
; perimeter_speed = 60
; infill_speed = 100
; travel_speed = 200
; nozzle_diameter = 0.35
; filament_diameter = 2.92
; extrusion_multiplier = 1
; perimeters extrusion width = 0.39mm
; infill extrusion width = 0.39mm
; solid infill extrusion width = 0.39mm
; top infill extrusion width = 0.39mm
; first layer extrusion width = 0.70mm

G21 ; set units to millimeters
M107
M190 S70 ; wait for bed temperature to be reached
M104 S220 ; set temperature
G1 X30 Y30 F3000
G1 Z5 F5000 ; lift nozzle
M42 P5 S255 ; turn on the lights
M109 S220 ; wait for temperature to be reached
G90 ; use absolute coordinates
G92 E0
M82 ; use absolute distances for extrusion
G1 F1800.000 E-1.00000
G92 E0
G1 Z0.350 F12000.000
G1 X86.830 Y86.660
G1 F1800.000 E1.00000
G1 X87.290 Y86.200 F1080.000 E1.02125
G1 X87.770 Y85.750 E1.04274
G1 X87.990 Y85.570 E1.05202
G1 X88.640 Y85.100 E1.07822
G1 X89.260 Y84.710 E1.10214
G1 X89.500 Y84.580 E1.11105
G1 X90.240 Y84.240 E1.13765
G1 X91.000 Y83.950 E1.16422
G1 X91.730 Y83.740 E1.18903
G1 X92.780 Y83.550 E1.22388
G1 X93.740 Y83.480 E1.25531
G1 X96.300 Y83.490 E1.33892
G1 X97.400 Y83.580 E1.37497
G1 X97.920 Y83.670 E1.39220
G1 X98.950 Y83.940 E1.42698
G1 X99.750 Y84.240 E1.45489
G1 X100.490 Y84.580 E1.48148
G1 X100.730 Y84.710 E1.49040
G1 X101.350 Y85.100 E1.51432
G1 X102.000 Y85.570 E1.54052
G1 X102.220 Y85.750 E1.54980
G1 X102.700 Y86.200 E1.57129
G1 X103.150 Y86.660 E1.59231
G1 X119.940 Y105.490 E2.41626
G1 X120.130 Y105.710 E2.42576
G1 X120.470 Y106.160 E2.44418
G1 X120.770 Y106.640 E2.46267
G1 X121.030 Y107.150 E2.48136
G1 X121.240 Y107.670 E2.49968
G1 X121.410 Y108.220 E2.51848
G1 X121.530 Y108.770 E2.53686
G1 X121.620 Y109.620 E2.56478
G1 X121.620 Y150.170 E3.88914
G1 X121.580 Y150.700 E3.90650
G1 X121.490 Y151.230 E3.92406
G1 X121.280 Y152.000 E3.95013
G1 X120.990 Y152.740 E3.97608
G1 X120.600 Y153.440 E4.00225
G1 X120.300 Y153.880 E4.01965
G1 X119.960 Y154.290 E4.03704
G1 X119.780 Y154.490 E4.04583
G1 X119.390 Y154.860 E4.06339
G1 X118.980 Y155.200 E4.08078
G1 X118.540 Y155.500 E4.09818
G1 X117.840 Y155.890 E4.12435
G1 X117.100 Y156.180 E4.15031
G1 X116.590 Y156.330 E4.16767
G1 X115.800 Y156.480 E4.19393
G1 X115.270 Y156.520 E4.21129
G1 X74.730 Y156.520 E5.53532
G1 X74.200 Y156.480 E5.55268
G1 X73.670 Y156.390 E5.57024
G1 X72.900 Y156.180 E5.59631
G1 X72.160 Y155.890 E5.62227
G1 X71.460 Y155.500 E5.64844
G1 X71.020 Y155.200 E5.66583
G1 X70.610 Y154.860 E5.68322
G1 X70.410 Y154.680 E5.69201
G1 X70.040 Y154.290 E5.70957
G1 X69.700 Y153.880 E5.72697
G1 X69.400 Y153.440 E5.74436
G1 X69.010 Y152.740 E5.77053
G1 X68.720 Y152.000 E5.79649
G1 X68.570 Y151.490 E5.81385
G1 X68.420 Y150.700 E5.84011
G1 X68.380 Y150.170 E5.85747
G1 X68.380 Y109.620 E7.18183
G1 X68.470 Y108.770 E7.20975
G1 X68.590 Y108.220 E7.22813
G1 X68.670 Y107.940 E7.23764
G1 X68.860 Y107.410 E7.25603
G1 X68.970 Y107.150 E7.26525
G1 X69.230 Y106.640 E7.28395
G1 X69.530 Y106.160 E7.30244
G1 X70.050 Y105.490 E7.33014
G1 X86.768 Y86.730 E8.15082
G1 F1800.000 E7.15082
G92 E0
G1 X107.580 Y127.441 F12000.000
G1 F1800.000 E1.00000
G1 X107.893 Y127.285 F1080.000 E1.01141
G1 X108.223 Y127.169 E1.02283
G1 X108.564 Y127.094 E1.03424
G1 X108.913 Y127.062 E1.04567
G1 X109.196 Y127.071 E1.05492
G1 X109.608 Y127.127 E1.06849
G1 X109.944 Y127.222 E1.07990
G1 X110.265 Y127.358 E1.09131
G1 X110.568 Y127.533 E1.10273
G1 X110.847 Y127.744 E1.11415
G1 X111.098 Y127.987 E1.12557
G1 X111.317 Y128.260 E1.13698
G1 X111.501 Y128.557 E1.14839
G1 X111.647 Y128.874 E1.15981
G1 X111.753 Y129.208 E1.17123
G1 X111.818 Y129.551 E1.18265
G1 X111.839 Y129.900 E1.19407
G1 X111.822 Y130.183 E1.20332
G1 X111.753 Y130.593 E1.21689
G1 X111.647 Y130.926 E1.22830
G1 X111.501 Y131.243 E1.23972
G1 X111.317 Y131.540 E1.25114
G1 X111.098 Y131.813 E1.26255
G1 X110.847 Y132.056 E1.27397
G1 X110.568 Y132.267 E1.28539
G1 X110.265 Y132.442 E1.29680
G1 X110.005 Y132.552 E1.30605
G1 X109.607 Y132.673 E1.31962
G1 X109.262 Y132.727 E1.33103
G1 X108.913 Y132.738 E1.34245
G1 X108.564 Y132.706 E1.35387
G1 X108.288 Y132.645 E1.36312
G1 X107.893 Y132.515 E1.37668
G1 X107.580 Y132.359 E1.38811
G1 X107.289 Y132.166 E1.39952
G1 X107.024 Y131.938 E1.41094
G1 X106.788 Y131.680 E1.42236
G1 X106.586 Y131.395 E1.43377
G1 X106.421 Y131.087 E1.44519
G1 X106.294 Y130.761 E1.45661
G1 X106.209 Y130.422 E1.46802
G1 X106.166 Y130.075 E1.47944
G1 X106.166 Y129.725 E1.49085
G1 X106.209 Y129.378 E1.50227
G1 X106.295 Y129.039 E1.51369
G1 X106.421 Y128.713 E1.52510
G1 X106.586 Y128.405 E1.53652
G1 X106.788 Y128.120 E1.54793
G1 X107.024 Y127.862 E1.55936
G1 X107.289 Y127.634 E1.57076
G1 X107.502 Y127.493 E1.57913
G1 X107.870 Y127.999 F12000.000
G1 X108.137 Y127.862 F1080.000 E1.58893
G1 X108.394 Y127.771 E1.59783
G1 X108.661 Y127.713 E1.60672
G1 X108.932 Y127.688 E1.61562
G1 X109.176 Y127.696 E1.62361
G1 X109.473 Y127.738 E1.63342
G1 X109.736 Y127.813 E1.64231
G1 X109.986 Y127.919 E1.65121
G1 X110.222 Y128.055 E1.66011
G1 X110.440 Y128.219 E1.66901
G1 X110.635 Y128.409 E1.67791
G1 X110.806 Y128.621 E1.68681
G1 X110.950 Y128.853 E1.69571
G1 X111.064 Y129.101 E1.70461
G1 X111.146 Y129.360 E1.71351
G1 X111.196 Y129.628 E1.72240
G1 X111.213 Y129.900 E1.73130
G1 X111.196 Y130.172 E1.74020
G1 X111.151 Y130.413 E1.74820
G1 X111.064 Y130.699 E1.75799
G1 X110.950 Y130.947 E1.76689
G1 X110.806 Y131.179 E1.77579
G1 X110.635 Y131.391 E1.78469
G1 X110.440 Y131.581 E1.79359
G1 X110.222 Y131.745 E1.80249
G1 X109.986 Y131.881 E1.81139
G1 X109.761 Y131.976 E1.81938
G1 X109.473 Y132.062 E1.82918
G1 X109.204 Y132.104 E1.83808
G1 X108.932 Y132.112 E1.84698
G1 X108.661 Y132.087 E1.85588
G1 X108.422 Y132.035 E1.86387
G1 X108.137 Y131.938 E1.87367
G1 X107.893 Y131.817 E1.88257
G1 X107.666 Y131.666 E1.89147
G1 X107.459 Y131.489 E1.90037
G1 X107.276 Y131.287 E1.90926
G1 X107.118 Y131.065 E1.91816
G1 X106.990 Y130.825 E1.92706
G1 X106.891 Y130.571 E1.93596
G1 X106.825 Y130.307 E1.94486
G1 X106.791 Y130.036 E1.95376
G1 X106.791 Y129.764 E1.96266
G1 X106.825 Y129.493 E1.97156
G1 X106.891 Y129.229 E1.98046
G1 X106.990 Y128.975 E1.98935
G1 X107.118 Y128.735 E1.99825
G1 X107.276 Y128.513 E2.00715
G1 X107.459 Y128.311 E2.01605
G1 X107.792 Y128.051 E2.02986
G1 X107.868 Y127.699 F12000.000
G1 X95.736 Y96.187
G1 X95.473 Y96.262 F1080.000 E2.03876
G1 X95.204 Y96.304 E2.04765
G1 X94.932 Y96.312 E2.05655
G1 X94.661 Y96.287 E2.06545
G1 X94.433 Y96.237 E2.07305
G1 X94.137 Y96.138 E2.08324
G1 X93.893 Y96.017 E2.09214
G1 X93.699 Y95.888 E2.09974
G1 X93.459 Y95.689 E2.10993
G1 X93.276 Y95.487 E2.11883
G1 X93.118 Y95.265 E2.12773
G1 X92.990 Y95.025 E2.13663
G1 X92.891 Y94.771 E2.14553
G1 X92.825 Y94.507 E2.15442
G1 X92.791 Y94.236 E2.16332
G1 X92.791 Y93.964 E2.17222
G1 X92.825 Y93.693 E2.18112
G1 X92.881 Y93.468 E2.18872
G1 X92.990 Y93.175 E2.19891
G1 X93.118 Y92.935 E2.20781
G1 X93.276 Y92.713 E2.21671
G1 X93.459 Y92.511 E2.22561
G1 X93.666 Y92.334 E2.23451
G1 X93.893 Y92.183 E2.24341
G1 X94.137 Y92.062 E2.25230
G1 X94.394 Y91.971 E2.26120
G1 X94.661 Y91.913 E2.27010
G1 X94.932 Y91.888 E2.27900
G1 X95.164 Y91.895 E2.28660
G1 X95.473 Y91.938 E2.29679
G1 X95.736 Y92.013 E2.30569
G1 X95.986 Y92.119 E2.31459
G1 X96.222 Y92.255 E2.32349
G1 X96.440 Y92.419 E2.33239
G1 X96.635 Y92.609 E2.34129
G1 X96.806 Y92.821 E2.35019
G1 X96.950 Y93.053 E2.35908
G1 X97.064 Y93.301 E2.36798
G1 X97.146 Y93.560 E2.37688
G1 X97.196 Y93.828 E2.38578
G1 X97.213 Y94.100 E2.39468
G1 X97.196 Y94.372 E2.40358
G1 X97.146 Y94.640 E2.41248
G1 X97.064 Y94.899 E2.42138
G1 X96.950 Y95.147 E2.43028
G1 X96.806 Y95.379 E2.43917
G1 X96.635 Y95.591 E2.44807
G1 X96.440 Y95.781 E2.45697
G1 X96.222 Y95.945 E2.46587
G1 X95.986 Y96.081 E2.47477
G1 X95.822 Y96.151 E2.48061
G1 X95.680 Y96.454 F12000.000
G1 X95.262 Y103.073
G1 X95.607 Y103.127 F1080.000 E2.49202
G1 X95.944 Y103.222 E2.50344
G1 X96.266 Y103.359 E2.51486
G1 X96.568 Y103.533 E2.52628
G1 X96.847 Y103.744 E2.53769
G1 X97.098 Y103.987 E2.54911
G1 X97.317 Y104.260 E2.56052
G1 X97.501 Y104.557 E2.57194
G1 X97.647 Y104.874 E2.58336
G1 X97.753 Y105.207 E2.59477
G1 X97.818 Y105.551 E2.60619
G1 X97.839 Y105.900 E2.61761
G1 X97.822 Y106.171 E2.62647
G1 X97.753 Y106.592 E2.64042
G1 X97.647 Y106.926 E2.65184
G1 X97.501 Y107.243 E2.66326
G1 X97.317 Y107.540 E2.67467
G1 X97.098 Y107.813 E2.68609
G1 X96.847 Y108.056 E2.69751
G1 X96.568 Y108.267 E2.70892
G1 X96.266 Y108.441 E2.72034
G1 X95.944 Y108.578 E2.73175
G1 X95.607 Y108.673 E2.74317
G1 X95.262 Y108.727 E2.75459
G1 X94.913 Y108.738 E2.76601
G1 X94.565 Y108.706 E2.77742
G1 X94.223 Y108.631 E2.78884
G1 X93.893 Y108.515 E2.80025
G1 X93.580 Y108.359 E2.81167
G1 X93.289 Y108.166 E2.82309
G1 X93.024 Y107.938 E2.83451
G1 X92.841 Y107.738 E2.84337
G1 X92.586 Y107.395 E2.85732
G1 X92.421 Y107.087 E2.86874
G1 X92.294 Y106.761 E2.88015
G1 X92.209 Y106.422 E2.89157
G1 X92.176 Y106.152 E2.90043
G1 X92.166 Y105.725 E2.91439
G1 X92.209 Y105.378 E2.92580
G1 X92.295 Y105.039 E2.93722
G1 X92.421 Y104.713 E2.94864
G1 X92.586 Y104.405 E2.96005
G1 X92.788 Y104.120 E2.97147
G1 X93.024 Y103.862 E2.98289
G1 X93.289 Y103.634 E2.99430
G1 X93.515 Y103.484 E3.00316
G1 X93.893 Y103.285 E3.01712
G1 X94.223 Y103.169 E3.02854
G1 X94.564 Y103.094 E3.03995
G1 X94.913 Y103.062 E3.05137
G1 X95.168 Y103.070 E3.05973
G1 X95.164 Y103.695 F12000.000
G1 X95.473 Y103.738 F1080.000 E3.06991
G1 X95.736 Y103.813 E3.07881
G1 X95.986 Y103.919 E3.08771
G1 X96.222 Y104.055 E3.09661
G1 X96.440 Y104.219 E3.10551
G1 X96.635 Y104.409 E3.11441
G1 X96.806 Y104.621 E3.12331
G1 X96.950 Y104.853 E3.13221
G1 X97.064 Y105.101 E3.14111
G1 X97.146 Y105.360 E3.15000
G1 X97.196 Y105.628 E3.15890
G1 X97.213 Y105.900 E3.16780
G1 X97.196 Y106.172 E3.17670
G1 X97.146 Y106.440 E3.18560
G1 X97.064 Y106.699 E3.19450
G1 X96.950 Y106.947 E3.20340
G1 X96.806 Y107.179 E3.21230
G1 X96.635 Y107.391 E3.22120
G1 X96.440 Y107.581 E3.23010
G1 X96.222 Y107.745 E3.23899
G1 X95.986 Y107.881 E3.24789
G1 X95.736 Y107.987 E3.25679
G1 X95.473 Y108.062 E3.26569
G1 X95.204 Y108.104 E3.27459
G1 X94.932 Y108.112 E3.28349
G1 X94.661 Y108.087 E3.29239
G1 X94.394 Y108.029 E3.30129
G1 X94.137 Y107.938 E3.31019
G1 X93.893 Y107.817 E3.31909
G1 X93.666 Y107.666 E3.32798
G1 X93.459 Y107.489 E3.33688
G1 X93.303 Y107.317 E3.34448
G1 X93.118 Y107.065 E3.35467
G1 X92.990 Y106.825 E3.36357
G1 X92.891 Y106.571 E3.37247
G1 X92.825 Y106.307 E3.38137
G1 X92.796 Y106.076 E3.38897
G1 X92.791 Y105.764 E3.39916
G1 X92.825 Y105.493 E3.40806
G1 X92.881 Y105.268 E3.41566
G1 X92.990 Y104.975 E3.42585
G1 X93.118 Y104.735 E3.43475
G1 X93.276 Y104.513 E3.44364
G1 X93.459 Y104.311 E3.45254
G1 X93.666 Y104.134 E3.46144
G1 X93.860 Y104.005 E3.46904
G1 X94.137 Y103.862 E3.47923
G1 X94.394 Y103.771 E3.48813
G1 X94.661 Y103.713 E3.49703
G1 X95.071 Y103.692 E3.51045
G1 X95.342 Y103.438 F12000.000
G1 F1800.000 E2.51045
G92 E0
G1 X82.265 Y127.359 F12000.000
G1 F1800.000 E1.00000
G1 X82.568 Y127.533 F1080.000 E1.01142
G1 X82.847 Y127.744 E1.02284
G1 X83.098 Y127.987 E1.03425
G1 X83.317 Y128.260 E1.04567
G1 X83.501 Y128.557 E1.05708
G1 X83.647 Y128.874 E1.06850
G1 X83.753 Y129.207 E1.07992
G1 X83.818 Y129.551 E1.09133
G1 X83.839 Y129.900 E1.10275
G1 X83.818 Y130.249 E1.11416
G1 X83.753 Y130.593 E1.12558
G1 X83.647 Y130.926 E1.13700
G1 X83.529 Y131.183 E1.14625
G1 X83.317 Y131.540 E1.15982
G1 X83.098 Y131.813 E1.17123
G1 X82.847 Y132.056 E1.18265
G1 X82.568 Y132.267 E1.19407
G1 X82.323 Y132.408 E1.20332
G1 X81.944 Y132.578 E1.21689
G1 X81.607 Y132.673 E1.22830
G1 X81.262 Y132.727 E1.23971
G1 X80.913 Y132.738 E1.25113
G1 X80.564 Y132.706 E1.26255
G1 X80.223 Y132.631 E1.27396
G1 X79.893 Y132.515 E1.28539
G1 X79.580 Y132.359 E1.29680
G1 X79.289 Y132.166 E1.30822
G1 X79.024 Y131.938 E1.31963
G1 X78.788 Y131.680 E1.33106
G1 X78.586 Y131.395 E1.34247
G1 X78.421 Y131.087 E1.35388
G1 X78.295 Y130.761 E1.36530
G1 X78.209 Y130.422 E1.37671
G1 X78.166 Y130.075 E1.38814
G1 X78.166 Y129.725 E1.39955
G1 X78.209 Y129.378 E1.41097
G1 X78.294 Y129.039 E1.42238
G1 X78.421 Y128.713 E1.43380
G1 X78.586 Y128.405 E1.44521
G1 X78.788 Y128.120 E1.45663
G1 X79.024 Y127.862 E1.46805
G1 X79.289 Y127.634 E1.47947
G1 X79.581 Y127.441 E1.49089
G1 X79.893 Y127.285 E1.50230
G1 X80.223 Y127.169 E1.51372
G1 X80.564 Y127.094 E1.52513
G1 X80.913 Y127.062 E1.53655
G1 X81.262 Y127.073 E1.54797
G1 X81.608 Y127.127 E1.55939
G1 X81.944 Y127.222 E1.57080
G1 X82.179 Y127.322 E1.57915
G1 X81.961 Y127.908 F12000.000
G1 X82.222 Y128.055 F1080.000 E1.58896
G1 X82.440 Y128.219 E1.59786
G1 X82.635 Y128.409 E1.60675
G1 X82.806 Y128.621 E1.61565
G1 X82.950 Y128.853 E1.62455
G1 X83.064 Y129.101 E1.63345
G1 X83.146 Y129.360 E1.64235
G1 X83.196 Y129.628 E1.65125
G1 X83.213 Y129.900 E1.66015
G1 X83.196 Y130.172 E1.66905
G1 X83.146 Y130.440 E1.67794
G1 X83.064 Y130.699 E1.68684
G1 X82.950 Y130.947 E1.69574
G1 X82.821 Y131.155 E1.70373
G1 X82.635 Y131.391 E1.71353
G1 X82.440 Y131.581 E1.72243
G1 X82.222 Y131.745 E1.73133
G1 X81.986 Y131.881 E1.74023
G1 X81.761 Y131.976 E1.74822
G1 X81.473 Y132.062 E1.75802
G1 X81.204 Y132.104 E1.76692
G1 X80.932 Y132.112 E1.77582
G1 X80.661 Y132.087 E1.78472
G1 X80.394 Y132.029 E1.79362
G1 X80.137 Y131.938 E1.80252
G1 X79.893 Y131.817 E1.81142
G1 X79.666 Y131.666 E1.82031
G1 X79.459 Y131.489 E1.82921
G1 X79.276 Y131.287 E1.83811
G1 X79.118 Y131.065 E1.84701
G1 X78.990 Y130.825 E1.85591
G1 X78.891 Y130.571 E1.86481
G1 X78.825 Y130.307 E1.87371
G1 X78.791 Y130.036 E1.88261
G1 X78.791 Y129.764 E1.89151
G1 X78.825 Y129.493 E1.90041
G1 X78.891 Y129.229 E1.90931
G1 X78.990 Y128.975 E1.91821
G1 X79.118 Y128.735 E1.92710
G1 X79.276 Y128.513 E1.93600
G1 X79.459 Y128.311 E1.94490
G1 X79.666 Y128.134 E1.95380
G1 X79.894 Y127.983 E1.96270
G1 X80.137 Y127.862 E1.97160
G1 X80.394 Y127.771 E1.98050
G1 X80.660 Y127.713 E1.98939
G1 X80.932 Y127.688 E1.99830
G1 X81.204 Y127.696 E2.00719
G1 X81.474 Y127.738 E2.01610
G1 X81.874 Y127.872 E2.02990
G1 X82.210 Y127.740 F12000.000
G1 X88.163 Y126.063
G1 X101.837 Y126.063 F1080.000 E2.47651
G1 X101.837 Y133.737 E2.72716
G1 X88.163 Y133.737 E3.17378
G1 X88.163 Y126.156 E3.42137
G1 X88.788 Y126.688 F12000.000
G1 X101.212 Y126.688 F1080.000 E3.82717
G1 X101.212 Y133.112 E4.03700
G1 X88.788 Y133.112 E4.44280
G1 X88.788 Y126.781 E4.64958
G1 X88.788 Y126.063 F12000.000
G1 X114.063 Y110.837
G1 X114.063 Y148.963 F1080.000 E5.89475
G1 X75.937 Y148.963 E7.13992
G1 X75.937 Y110.837 E8.38509
G1 X81.012 Y110.837 E8.55084
G1 X81.572 Y110.823 E8.56914
G1 X82.143 Y110.778 E8.58784
G1 X82.711 Y110.703 E8.60654
G1 X83.274 Y110.599 E8.62525
G1 X83.831 Y110.465 E8.64395
G1 X84.380 Y110.302 E8.66265
G1 X84.920 Y110.111 E8.68135
G1 X85.449 Y109.892 E8.70005
G1 X85.966 Y109.646 E8.71876
G1 X86.469 Y109.372 E8.73746
G1 X86.957 Y109.073 E8.75616
G1 X87.429 Y108.749 E8.77486
G1 X87.827 Y108.443 E8.79127
G1 X88.319 Y108.028 E8.81226
G1 X88.734 Y107.634 E8.83097
G1 X89.128 Y107.219 E8.84967
G1 X89.500 Y106.783 E8.86837
G1 X89.849 Y106.329 E8.88707
G1 X90.173 Y105.857 E8.90577
G1 X90.472 Y105.369 E8.92448
G1 X90.746 Y104.866 E8.94318
G1 X90.992 Y104.349 E8.96188
G1 X91.211 Y103.820 E8.98058
G1 X91.402 Y103.280 E8.99928
G1 X91.565 Y102.731 E9.01799
G1 X91.699 Y102.174 E9.03669
G1 X91.803 Y101.611 E9.05539
G1 X91.878 Y101.043 E9.07409
G1 X91.923 Y100.472 E9.09279
G1 X91.937 Y99.912 E9.11109
G1 X91.937 Y94.898 E9.27487
G1 X92.179 Y94.837 E9.28301
G1 X92.586 Y95.595 E9.31110
G1 X92.788 Y95.880 E9.32252
G1 X93.024 Y96.138 E9.33393
G1 X93.289 Y96.366 E9.34535
G1 X93.580 Y96.559 E9.35676
G1 X93.967 Y96.741 E9.37072
G1 X94.223 Y96.831 E9.37958
G1 X94.564 Y96.906 E9.39100
G1 X94.913 Y96.938 E9.40241
G1 X95.262 Y96.927 E9.41383
G1 X95.607 Y96.873 E9.42525
G1 X95.944 Y96.778 E9.43667
G1 X96.266 Y96.641 E9.44808
G1 X96.568 Y96.467 E9.45950
G1 X96.847 Y96.256 E9.47092
G1 X97.098 Y96.013 E9.48233
G1 X97.317 Y95.740 E9.49375
G1 X97.857 Y94.868 E9.52724
