; generated by Slic3r 0.9.9 on 2013-09-29 at 15:41:52

; July 20, 2013:
; - Updated support material width to 50%
; 
; 
; Initial:
; Doubled the infill and perimeter speeds, trying this at 220

; layer_height = 0.25
; perimeters = 2
; top_solid_layers = 3
; bottom_solid_layers = 3
; fill_density = 0.1
; perimeter_speed = 60
; infill_speed = 100
; travel_speed = 200
; nozzle_diameter = 0.35
; filament_diameter = 2.92
; extrusion_multiplier = 1
; perimeters extrusion width = 0.39mm
; infill extrusion width = 0.39mm
; solid infill extrusion width = 0.39mm
; top infill extrusion width = 0.39mm
; first layer extrusion width = 0.70mm

G21 ; set units to millimeters
M107
M190 S70 ; wait for bed temperature to be reached
M104 S220 ; set temperature
G1 X30 Y30 F3000
G1 Z5 F5000 ; lift nozzle
M42 P5 S255 ; turn on the lights
M109 S220 ; wait for temperature to be reached
G90 ; use absolute coordinates
G92 E0
M82 ; use absolute distances for extrusion
G1 F1800.000 E-1.00000
G92 E0
G1 Z0.350 F12000.000
G1 X105.890 Y77.683
G1 F1800.000 E1.00000
G1 X106.330 Y77.323 F1080.000 E1.01857
G1 X106.800 Y77.003 E1.03714
G1 X107.290 Y76.733 E1.05541
G1 X107.800 Y76.503 E1.07368
G1 X108.330 Y76.313 E1.09207
G1 X108.880 Y76.163 E1.11069
G1 X109.440 Y76.073 E1.12921
G1 X110.000 Y76.023 E1.14758
G1 X130.550 Y76.023 E1.81874
G1 X131.080 Y76.063 E1.83610
G1 X131.340 Y76.103 E1.84469
G1 X132.120 Y76.283 E1.87083
G1 X132.630 Y76.453 E1.88839
G1 X133.120 Y76.653 E1.90568
G1 X133.590 Y76.903 E1.92306
G1 X134.260 Y77.343 E1.94924
G1 X134.870 Y77.863 E1.97542
G1 X135.240 Y78.253 E1.99298
G1 X135.580 Y78.663 E2.01037
G1 X136.020 Y79.333 E2.03655
G1 X136.270 Y79.803 E2.05394
G1 X136.470 Y80.293 E2.07122
G1 X136.640 Y80.803 E2.08878
G1 X136.820 Y81.583 E2.11493
G1 X136.860 Y81.843 E2.12352
G1 X136.900 Y82.373 E2.14088
G1 X136.900 Y124.913 E3.53023
G1 X136.850 Y125.473 E3.54859
G1 X136.760 Y126.033 E3.56712
G1 X136.530 Y126.843 E3.59462
G1 X136.320 Y127.363 E3.61293
G1 X135.920 Y128.113 E3.64069
G1 X135.600 Y128.573 E3.65900
G1 X135.250 Y129.013 E3.67736
G1 X134.860 Y129.423 E3.69584
G1 X134.440 Y129.793 E3.71412
G1 X93.870 Y162.513 E5.41637
G1 X93.650 Y162.683 E5.42545
G1 X93.180 Y162.993 E5.44384
G1 X92.690 Y163.273 E5.46227
G1 X92.440 Y163.393 E5.47132
G1 X91.920 Y163.603 E5.48964
G1 X91.100 Y163.833 E5.51745
G1 X90.550 Y163.923 E5.53566
G1 X89.990 Y163.973 E5.55402
G1 X59.450 Y163.973 E6.55145
G1 X58.920 Y163.933 E6.56881
G1 X58.660 Y163.893 E6.57740
G1 X57.880 Y163.713 E6.60355
G1 X57.370 Y163.543 E6.62111
G1 X56.880 Y163.343 E6.63839
G1 X56.410 Y163.093 E6.65578
G1 X55.740 Y162.653 E6.68196
G1 X55.130 Y162.133 E6.70814
G1 X54.760 Y161.743 E6.72569
G1 X54.420 Y161.333 E6.74309
G1 X53.980 Y160.663 E6.76927
G1 X53.730 Y160.193 E6.78665
G1 X53.530 Y159.703 E6.80394
G1 X53.360 Y159.193 E6.82150
G1 X53.180 Y158.413 E6.84764
G1 X53.140 Y158.153 E6.85623
G1 X53.100 Y157.623 E6.87359
G1 X53.100 Y127.073 E7.87135
G1 X53.190 Y126.233 E7.89895
G1 X53.240 Y125.963 E7.90791
G1 X53.380 Y125.423 E7.92613
G1 X53.680 Y124.633 E7.95373
G1 X53.930 Y124.133 E7.97199
G1 X54.230 Y123.653 E7.99048
G1 X54.560 Y123.203 E8.00870
G1 X54.930 Y122.783 E8.02698
G1 X55.330 Y122.393 E8.04523
G1 X105.820 Y77.745 E10.24648
G1 F1800.000 E9.24648
G92 E0
G1 X82.105 Y112.235 F12000.000
G1 F1800.000 E1.00000
G1 X82.354 Y112.433 F1080.000 E1.01038
G1 X82.568 Y112.668 E1.02075
G1 X82.741 Y112.935 E1.03113
G1 X82.867 Y113.226 E1.04151
G1 X82.944 Y113.534 E1.05189
G1 X82.967 Y113.812 E1.06100
G1 X82.967 Y121.311 E1.30592
G1 X85.761 Y121.311 E1.39716
G1 X86.057 Y121.337 E1.40687
G1 X86.384 Y121.425 E1.41792
G1 X86.690 Y121.568 E1.42897
G1 X86.968 Y121.762 E1.44001
G1 X87.207 Y122.001 E1.45106
G1 X87.401 Y122.278 E1.46211
G1 X87.544 Y122.585 E1.47316
G1 X87.631 Y122.912 E1.48421
G1 X87.657 Y123.208 E1.49392
G1 X87.631 Y123.694 E1.50983
G1 X87.544 Y124.021 E1.52088
G1 X87.401 Y124.328 E1.53193
G1 X87.207 Y124.605 E1.54298
G1 X86.968 Y124.844 E1.55403
G1 X86.690 Y125.038 E1.56507
G1 X86.384 Y125.181 E1.57612
G1 X86.057 Y125.268 E1.58718
G1 X85.761 Y125.294 E1.59688
G1 X78.165 Y125.294 E1.84496
G1 X78.104 Y125.538 E1.85314
G1 X79.708 Y126.395 E1.91254
G1 X80.677 Y126.962 E1.94920
G1 X81.622 Y127.568 E1.98586
G1 X82.543 Y128.210 E2.02252
G1 X83.438 Y128.887 E2.05919
G1 X84.306 Y129.599 E2.09585
G1 X85.145 Y130.345 E2.13251
G1 X85.971 Y131.139 E2.16992
G1 X86.242 Y131.450 E2.18339
G1 X86.480 Y131.814 E2.19761
G1 X86.667 Y132.207 E2.21183
G1 X86.799 Y132.622 E2.22604
G1 X86.873 Y133.051 E2.24026
G1 X86.888 Y133.486 E2.25448
G1 X86.843 Y133.919 E2.26870
G1 X86.740 Y134.342 E2.28291
G1 X86.581 Y134.747 E2.29713
G1 X86.367 Y135.126 E2.31135
G1 X86.104 Y135.473 E2.32557
G1 X85.796 Y135.781 E2.33979
G1 X85.450 Y136.044 E2.35400
G1 X85.070 Y136.257 E2.36822
G1 X84.665 Y136.417 E2.38244
G1 X84.242 Y136.520 E2.39666
G1 X83.809 Y136.564 E2.41087
G1 X83.374 Y136.550 E2.42509
G1 X82.419 Y136.385 E2.45675
G1 X82.887 Y137.053 E2.48340
G1 X83.237 Y137.636 E2.50560
G1 X83.546 Y138.242 E2.52780
G1 X83.811 Y138.867 E2.55000
G1 X84.032 Y139.510 E2.57220
G1 X84.208 Y140.167 E2.59440
G1 X84.338 Y140.834 E2.61660
G1 X84.421 Y141.508 E2.63880
G1 X84.456 Y142.187 E2.66099
G1 X84.445 Y142.867 E2.68319
G1 X84.385 Y143.544 E2.70539
G1 X84.279 Y144.215 E2.72759
G1 X84.126 Y144.877 E2.74979
G1 X83.927 Y145.527 E2.77199
G1 X83.684 Y146.162 E2.79419
G1 X83.368 Y146.830 E2.81833
G1 X83.067 Y147.372 E2.83858
G1 X82.697 Y147.942 E2.86078
G1 X82.249 Y148.530 E2.88492
G1 X81.842 Y148.998 E2.90517
G1 X81.361 Y149.479 E2.92737
G1 X80.848 Y149.925 E2.94957
G1 X80.305 Y150.334 E2.97177
G1 X79.735 Y150.704 E2.99397
G1 X79.141 Y151.034 E3.01617
G1 X78.525 Y151.321 E3.03837
G1 X77.890 Y151.564 E3.06057
G1 X77.240 Y151.763 E3.08276
G1 X76.578 Y151.916 E3.10496
G1 X75.907 Y152.022 E3.12717
G1 X75.230 Y152.082 E3.14936
G1 X74.550 Y152.093 E3.17156
G1 X73.871 Y152.058 E3.19376
G1 X73.197 Y151.975 E3.21596
G1 X72.530 Y151.845 E3.23815
G1 X71.873 Y151.669 E3.26035
G1 X71.230 Y151.448 E3.28255
G1 X70.605 Y151.183 E3.30475
G1 X69.999 Y150.874 E3.32695
G1 X69.416 Y150.524 E3.34915
G1 X68.719 Y150.036 E3.37694
G1 X68.900 Y150.903 E3.40586
G1 X68.929 Y151.337 E3.42008
G1 X68.900 Y151.772 E3.43430
G1 X68.811 Y152.198 E3.44852
G1 X68.665 Y152.608 E3.46273
G1 X68.465 Y152.995 E3.47695
G1 X68.214 Y153.350 E3.49117
G1 X67.917 Y153.668 E3.50538
G1 X67.579 Y153.943 E3.51961
G1 X67.207 Y154.169 E3.53382
G1 X66.808 Y154.343 E3.54804
G1 X66.388 Y154.460 E3.56226
G1 X65.957 Y154.519 E3.57647
G1 X65.522 Y154.519 E3.59070
G1 X65.091 Y154.460 E3.60491
G1 X64.672 Y154.343 E3.61912
G1 X64.272 Y154.169 E3.63335
G1 X63.900 Y153.943 E3.64756
G1 X63.563 Y153.668 E3.66178
G1 X63.266 Y153.350 E3.67600
G1 X63.015 Y152.994 E3.69021
G1 X62.814 Y152.608 E3.70443
G1 X62.653 Y152.122 E3.72116
G1 X62.580 Y151.772 E3.73285
G1 X62.550 Y151.337 E3.74706
G1 X62.580 Y150.903 E3.76128
G1 X62.669 Y150.477 E3.77550
G1 X62.814 Y150.067 E3.78972
G1 X63.014 Y149.680 E3.80393
G1 X63.266 Y149.324 E3.81815
G1 X63.563 Y149.006 E3.83237
G1 X63.900 Y148.732 E3.84659
G1 X64.272 Y148.505 E3.86081
G1 X64.672 Y148.332 E3.87502
G1 X65.091 Y148.214 E3.88924
G1 X66.035 Y148.085 E3.92036
G1 X65.377 Y147.589 E3.94724
G1 X64.864 Y147.143 E3.96944
G1 X64.384 Y146.663 E3.99164
G1 X63.938 Y146.150 E4.01384
G1 X63.529 Y145.607 E4.03604
G1 X63.130 Y144.985 E4.06018
G1 X62.829 Y144.442 E4.08043
G1 X62.542 Y143.826 E4.10263
G1 X62.298 Y143.192 E4.12483
G1 X62.086 Y142.484 E4.14897
G1 X61.946 Y141.880 E4.16922
G1 X61.840 Y141.208 E4.19142
G1 X61.781 Y140.531 E4.21362
G1 X61.769 Y139.852 E4.23582
G1 X61.805 Y139.173 E4.25802
G1 X61.887 Y138.498 E4.28022
G1 X62.017 Y137.831 E4.30242
G1 X62.193 Y137.174 E4.32462
G1 X62.414 Y136.532 E4.34681
G1 X62.680 Y135.906 E4.36901
G1 X62.988 Y135.300 E4.39121
G1 X63.339 Y134.718 E4.41341
G1 X63.766 Y134.115 E4.43755
G1 X64.156 Y133.633 E4.45781
G1 X64.620 Y133.136 E4.48000
G1 X65.117 Y132.672 E4.50220
G1 X65.645 Y132.245 E4.52440
G1 X66.202 Y131.855 E4.54660
G1 X66.784 Y131.505 E4.56880
G1 X67.390 Y131.196 E4.59100
G1 X68.016 Y130.930 E4.61320
G1 X68.658 Y130.709 E4.63540
G1 X69.315 Y130.533 E4.65759
G1 X69.982 Y130.403 E4.67979
G1 X70.657 Y130.321 E4.70199
G1 X71.335 Y130.285 E4.72419
G1 X72.074 Y130.302 E4.74833
G1 X72.692 Y130.356 E4.76858
G1 X73.363 Y130.463 E4.79078
G1 X74.026 Y130.615 E4.81298
G1 X74.806 Y130.854 E4.83964
G1 X74.354 Y129.996 E4.87130
G1 X74.206 Y129.587 E4.88551
G1 X74.114 Y129.162 E4.89973
G1 X74.082 Y128.728 E4.91395
G1 X74.108 Y128.293 E4.92817
G1 X74.194 Y127.866 E4.94238
G1 X74.372 Y127.386 E4.95911
G1 X74.535 Y127.067 E4.97080
G1 X74.783 Y126.710 E4.98502
G1 X75.078 Y126.390 E4.99924
G1 X75.414 Y126.113 E5.01345
G1 X76.405 Y125.501 E5.05150
G1 X76.347 Y125.294 E5.05850
G1 X70.240 Y125.294 E5.25793
G1 X69.947 Y125.269 E5.26753
G1 X69.624 Y125.183 E5.27847
G1 X69.320 Y125.043 E5.28940
G1 X69.044 Y124.853 E5.30033
G1 X68.806 Y124.618 E5.31126
G1 X68.611 Y124.346 E5.32219
G1 X68.466 Y124.044 E5.33313
G1 X68.375 Y123.722 E5.34406
G1 X68.340 Y123.389 E5.35499
G1 X68.364 Y123.056 E5.36592
G1 X68.444 Y122.731 E5.37685
G1 X68.579 Y122.424 E5.38779
G1 X68.765 Y122.146 E5.39872
G1 X68.967 Y121.933 E5.40832
G1 X79.775 Y112.374 E5.87956
G1 X79.999 Y112.207 E5.88867
G1 X80.281 Y112.061 E5.89905
G1 X80.583 Y111.962 E5.90943
G1 X80.897 Y111.915 E5.91981
G1 X81.215 Y111.919 E5.93018
G1 X81.528 Y111.975 E5.94056
G1 X81.827 Y112.082 E5.95094
G1 X82.023 Y112.190 E5.95825
G1 X81.758 Y112.757 F12000.000
G1 X81.926 Y112.891 F756.000 E5.96528
G1 X82.071 Y113.050 E5.97230
G1 X82.188 Y113.231 E5.97933
G1 X82.274 Y113.428 E5.98635
G1 X82.326 Y113.636 E5.99337
G1 X82.342 Y113.838 E5.99998
G1 X82.342 Y121.235 E6.24157
G1 X82.385 Y121.483 E6.24980
G1 X82.504 Y121.690 E6.25758
G1 X82.589 Y121.774 E6.26149
G1 X82.795 Y121.894 E6.26927
G1 X82.911 Y121.925 E6.27318
G1 X85.734 Y121.936 E6.36538
G1 X85.948 Y121.955 E6.37241
G1 X86.169 Y122.014 E6.37989
G1 X86.377 Y122.111 E6.38736
G1 X86.564 Y122.242 E6.39484
G1 X86.726 Y122.404 E6.40232
G1 X86.858 Y122.592 E6.40980
G1 X86.954 Y122.799 E6.41728
G1 X87.014 Y123.021 E6.42476
G1 X87.032 Y123.235 E6.43179
G1 X87.014 Y123.585 E6.44324
G1 X86.954 Y123.806 E6.45072
G1 X86.858 Y124.014 E6.45820
G1 X86.726 Y124.201 E6.46568
G1 X86.564 Y124.363 E6.47315
G1 X86.377 Y124.495 E6.48063
G1 X86.169 Y124.591 E6.48811
G1 X85.948 Y124.651 E6.49559
G1 X85.734 Y124.669 E6.50262
G1 X70.267 Y124.669 E7.00775
G1 X70.055 Y124.651 E7.01470
G1 X69.836 Y124.593 E7.02210
G1 X69.630 Y124.498 E7.02950
G1 X69.444 Y124.370 E7.03690
G1 X69.283 Y124.211 E7.04430
G1 X69.151 Y124.026 E7.05170
G1 X69.052 Y123.822 E7.05910
G1 X68.991 Y123.604 E7.06650
G1 X68.968 Y123.379 E7.07390
G1 X68.983 Y123.153 E7.08129
G1 X69.038 Y122.933 E7.08869
G1 X69.129 Y122.726 E7.09609
G1 X69.255 Y122.537 E7.10349
G1 X69.401 Y122.383 E7.11045
G1 X80.170 Y112.859 E7.57996
G1 X80.332 Y112.738 E7.58657
G1 X80.523 Y112.639 E7.59359
G1 X80.728 Y112.573 E7.60062
G1 X80.940 Y112.540 E7.60764
G1 X81.155 Y112.543 E7.61467
G1 X81.367 Y112.581 E7.62169
G1 X81.570 Y112.653 E7.62871
G1 X81.676 Y112.712 E7.63268
G1 X81.953 Y112.667 F12000.000
G1 X92.233 Y122.001
G1 X92.472 Y121.762 F1080.000 E7.64373
G1 X92.750 Y121.568 E7.65478
G1 X93.056 Y121.425 E7.66583
G1 X93.383 Y121.337 E7.67688
G1 X93.679 Y121.311 E7.68658
G1 X103.321 Y121.311 E8.00149
G1 X103.617 Y121.337 E8.01119
G1 X103.944 Y121.425 E8.02224
G1 X104.250 Y121.568 E8.03329
G1 X104.528 Y121.762 E8.04434
G1 X104.767 Y122.001 E8.05539
G1 X104.961 Y122.278 E8.06644
G1 X105.104 Y122.585 E8.07749
G1 X105.191 Y122.912 E8.08854
G1 X105.217 Y123.208 E8.09825
G1 X105.217 Y128.706 E8.27781
G1 X116.508 Y128.706 E8.64656
G1 X116.787 Y128.729 E8.65570
G1 X117.095 Y128.806 E8.66609
G1 X117.387 Y128.933 E8.67649
G1 X117.654 Y129.106 E8.68688
G1 X117.890 Y129.320 E8.69727
G1 X118.087 Y129.570 E8.70767
G1 X118.240 Y129.849 E8.71806
G1 X118.346 Y130.149 E8.72846
G1 X118.402 Y130.463 E8.73885
G1 X118.405 Y130.781 E8.74925
G1 X118.357 Y131.095 E8.75964
G1 X118.257 Y131.398 E8.77003
G1 X118.110 Y131.680 E8.78043
G1 X117.918 Y131.934 E8.79082
G1 X117.716 Y132.127 E8.79996
G1 X94.905 Y150.525 E9.75708
G1 X94.660 Y150.690 E9.76672
G1 X94.354 Y150.826 E9.77768
G1 X94.028 Y150.908 E9.78863
G1 X93.694 Y150.933 E9.79959
G1 X93.360 Y150.899 E9.81054
G1 X93.037 Y150.809 E9.82149
G1 X92.735 Y150.664 E9.83245
G1 X92.461 Y150.469 E9.84341
G1 X92.226 Y150.231 E9.85436
G1 X92.035 Y149.955 E9.86532
G1 X91.894 Y149.650 E9.87627
G1 X91.808 Y149.326 E9.88723
G1 X91.783 Y149.032 E9.89685
G1 X91.783 Y123.208 E10.74028
G1 X91.809 Y122.912 E10.74999
G1 X91.896 Y122.585 E10.76104
G1 X92.039 Y122.278 E10.77209
G1 X92.179 Y122.078 E10.78008
G1 X92.714 Y122.404 F12000.000
G1 X92.876 Y122.242 F756.000 E10.78756
G1 X93.063 Y122.111 E10.79504
G1 X93.271 Y122.014 E10.80252
G1 X93.492 Y121.955 E10.80999
G1 X93.706 Y121.936 E10.81702
G1 X103.294 Y121.936 E11.13015
G1 X103.508 Y121.955 E11.13718
G1 X103.729 Y122.014 E11.14466
G1 X103.937 Y122.111 E11.15213
G1 X104.124 Y122.242 E11.15961
G1 X104.286 Y122.404 E11.16709
G1 X104.418 Y122.592 E11.17457
G1 X104.514 Y122.799 E11.18205
G1 X104.574 Y123.021 E11.18953
G1 X104.592 Y123.235 E11.19656
G1 X104.592 Y128.629 E11.37274
G1 X104.604 Y128.762 E11.37709
G1 X104.686 Y128.986 E11.38488
G1 X104.839 Y129.169 E11.39266
G1 X104.937 Y129.237 E11.39657
G1 X105.161 Y129.319 E11.40435
G1 X105.294 Y129.331 E11.40871
G1 X116.482 Y129.331 E11.77413
G1 X116.684 Y129.347 E11.78075
G1 X116.893 Y129.400 E11.78778
G1 X117.091 Y129.486 E11.79482
G1 X117.272 Y129.603 E11.80185
G1 X117.431 Y129.748 E11.80889
G1 X117.564 Y129.917 E11.81593
G1 X117.668 Y130.106 E11.82296
G1 X117.740 Y130.309 E11.83000
G1 X117.777 Y130.521 E11.83703
G1 X117.780 Y130.736 E11.84407
G1 X117.747 Y130.949 E11.85110
G1 X117.680 Y131.154 E11.85814
G1 X117.580 Y131.345 E11.86518
G1 X117.450 Y131.517 E11.87221
G1 X117.303 Y131.656 E11.87883
G1 X94.534 Y150.022 E12.83424
G1 X94.356 Y150.141 E12.84122
G1 X94.149 Y150.233 E12.84863
G1 X93.929 Y150.289 E12.85605
G1 X93.702 Y150.305 E12.86346
G1 X93.476 Y150.283 E12.87087
G1 X93.258 Y150.222 E12.87829
G1 X93.053 Y150.124 E12.88571
G1 X92.868 Y149.992 E12.89312
G1 X92.709 Y149.830 E12.90053
G1 X92.579 Y149.644 E12.90795
G1 X92.484 Y149.437 E12.91536
G1 X92.426 Y149.218 E12.92278
G1 X92.408 Y149.005 E12.92975
G1 X92.408 Y123.235 E13.77141
G1 X92.426 Y123.021 E13.77844
G1 X92.486 Y122.799 E13.78592
G1 X92.582 Y122.592 E13.79340
G1 X92.660 Y122.481 E13.79781
G1 X92.642 Y122.187 F12000.000
G1 X84.721 Y130.804
G1 X85.518 Y131.570 F1080.000 E13.83392
G1 X85.743 Y131.828 E13.84510
G1 X85.934 Y132.121 E13.85653
G1 X86.085 Y132.436 E13.86795
G1 X86.191 Y132.770 E13.87938
G1 X86.250 Y133.115 E13.89080
G1 X86.258 Y133.499 E13.90335
G1 X86.226 Y133.812 E13.91364
G1 X86.143 Y134.152 E13.92507
G1 X86.015 Y134.478 E13.93649
G1 X85.823 Y134.810 E13.94905
G1 X85.632 Y135.061 E13.95934
G1 X85.385 Y135.309 E13.97076
G1 X85.106 Y135.520 E13.98219
G1 X84.801 Y135.692 E13.99361
G1 X84.476 Y135.820 E14.00504
G1 X84.136 Y135.903 E14.01647
G1 X83.788 Y135.938 E14.02789
G1 X83.438 Y135.927 E14.03932
G1 X83.093 Y135.867 E14.05074
G1 X82.760 Y135.761 E14.06217
G1 X82.444 Y135.611 E14.07359
G1 X82.151 Y135.419 E14.08502
G1 X81.242 Y134.567 E14.12572
G1 X80.572 Y133.972 E14.15501
G1 X79.878 Y133.403 E14.18430
G1 X79.163 Y132.861 E14.21359
G1 X78.428 Y132.349 E14.24288
G1 X77.672 Y131.865 E14.27216
G1 X76.899 Y131.412 E14.30145
G1 X76.096 Y130.982 E14.33119
G1 X75.807 Y130.810 E14.34216
G1 X75.534 Y130.591 E14.35359
G1 X75.294 Y130.337 E14.36501
G1 X75.090 Y130.052 E14.37644
G1 X74.927 Y129.743 E14.38787
G1 X74.808 Y129.414 E14.39929
G1 X74.734 Y129.072 E14.41072
G1 X74.708 Y128.723 E14.42214
G1 X74.729 Y128.374 E14.43357
G1 X74.798 Y128.031 E14.44499
G1 X74.929 Y127.670 E14.45755
G1 X75.072 Y127.389 E14.46784
G1 X75.272 Y127.102 E14.47926
G1 X75.509 Y126.844 E14.49069
G1 X75.779 Y126.622 E14.50211
G1 X76.076 Y126.438 E14.51354
G1 X76.430 Y126.287 E14.52609
G1 X76.732 Y126.200 E14.53638
G1 X77.079 Y126.150 E14.54781
G1 X77.429 Y126.147 E14.55923
