; generated by Slic3r 0.9.9 on 2013-10-01 at 11:10:17

; July 20, 2013:
; - Updated support material width to 50%
; 
; 
; Initial:
; Doubled the infill and perimeter speeds, trying this at 220

; layer_height = 0.25
; perimeters = 2
; top_solid_layers = 3
; bottom_solid_layers = 3
; fill_density = 0.1
; perimeter_speed = 60
; infill_speed = 100
; travel_speed = 200
; nozzle_diameter = 0.35
; filament_diameter = 2.92
; extrusion_multiplier = 1
; perimeters extrusion width = 0.39mm
; infill extrusion width = 0.39mm
; solid infill extrusion width = 0.39mm
; top infill extrusion width = 0.39mm
; support material extrusion width = 0.19mm
; first layer extrusion width = 0.70mm

G21 ; set units to millimeters
M107
M190 S85 ; wait for bed temperature to be reached
M104 S220 ; set temperature
G1 X30 Y30 F3000
G1 Z5 F5000 ; lift nozzle
M42 P5 S255 ; turn on the lights
M109 S220 ; wait for temperature to be reached
G90 ; use absolute coordinates
G92 E0
M82 ; use absolute distances for extrusion
G1 F1800.000 E-1.00000
G92 E0
G1 Z0.350 F12000.000
G1 X25.260 Y63.300
G1 F1800.000 E1.00000
G1 X26.060 Y63.020 F1080.000 E1.02768
G1 X26.620 Y62.890 E1.04646
G1 X27.460 Y62.770 E1.07417
G1 X28.030 Y62.750 E1.09280
G1 X151.750 Y62.750 E5.13349
G1 X152.320 Y62.770 E5.15212
G1 X152.880 Y62.840 E5.17055
G1 X153.710 Y63.020 E5.19829
G1 X154.240 Y63.190 E5.21646
G1 X155.020 Y63.530 E5.24425
G1 X155.520 Y63.810 E5.26297
G1 X156.220 Y64.290 E5.29069
G1 X156.650 Y64.650 E5.30901
G1 X157.050 Y65.050 E5.32748
G1 X157.420 Y65.480 E5.34601
G1 X158.510 Y66.960 E5.40604
G1 X158.950 Y67.700 E5.43416
G1 X159.190 Y68.220 E5.45286
G1 X159.390 Y68.760 E5.47167
G1 X159.550 Y69.310 E5.49038
G1 X159.700 Y70.160 E5.51857
G1 X159.730 Y70.450 E5.52809
G1 X159.750 Y71.020 E5.54672
G1 X159.750 Y169.990 E8.77907
G1 X159.730 Y170.560 E8.79770
G1 X159.610 Y171.400 E8.82541
G1 X159.480 Y171.960 E8.84419
G1 X159.300 Y172.500 E8.86278
G1 X159.080 Y173.030 E8.88152
G1 X158.830 Y173.530 E8.89978
G1 X158.370 Y174.250 E8.92768
G1 X158.010 Y174.700 E8.94651
G1 X157.620 Y175.130 E8.96546
G1 X157.200 Y175.510 E8.98396
G1 X156.750 Y175.870 E9.00278
G1 X156.030 Y176.330 E9.03069
G1 X155.530 Y176.580 E9.04895
G1 X155.000 Y176.800 E9.06769
G1 X154.460 Y176.980 E9.08628
G1 X154.180 Y177.050 E9.09571
G1 X153.340 Y177.200 E9.12357
G1 X153.060 Y177.230 E9.13277
G1 X152.490 Y177.250 E9.15140
G1 X28.770 Y177.250 E13.19209
G1 X28.100 Y177.220 E13.21399
G1 X27.440 Y177.130 E13.23575
G1 X26.790 Y176.980 E13.25753
G1 X26.470 Y176.880 E13.26848
G1 X24.630 Y176.170 E13.33290
G1 X24.120 Y175.930 E13.35131
G1 X23.400 Y175.490 E13.37886
G1 X23.170 Y175.330 E13.38801
G1 X22.730 Y174.970 E13.40658
G1 X22.320 Y174.590 E13.42484
G1 X21.950 Y174.170 E13.44312
G1 X21.600 Y173.730 E13.46148
G1 X21.290 Y173.260 E13.47987
G1 X20.900 Y172.510 E13.50748
G1 X20.600 Y171.720 E13.53508
G1 X20.390 Y170.910 E13.56241
G1 X20.270 Y170.070 E13.59012
G1 X20.250 Y169.510 E13.60842
G1 X20.250 Y70.530 E16.84110
G1 X20.270 Y69.960 E16.85973
G1 X20.300 Y69.680 E16.86893
G1 X20.390 Y69.120 E16.88745
G1 X20.520 Y68.560 E16.90623
G1 X20.700 Y68.020 E16.92482
G1 X20.920 Y67.490 E16.94356
G1 X21.170 Y66.990 E16.96182
G1 X21.470 Y66.500 E16.98058
G1 X21.630 Y66.270 E16.98973
G1 X21.990 Y65.820 E17.00856
G1 X22.370 Y65.400 E17.02705
G1 X22.900 Y64.870 E17.05153
G1 X23.320 Y64.490 E17.07003
G1 X23.770 Y64.130 E17.08885
G1 X24.240 Y63.820 E17.10724
G1 X24.740 Y63.540 E17.12596
G1 X25.174 Y63.338 E17.14160
G1 X25.370 Y63.930 F12000.000
G1 X25.880 Y63.730 F1080.000 E17.15949
G1 X26.400 Y63.580 E17.17717
G1 X27.210 Y63.430 E17.20407
G1 X27.760 Y63.380 E17.22211
G1 X152.020 Y63.380 E21.28044
G1 X152.560 Y63.420 E21.29812
G1 X152.820 Y63.460 E21.30671
G1 X153.350 Y63.570 E21.32439
G1 X153.870 Y63.720 E21.34207
G1 X154.620 Y64.030 E21.36857
G1 X155.100 Y64.280 E21.38625
G1 X155.550 Y64.570 E21.40373
G1 X155.980 Y64.900 E21.42144
G1 X156.570 Y65.450 E21.44778
G1 X156.920 Y65.860 E21.46538
G1 X158.000 Y67.320 E21.52470
G1 X158.290 Y67.800 E21.54301
G1 X158.540 Y68.300 E21.56127
G1 X158.840 Y69.090 E21.58887
G1 X158.980 Y69.630 E21.60709
G1 X159.030 Y69.910 E21.61638
G1 X159.120 Y70.740 E21.64364
G1 X159.120 Y170.260 E24.89396
G1 X159.070 Y170.810 E24.91200
G1 X158.980 Y171.350 E24.92988
G1 X158.850 Y171.880 E24.94770
G1 X158.670 Y172.400 E24.96567
G1 X158.450 Y172.900 E24.98352
G1 X158.190 Y173.380 E25.00134
G1 X157.890 Y173.840 E25.01928
G1 X157.560 Y174.270 E25.03698
G1 X156.980 Y174.870 E25.06424
G1 X156.560 Y175.230 E25.08230
G1 X156.110 Y175.550 E25.10034
G1 X155.640 Y175.830 E25.11821
G1 X155.400 Y175.950 E25.12697
G1 X155.150 Y176.070 E25.13603
G1 X154.640 Y176.270 E25.15392
G1 X154.120 Y176.420 E25.17159
G1 X153.310 Y176.570 E25.19850
G1 X152.760 Y176.620 E25.21654
G1 X28.470 Y176.620 E29.27584
G1 X27.860 Y176.560 E29.29586
G1 X27.260 Y176.450 E29.31578
G1 X26.960 Y176.370 E29.32592
G1 X26.390 Y176.180 E29.34555
G1 X24.860 Y175.590 E29.39910
G1 X24.370 Y175.350 E29.41692
G1 X23.890 Y175.070 E29.43507
G1 X23.230 Y174.580 E29.46192
G1 X22.830 Y174.210 E29.47971
G1 X22.280 Y173.590 E29.50678
G1 X21.810 Y172.910 E29.53378
G1 X21.550 Y172.430 E29.55161
G1 X21.330 Y171.930 E29.56945
G1 X21.150 Y171.410 E29.58742
G1 X21.080 Y171.140 E29.59653
G1 X20.930 Y170.330 E29.62344
G1 X20.880 Y169.780 E29.64147
G1 X20.880 Y70.260 E32.89179
G1 X20.930 Y69.710 E32.90983
G1 X21.020 Y69.170 E32.92771
G1 X21.230 Y68.380 E32.95441
G1 X21.430 Y67.870 E32.97230
G1 X21.670 Y67.380 E32.99012
G1 X21.950 Y66.910 E33.00799
G1 X22.110 Y66.680 E33.01714
G1 X22.440 Y66.250 E33.03484
G1 X22.630 Y66.040 E33.04409
G1 X23.750 Y64.940 E33.09536
G1 X24.410 Y64.450 E33.12221
G1 X24.880 Y64.170 E33.14007
G1 X25.285 Y63.971 E33.15483
G1 F1800.000 E32.15483
G92 E0
G1 X28.033 Y70.000 F12000.000
G1 F1800.000 E1.00000
G1 X27.500 Y70.533 F1260.000 E1.02464
G1 X27.500 Y72.301 E1.08237
G1 X29.801 Y70.000 E1.18865
G1 X31.568 Y70.000 E1.24637
G1 X27.566 Y74.002 E1.43122
G1 X29.253 Y74.083 E1.48636
G1 X33.336 Y70.000 E1.67495
G1 X35.103 Y70.000 E1.73268
G1 X30.828 Y74.275 E1.93013
G1 X32.296 Y74.575 E1.97905
G1 X36.871 Y70.000 E2.19035
G1 X38.638 Y70.000 E2.24807
G1 X33.677 Y74.961 E2.47723
G1 X34.983 Y75.423 E2.52248
G1 X40.406 Y70.000 E2.77295
G1 X42.173 Y70.000 E2.83067
G1 X36.221 Y75.952 E3.10559
G1 X37.394 Y76.546 E3.14855
G1 X43.941 Y70.000 E3.45090
G1 X44.104 Y71.604 E3.50355
G1 X38.502 Y77.206 E3.76232
G1 X39.552 Y77.924 E3.80385
G1 X44.382 Y73.094 E4.02694
G1 X44.790 Y74.453 E4.07329
G1 X40.546 Y78.697 E4.26931
G1 X41.487 Y79.523 E4.31021
G1 X45.321 Y75.689 E4.48729
G1 X45.945 Y76.833 E4.52984
G1 X42.374 Y80.404 E4.69478
G1 X43.206 Y81.339 E4.73566
G1 X46.669 Y77.876 E4.89560
G1 X47.474 Y78.839 E4.93658
G1 X43.986 Y82.326 E5.09765
G1 X44.710 Y83.370 E5.13913
G1 X48.370 Y79.710 E5.30818
G1 X49.349 Y80.498 E5.34923
G1 X45.376 Y84.471 E5.53272
G1 X45.981 Y85.634 E5.57553
G1 X50.417 Y81.198 E5.78042
G1 X51.580 Y81.803 E5.82322
G1 X46.518 Y86.864 E6.05698
G1 X46.987 Y88.163 E6.10207
G1 X52.843 Y82.307 E6.37253
G1 X54.229 Y82.689 E6.41947
G1 X47.383 Y89.534 E6.73566
G1 X47.697 Y90.988 E6.78422
G1 X55.759 Y82.925 E7.15660
G1 X57.477 Y82.975 E7.21273
G1 X47.901 Y92.551 E7.65504
G1 X47.994 Y94.225 E7.70980
G1 X59.474 Y82.746 E8.24000
G1 X62.011 Y81.976 E8.32661
G1 X47.935 Y96.053 E8.97678
G1 X47.683 Y98.072 E9.04324
G1 X66.383 Y79.372 E9.90696
G1 F1800.000 E8.90696
G92 E0
G1 X66.453 Y82.836 F12000.000
G1 F1800.000 E1.00000
G1 X73.161 Y76.128 F1260.000 E1.30983
G1 F1800.000 E0.30983
G92 E0
G1 X70.088 Y77.434 F12000.000
G1 F1800.000 E1.00000
G1 X47.130 Y100.392 F1260.000 E2.06039
G1 F1800.000 E1.06039
G92 E0
G1 X46.123 Y103.166 F12000.000
G1 F1800.000 E1.00000
G1 X52.847 Y96.443 F1260.000 E1.31053
G1 X50.568 Y100.489 E1.46220
G1 X45.177 Y105.880 E1.71119
G1 F1800.000 E0.71119
G92 E0
G1 X49.146 Y103.678 F12000.000
G1 F1800.000 E1.00000
G1 X44.473 Y108.351 F1260.000 E1.21584
G1 X43.942 Y110.650 E1.29290
G1 X48.138 Y106.454 E1.48674
G1 X47.421 Y108.938 E1.57119
G1 X43.562 Y112.797 E1.74944
G1 X43.293 Y114.834 E1.81655
G1 X46.880 Y111.247 E1.98223
G1 X46.506 Y113.388 E2.05321
G1 X43.118 Y116.776 E2.20971
G1 X43.026 Y118.635 E2.27050
G1 X46.248 Y115.414 E2.41930
G1 X46.088 Y117.342 E2.48247
G1 X43.008 Y120.421 E2.62472
G1 X43.055 Y122.142 E2.68093
G1 X46.013 Y119.183 E2.81758
G1 X46.015 Y120.949 E2.87525
G1 X43.161 Y123.803 E3.00708
G1 X43.320 Y125.412 E3.05986
G1 X46.084 Y122.647 E3.18754
G1 X46.214 Y124.285 E3.24119
G1 X43.528 Y126.971 E3.36527
G1 X43.780 Y128.486 E3.41543
G1 X46.404 Y125.863 E3.53660
G1 X46.634 Y127.400 E3.58737
G1 X44.075 Y129.959 E3.70558
G1 X44.406 Y131.395 E3.75371
G1 X46.915 Y128.887 E3.86958
G1 X47.238 Y130.331 E3.91790
G1 X44.775 Y132.793 E4.03166
G1 X45.186 Y134.150 E4.07795
G1 X47.601 Y131.735 E4.18951
G1 X48.001 Y133.102 E4.23604
G1 X45.629 Y135.475 E4.34562
G1 X46.100 Y136.772 E4.39068
G1 X48.436 Y134.435 E4.49860
G1 X48.911 Y135.727 E4.54357
G1 X46.588 Y138.050 E4.65086
G1 X47.051 Y139.355 E4.69608
G1 X49.419 Y136.987 E4.80547
G1 X49.959 Y138.214 E4.84927
G1 X47.435 Y140.739 E4.96588
G1 X47.734 Y142.207 E5.01482
G1 X50.523 Y139.418 E5.14366
G1 X51.117 Y140.591 E5.18662
G1 X47.922 Y143.787 E5.33421
G1 X47.999 Y145.477 E5.38947
G1 X51.746 Y141.730 E5.56255
G1 X52.402 Y142.841 E5.60470
G1 X47.911 Y147.332 E5.81212
G1 X47.621 Y149.390 E5.88000
G1 X53.083 Y143.927 E6.13230
G1 X53.789 Y144.989 E6.17394
G1 X47.010 Y151.769 E6.48709
G1 X45.777 Y154.769 E6.59303
G1 X54.528 Y146.017 E6.99726
G1 X55.288 Y147.026 E7.03848
G1 X32.313 Y170.000 E8.09963
G1 X34.080 Y170.000 E8.15735
G1 X56.074 Y148.007 E9.17320
G1 X56.883 Y148.965 E9.21416
G1 X35.848 Y170.000 E10.18574
G1 F1800.000 E9.18574
G92 E0
G1 X36.769 Y163.776 F12000.000
G1 F1800.000 E1.00000
G1 X30.546 Y170.000 F1260.000 E1.28746
G1 X28.778 Y170.000 E1.34518
G1 X33.769 Y165.010 E1.57568
G1 X31.392 Y165.619 E1.65582
G1 X27.500 Y169.511 E1.83557
G1 X27.500 Y167.743 E1.89330
G1 X29.333 Y165.910 E1.97798
G1 F1800.000 E0.97798
G92 E0
G1 X44.056 Y168.862 F12000.000
G1 F1800.000 E1.00000
G1 X42.918 Y170.000 F1260.000 E1.05259
G1 X41.150 Y170.000 E1.11031
G1 X44.426 Y166.724 E1.26162
G1 X45.580 Y163.803 E1.36420
G1 X39.383 Y170.000 E1.65043
G1 X37.615 Y170.000 E1.70816
G1 X57.721 Y149.895 E2.63678
G1 X58.586 Y150.797 E2.67760
G1 X50.792 Y158.591 E3.03758
G1 X53.718 Y157.433 E3.14035
G1 X59.473 Y151.677 E3.40618
G1 X60.383 Y152.535 E3.44701
G1 X55.852 Y157.066 E3.65626
G1 X57.652 Y157.034 E3.71504
G1 X61.321 Y153.364 E3.88452
G1 X62.287 Y154.166 E3.92552
G1 X59.241 Y157.212 E4.06622
G1 X60.676 Y157.545 E4.11433
G1 X63.275 Y154.945 E4.23440
G1 X64.287 Y155.701 E4.27565
G1 X61.977 Y158.010 E4.38232
G1 X63.169 Y158.586 E4.42554
G1 X65.328 Y156.427 E4.52526
G1 X66.401 Y157.122 E4.56700
G1 X64.226 Y159.297 E4.66746
G1 X65.309 Y159.981 E4.70930
G1 X67.492 Y157.798 E4.81012
G1 X68.611 Y158.446 E4.85237
G1 X66.412 Y160.645 E4.95392
G1 X67.540 Y161.285 E4.99626
G1 X69.759 Y159.066 E5.09876
G1 X70.941 Y159.651 E5.14185
G1 X68.701 Y161.891 E5.24531
G1 X69.889 Y162.471 E5.28847
G1 X72.154 Y160.206 E5.39311
G1 X73.390 Y160.737 E5.43705
G1 X71.102 Y163.026 E5.54277
G1 X72.341 Y163.554 E5.58677
G1 X74.660 Y161.235 E5.69387
G1 X75.963 Y161.700 E5.73904
G1 X73.615 Y164.048 E5.84749
G1 X74.921 Y164.508 E5.89275
G1 X77.306 Y162.124 E6.00287
G1 X78.684 Y162.513 E6.04966
G1 X76.259 Y164.938 E6.16169
G1 X77.629 Y165.336 E6.20827
G1 X80.101 Y162.864 E6.32245
G1 X81.558 Y163.174 E6.37110
G1 X79.033 Y165.699 E6.48770
G1 X80.475 Y166.024 E6.53598
G1 X83.058 Y163.442 E6.65527
G1 X84.605 Y163.662 E6.70632
G1 X81.963 Y166.304 E6.82836
G1 X83.493 Y166.541 E6.87892
G1 X86.206 Y163.829 E7.00422
G1 X87.860 Y163.942 E7.05836
G1 X85.068 Y166.733 E7.18727
G1 X86.693 Y166.876 E7.24055
G1 X89.577 Y163.992 E7.37375
G1 X91.365 Y163.972 E7.43214
G1 X88.373 Y166.964 E7.57034
G1 X90.112 Y166.992 E7.62716
G1 X93.231 Y163.873 E7.77121
G1 X95.186 Y163.686 E7.83536
G1 X91.918 Y166.953 E7.98629
G1 X93.800 Y166.839 E8.04785
G1 X97.244 Y163.395 E8.20692
G1 X99.437 Y162.970 E8.27987
G1 X95.766 Y166.640 E8.44940
G1 X97.832 Y166.342 E8.51756
G1 X101.791 Y162.383 E8.70043
G1 X104.355 Y161.586 E8.78812
G1 X100.031 Y165.910 E8.98782
G1 X102.374 Y165.335 E9.06659
G1 X107.221 Y160.488 E9.29047
G1 F1800.000 E8.29047
G92 E0
G1 X110.609 Y158.867 F12000.000
G1 F1800.000 E1.00000
G1 X104.910 Y164.567 F1260.000 E1.26324
G1 X107.710 Y163.534 E1.36071
G1 X115.150 Y156.094 E1.70435
G1 F1800.000 E0.70435
G92 E0
G1 X114.967 Y159.811 F12000.000
G1 F1800.000 E1.00000
G1 X132.218 Y142.561 F1260.000 E1.79676
G1 X132.666 Y140.346 E1.87058
G1 X110.929 Y162.082 E2.87454
G1 F1800.000 E1.87454
G92 E0
G1 X118.846 Y157.700 F12000.000
G1 F1800.000 E1.00000
G1 X132.025 Y144.522 F1260.000 E1.60869
G1 X132.023 Y146.291 E1.66647
G1 X121.173 Y157.140 E2.16759
G1 X123.069 Y157.012 E2.22964
G1 X132.146 Y147.935 E2.64892
G1 X132.392 Y149.456 E2.69925
G1 X124.726 Y157.123 E3.05336
G1 X126.202 Y157.414 E3.10252
G1 X132.727 Y150.889 E3.40389
G1 X133.143 Y152.241 E3.45008
G1 X127.549 Y157.834 E3.70845
G1 X128.782 Y158.369 E3.75233
G1 X133.635 Y153.516 E3.97648
G1 X134.197 Y154.721 E4.01991
G1 X129.915 Y159.003 E4.21770
G1 X130.955 Y159.731 E4.25915
G1 X134.821 Y155.864 E4.43772
G1 X135.504 Y156.949 E4.47958
G1 X131.911 Y160.542 E4.64553
G1 X132.776 Y161.445 E4.68636
G1 X136.244 Y157.977 E4.84655
G1 X137.038 Y158.950 E4.88758
G1 X133.561 Y162.427 E5.04815
G1 X134.251 Y163.504 E5.08994
G1 X137.886 Y159.870 E5.25781
G1 X138.788 Y160.735 E5.29864
G1 X134.852 Y164.671 E5.48042
G1 X135.344 Y165.947 E5.52507
G1 X139.744 Y161.547 E5.72830
G1 X140.758 Y162.300 E5.76955
G1 X135.721 Y167.337 E6.00218
G1 X135.946 Y168.880 E6.05310
G1 X141.829 Y162.997 E6.32483
G1 X142.957 Y163.636 E6.36718
G1 X136.593 Y170.000 E6.66115
G1 X138.360 Y170.000 E6.71887
G1 X144.148 Y164.213 E6.98619
G1 X145.403 Y164.725 E7.03047
G1 X140.128 Y170.000 E7.27414
G1 X141.895 Y170.000 E7.33186
G1 X146.728 Y165.167 E7.55507
G1 X148.138 Y165.525 E7.60258
G1 X143.663 Y170.000 E7.80928
G1 X145.430 Y170.000 E7.86701
G1 X149.639 Y165.791 E8.06141
G1 X151.239 Y165.958 E8.11396
G1 X147.198 Y170.000 E8.30064
G1 X148.965 Y170.000 E8.35837
G1 X152.500 Y166.465 E8.52165
G1 X152.500 Y168.232 E8.57937
G1 X150.732 Y170.000 E8.66102
G1 X152.500 Y170.000 E8.71875
G1 F1800.000 E7.71875
G92 E0
G1 X126.104 Y145.140 F12000.000
G1 F1800.000 E1.00000
G1 X133.547 Y137.697 F1260.000 E1.34377
G1 F1800.000 E0.34377
G92 E0
G1 X134.566 Y134.910 F12000.000
G1 F1800.000 E1.00000
G1 X128.880 Y140.596 F1260.000 E1.26261
G1 X130.482 Y137.227 E1.38446
G1 X135.335 Y132.373 E1.60862
G1 F1800.000 E0.60862
G92 E0
G1 X131.594 Y134.348 F12000.000
G1 F1800.000 E1.00000
G1 X135.910 Y130.032 F1260.000 E1.19935
G1 X136.342 Y127.832 E1.27255
G1 X132.383 Y131.791 E1.45541
G1 X132.975 Y129.432 E1.53486
G1 X136.641 Y125.766 E1.70417
G1 X136.839 Y123.800 E1.76872
G1 X133.388 Y127.252 E1.92815
G1 X133.686 Y125.186 E1.99632
G1 X136.953 Y121.918 E2.14724
G1 X136.992 Y120.112 E2.20624
G1 X133.877 Y123.228 E2.35014
G1 X133.977 Y121.360 E2.41123
G1 X136.964 Y118.373 E2.54919
G1 X136.876 Y116.693 E2.60412
G1 X133.998 Y119.572 E2.73706
G1 X133.946 Y117.855 E2.79313
G1 X136.733 Y115.068 E2.92186
G1 X136.541 Y113.493 E2.97369
G1 X133.829 Y116.205 E3.09895
G1 X133.667 Y114.600 E3.15163
G1 X136.304 Y111.963 E3.27342
G1 X136.024 Y110.476 E3.32287
G1 X133.446 Y113.054 E3.44195
G1 X133.177 Y111.555 E3.49169
G1 X135.699 Y109.033 E3.60818
G1 X135.336 Y107.629 E3.65555
G1 X132.865 Y110.100 E3.76969
G1 X132.512 Y108.685 E3.81731
G1 X134.938 Y106.259 E3.92937
G1 X134.508 Y104.922 E3.97525
G1 X132.121 Y107.308 E4.08548
G1 X131.695 Y105.967 E4.13144
G1 X134.048 Y103.614 E4.24010
G1 X133.559 Y102.336 E4.28481
G1 X131.236 Y104.659 E4.39212
G1 X130.740 Y103.387 E4.43671
G1 X133.076 Y101.051 E4.54461
G1 X132.673 Y99.687 E4.59106
G1 X130.206 Y102.154 E4.70502
G1 X129.650 Y100.943 E4.74856
G1 X132.350 Y98.242 E4.87329
G1 X132.118 Y96.707 E4.92400
G1 X129.062 Y99.763 E5.06514
G1 X128.448 Y98.610 E5.10781
G1 X132.014 Y95.044 E5.27252
G1 X132.038 Y93.252 E5.33103
G1 X127.801 Y97.489 E5.52673
