; generated by Slic3r 0.9.9 on 2013-10-16 at 15:13:17

; July 20, 2013:
; - Updated support material width to 50%
; 
; 
; Initial:
; Doubled the infill and perimeter speeds, trying this at 220

; layer_height = 0.25
; perimeters = 2
; top_solid_layers = 3
; bottom_solid_layers = 3
; fill_density = 0.1
; perimeter_speed = 60
; infill_speed = 100
; travel_speed = 200
; nozzle_diameter = 0.35
; filament_diameter = 2.92
; extrusion_multiplier = 1
; perimeters extrusion width = 0.39mm
; infill extrusion width = 0.39mm
; solid infill extrusion width = 0.39mm
; top infill extrusion width = 0.39mm
; support material extrusion width = 0.19mm
; first layer extrusion width = 0.70mm

G21 ; set units to millimeters
M107
M190 S60 ; wait for bed temperature to be reached
M104 S220 ; set temperature
G1 X30 Y30 F3000
G1 Z5 F5000 ; lift nozzle
M42 P5 S255 ; turn on the lights
M109 S220 ; wait for temperature to be reached
G90 ; use absolute coordinates
G92 E0
M82 ; use absolute distances for extrusion
G1 F1800.000 E-1.00000
G92 E0
G1 Z0.350 F12000.000
G1 X52.761 Y102.216
G1 F1800.000 E1.00000
G1 X53.281 Y101.976 F1080.000 E1.01870
G1 X54.081 Y101.696 E1.04639
G1 X54.641 Y101.566 E1.06516
G1 X55.481 Y101.446 E1.09288
G1 X56.051 Y101.426 E1.11150
G1 X63.121 Y101.426 E1.34241
G1 X63.551 Y101.436 E1.35646
G1 X75.221 Y102.136 E1.73828
G1 X77.041 Y102.296 E1.79795
G1 X77.541 Y102.356 E1.81440
G1 X79.071 Y102.596 E1.86498
G1 X79.521 Y102.676 E1.87991
G1 X81.141 Y103.036 E1.93411
G1 X126.461 Y114.276 E3.45910
G1 X127.301 Y114.546 E3.48792
G1 X128.101 Y114.906 E3.51657
G1 X128.861 Y115.366 E3.54558
G1 X129.331 Y115.726 E3.56492
G1 X129.771 Y116.116 E3.58412
G1 X130.361 Y116.776 E3.61304
G1 X130.711 Y117.246 E3.63217
G1 X131.021 Y117.746 E3.65139
G1 X131.761 Y119.176 E3.70397
G1 X132.021 Y119.746 E3.72444
G1 X132.321 Y120.636 E3.75511
G1 X132.501 Y121.556 E3.78573
G1 X132.561 Y122.486 E3.81616
G1 X132.561 Y131.316 E4.10455
G1 X132.541 Y131.866 E4.12253
G1 X132.431 Y132.696 E4.14987
G1 X132.221 Y133.506 E4.17720
G1 X131.931 Y134.286 E4.20438
G1 X131.681 Y134.776 E4.22234
G1 X131.401 Y135.256 E4.24049
G1 X131.081 Y135.706 E4.25853
G1 X130.901 Y135.926 E4.26781
G1 X130.341 Y136.536 E4.29486
G1 X129.921 Y136.906 E4.31314
G1 X129.481 Y137.246 E4.33130
G1 X129.251 Y137.406 E4.34045
G1 X128.531 Y137.816 E4.36751
G1 X128.281 Y137.936 E4.37657
G1 X127.761 Y138.136 E4.39476
G1 X127.231 Y138.306 E4.41294
G1 X126.691 Y138.436 E4.43108
G1 X125.861 Y138.546 E4.45843
G1 X125.311 Y138.566 E4.47640
G1 X82.871 Y138.556 E5.86249
G1 X82.531 Y138.546 E5.87360
G1 X81.851 Y138.476 E5.89592
G1 X81.181 Y138.346 E5.91821
G1 X79.491 Y137.926 E5.97509
G1 X79.221 Y137.846 E5.98429
G1 X78.701 Y137.646 E6.00248
G1 X51.871 Y125.226 E6.96808
G1 X51.121 Y124.816 E6.99600
G1 X50.421 Y124.336 E7.02372
G1 X49.781 Y123.766 E7.05171
G1 X49.401 Y123.346 E7.07021
G1 X49.051 Y122.896 E7.08883
G1 X48.731 Y122.426 E7.10740
G1 X48.461 Y121.926 E7.12596
G1 X48.111 Y121.146 E7.15388
G1 X48.021 Y120.876 E7.16317
G1 X47.811 Y120.046 E7.19114
G1 X47.521 Y118.236 E7.25100
G1 X47.431 Y117.116 E7.28770
G1 X47.431 Y110.046 E7.51861
G1 X47.451 Y109.476 E7.53723
G1 X47.521 Y108.916 E7.55567
G1 X47.701 Y108.076 E7.58372
G1 X47.981 Y107.276 E7.61141
G1 X48.351 Y106.506 E7.63931
G1 X48.811 Y105.786 E7.66721
G1 X49.171 Y105.336 E7.68603
G1 X49.551 Y104.916 E7.70453
G1 X50.921 Y103.546 E7.76781
G1 X51.341 Y103.166 E7.78631
G1 X51.791 Y102.806 E7.80513
G1 X52.261 Y102.496 E7.82352
G1 X52.678 Y102.259 E7.83917
G1 X52.901 Y102.846 F12000.000
G1 X53.391 Y102.606 F1080.000 E7.85699
G1 X53.901 Y102.406 E7.87488
G1 X54.161 Y102.326 E7.88377
G1 X54.691 Y102.196 E7.90159
G1 X55.501 Y102.076 E7.92834
G1 X55.781 Y102.056 E7.93750
G1 X63.121 Y102.056 E8.17723
G1 X63.521 Y102.066 E8.19030
G1 X75.361 Y102.776 E8.57768
G1 X76.991 Y102.916 E8.63112
G1 X78.981 Y103.216 E8.69684
G1 X79.391 Y103.286 E8.71043
G1 X80.831 Y103.606 E8.75861
G1 X126.301 Y114.886 E10.28867
G1 X126.851 Y115.046 E10.30738
G1 X127.371 Y115.246 E10.32557
G1 X128.131 Y115.636 E10.35347
G1 X128.821 Y116.126 E10.38111
G1 X129.251 Y116.496 E10.39964
G1 X129.651 Y116.896 E10.41811
G1 X130.011 Y117.336 E10.43668
G1 X130.331 Y117.806 E10.45525
G1 X130.471 Y118.046 E10.46432
G1 X131.331 Y119.716 E10.52567
G1 X131.551 Y120.246 E10.54442
G1 X131.641 Y120.516 E10.55371
G1 X131.781 Y121.066 E10.57225
G1 X131.881 Y121.636 E10.59115
G1 X131.931 Y122.196 E10.60951
G1 X131.931 Y131.586 E10.91619
G1 X131.891 Y132.116 E10.93355
G1 X131.801 Y132.646 E10.95110
G1 X131.671 Y133.156 E10.96829
G1 X131.501 Y133.666 E10.98585
G1 X131.301 Y134.156 E11.00313
G1 X131.181 Y134.396 E11.01190
G1 X130.911 Y134.856 E11.02932
G1 X130.611 Y135.296 E11.04671
G1 X130.091 Y135.906 E11.07289
G1 X129.701 Y136.276 E11.09045
G1 X129.291 Y136.616 E11.10784
G1 X128.851 Y136.916 E11.12524
G1 X128.391 Y137.186 E11.14266
G1 X128.151 Y137.306 E11.15142
G1 X127.411 Y137.596 E11.17738
G1 X126.641 Y137.806 E11.20345
G1 X126.111 Y137.896 E11.22100
G1 X125.581 Y137.936 E11.23836
G1 X82.561 Y137.926 E12.64339
G1 X81.631 Y137.806 E12.67402
G1 X79.661 Y137.326 E12.74024
G1 X79.171 Y137.166 E12.75708
G1 X51.891 Y124.536 E13.73890
G1 X51.421 Y124.276 E13.75644
G1 X51.191 Y124.126 E13.76541
G1 X50.551 Y123.626 E13.79193
G1 X49.971 Y123.056 E13.81849
G1 X49.631 Y122.636 E13.83614
G1 X49.321 Y122.186 E13.85399
G1 X49.051 Y121.726 E13.87141
G1 X48.821 Y121.236 E13.88908
G1 X48.631 Y120.726 E13.90686
G1 X48.421 Y119.936 E13.93356
G1 X48.141 Y118.146 E13.99273
G1 X48.061 Y117.116 E14.02647
G1 X48.061 Y109.776 E14.26619
G1 X48.151 Y108.956 E14.29314
G1 X48.331 Y108.156 E14.31992
G1 X48.411 Y107.896 E14.32880
G1 X48.611 Y107.386 E14.34669
G1 X48.851 Y106.896 E14.36451
G1 X48.991 Y106.656 E14.37359
G1 X49.131 Y106.426 E14.38238
G1 X49.451 Y105.976 E14.40042
G1 X49.811 Y105.556 E14.41848
G1 X51.561 Y103.806 E14.49931
G1 X51.771 Y103.616 E14.50856
G1 X52.201 Y103.286 E14.52626
G1 X52.820 Y102.893 E14.55021
G1 F1800.000 E13.55021
G92 E0
G1 X54.681 Y110.054 F12000.000
G1 F1800.000 E1.00000
G1 X56.059 Y108.676 F1260.000 E1.06365
G1 X57.827 Y108.676 E1.12138
G1 X54.681 Y111.822 E1.26667
G1 X54.681 Y113.589 E1.32439
G1 X59.594 Y108.676 E1.55132
G1 X61.362 Y108.676 E1.60904
G1 X54.681 Y115.356 E1.91760
G1 X54.681 Y117.124 E1.97532
G1 X63.129 Y108.676 E2.36552
G1 X64.486 Y109.087 E2.41182
G1 X54.921 Y118.651 E2.85357
G1 X56.514 Y118.826 E2.90588
G1 X58.597 Y116.743 E3.00210
G1 X59.507 Y117.600 E3.04294
G1 X58.022 Y119.086 E3.11157
G1 X59.519 Y119.356 E3.16125
G1 X69.519 Y109.356 E3.62314
G1 X71.286 Y109.356 E3.68087
G1 X61.543 Y119.100 E4.13091
G1 F1800.000 E3.13091
G92 E0
G1 X61.005 Y116.103 F12000.000
G1 F1800.000 E1.00000
G1 X67.751 Y109.356 F1260.000 E1.31161
G1 X65.984 Y109.356 E1.36934
G1 X60.148 Y115.192 E1.63888
G1 F1800.000 E0.63888
G92 E0
G1 X67.107 Y118.838 F12000.000
G1 F1800.000 E1.00000
G1 X68.515 Y117.430 F1260.000 E1.06504
G1 X67.967 Y116.210 E1.10871
G1 X65.351 Y118.826 E1.22956
G1 X63.584 Y118.826 E1.28728
G1 X73.054 Y109.356 E1.72470
G1 X74.793 Y109.384 E1.78152
G1 X69.027 Y115.150 E2.04788
G1 X70.244 Y115.701 E2.09151
G1 X76.424 Y109.521 E2.37695
G1 X77.955 Y109.757 E2.42756
G1 X68.356 Y119.356 E2.87094
G1 X70.123 Y119.356 E2.92867
G1 X79.399 Y110.080 E3.35711
G1 X80.766 Y110.481 E3.40363
G1 X72.421 Y118.826 E3.78910
G1 X74.167 Y118.847 E3.84615
G1 X82.062 Y110.953 E4.21077
G1 X83.296 Y111.486 E4.25467
G1 X75.586 Y119.196 E4.61078
G1 X76.697 Y119.852 E4.65293
G1 X84.472 Y112.077 E5.01205
G1 X85.589 Y112.728 E5.05426
G1 X77.570 Y120.746 E5.42461
G1 X78.202 Y121.882 E5.46706
G1 X86.655 Y113.429 E5.85750
G1 X87.670 Y114.182 E5.89876
G1 X78.519 Y123.333 E6.32142
G1 X78.530 Y125.089 E6.37878
G1 X88.633 Y114.986 E6.84543
G1 X89.567 Y115.819 E6.88632
G1 X78.542 Y126.845 E7.39556
G1 X78.865 Y128.289 E7.44390
G1 X90.541 Y116.613 E7.98316
G1 X91.560 Y117.361 E8.02446
G1 X79.500 Y129.421 E8.58150
G1 X80.379 Y130.310 E8.62232
G1 X92.636 Y118.053 E9.18846
G1 X93.763 Y118.694 E9.23079
G1 X81.494 Y130.962 E9.79746
G1 X82.918 Y131.306 E9.84529
G1 X94.945 Y119.279 E10.40081
G1 X96.190 Y119.802 E10.44490
G1 X84.667 Y131.324 E10.97710
G1 X86.435 Y131.324 E11.03483
G1 X97.496 Y120.262 E11.54574
G1 X98.872 Y120.654 E11.59246
G1 X88.202 Y131.324 E12.08529
G1 X89.970 Y131.324 E12.14302
G1 X100.327 Y120.967 E12.62139
G1 X101.872 Y121.189 E12.67238
G1 X91.737 Y131.324 E13.14051
G1 X93.505 Y131.324 E13.19823
G1 X103.519 Y121.309 E13.66079
G1 X105.272 Y121.324 E13.71805
G1 X95.272 Y131.324 E14.17996
G1 X97.039 Y131.324 E14.23768
G1 X107.040 Y121.324 E14.69958
G1 X108.807 Y121.324 E14.75731
G1 X98.807 Y131.324 E15.21921
G1 X100.574 Y131.324 E15.27693
G1 X110.575 Y121.324 E15.73883
G1 X112.342 Y121.324 E15.79656
G1 X102.342 Y131.324 E16.25845
G1 X104.109 Y131.324 E16.31618
G1 X114.110 Y121.324 E16.77808
G1 X115.877 Y121.324 E16.83580
G1 X105.877 Y131.324 E17.29770
G1 X107.644 Y131.324 E17.35542
G1 X117.645 Y121.324 E17.81732
G1 X119.412 Y121.324 E17.87504
G1 X109.412 Y131.324 E18.33694
G1 X111.179 Y131.324 E18.39466
G1 X121.179 Y121.324 E18.85655
G1 X122.947 Y121.324 E18.91428
G1 X112.947 Y131.324 E19.37617
G1 X114.714 Y131.324 E19.43389
G1 X124.714 Y121.324 E19.89579
G1 X125.319 Y122.487 E19.93859
G1 X116.481 Y131.324 E20.34678
G1 X118.249 Y131.324 E20.40450
G1 X125.319 Y124.254 E20.73105
G1 X125.319 Y126.021 E20.78878
G1 X120.016 Y131.324 E21.03369
G1 X121.784 Y131.324 E21.09142
G1 X125.319 Y127.789 E21.25470
G1 X125.319 Y129.556 E21.31242
G1 X123.551 Y131.324 E21.39407
G1 X125.319 Y131.324 E21.45180
M106 S143
M104 S195 ; set temperature
G1 F1800.000 E20.45180
G92 E0
G1 Z0.600 F12000.000
G1 X61.599 Y116.665
G1 F1800.000 E1.00000
G1 X61.535 Y116.938 F3600.000 E1.00402
G1 X61.430 Y117.198 E1.00805
G1 X61.318 Y117.387 E1.01120
G1 X61.109 Y117.654 E1.01608
G1 X60.900 Y117.841 E1.02011
G1 X60.665 Y117.993 E1.02413
G1 X60.409 Y118.107 E1.02815
G1 X60.139 Y118.182 E1.03217
G1 X59.861 Y118.214 E1.03620
G1 X59.581 Y118.203 E1.04022
G1 X59.306 Y118.150 E1.04424
G1 X59.043 Y118.055 E1.04827
G1 X58.850 Y117.950 E1.05142
G1 X58.574 Y117.752 E1.05630
G1 X58.380 Y117.550 E1.06033
G1 X58.219 Y117.321 E1.06435
G1 X58.095 Y117.070 E1.06837
G1 X58.028 Y116.860 E1.07153
G1 X57.968 Y116.526 E1.07641
G1 X57.968 Y116.246 E1.08043
G1 X58.010 Y115.969 E1.08446
G1 X58.095 Y115.702 E1.08848
G1 X58.192 Y115.505 E1.09164
G1 X58.380 Y115.222 E1.09652
G1 X58.574 Y115.021 E1.10054
G1 X58.797 Y114.851 E1.10456
G1 X58.990 Y114.746 E1.10772
G1 X59.306 Y114.623 E1.11260
G1 X59.581 Y114.569 E1.11662
G1 X59.861 Y114.558 E1.12065
G1 X60.139 Y114.591 E1.12467
G1 X60.409 Y114.665 E1.12869
G1 X60.610 Y114.755 E1.13185
G1 X60.900 Y114.932 E1.13673
G1 X61.109 Y115.118 E1.14075
G1 X61.287 Y115.334 E1.14478
G1 X61.430 Y115.575 E1.14880
G1 X61.535 Y115.834 E1.15282
G1 X61.599 Y116.107 E1.15685
G1 X61.620 Y116.386 E1.16087
G1 X61.603 Y116.608 E1.16406
G1 X61.220 Y116.576 F12000.000
G1 X61.167 Y116.821 F3600.000 E1.16767
G1 X61.084 Y117.026 E1.17085
G1 X60.971 Y117.216 E1.17402
G1 X60.831 Y117.387 E1.17719
G1 X60.666 Y117.534 E1.18037
G1 X60.480 Y117.654 E1.18354
G1 X60.279 Y117.744 E1.18672
G1 X60.066 Y117.803 E1.18989
G1 X59.846 Y117.828 E1.19306
G1 X59.626 Y117.820 E1.19624
G1 X59.409 Y117.777 E1.19941
G1 X59.201 Y117.703 E1.20259
G1 X59.007 Y117.597 E1.20576
G1 X58.831 Y117.463 E1.20893
G1 X58.678 Y117.304 E1.21211
G1 X58.551 Y117.123 E1.21528
G1 X58.453 Y116.926 E1.21846
G1 X58.395 Y116.744 E1.22119
G1 X58.352 Y116.497 E1.22480
G1 X58.352 Y116.276 E1.22797
G1 X58.386 Y116.057 E1.23115
G1 X58.453 Y115.847 E1.23432
G1 X58.537 Y115.676 E1.23705
G1 X58.678 Y115.468 E1.24067
G1 X58.831 Y115.309 E1.24384
G1 X59.007 Y115.175 E1.24701
G1 X59.174 Y115.084 E1.24975
G1 X59.409 Y114.995 E1.25336
G1 X59.626 Y114.953 E1.25653
G1 X59.846 Y114.944 E1.25970
G1 X60.066 Y114.970 E1.26288
G1 X60.279 Y115.028 E1.26605
G1 X60.480 Y115.118 E1.26923
G1 X60.640 Y115.222 E1.27196
G1 X60.831 Y115.385 E1.27557
G1 X60.971 Y115.556 E1.27874
G1 X61.084 Y115.746 E1.28192
G1 X61.167 Y115.951 E1.28509
G1 X61.217 Y116.166 E1.28827
G1 X61.234 Y116.386 E1.29144
G1 X61.224 Y116.518 E1.29334
G1 X61.413 Y116.736 F12000.000
G1 X67.378 Y116.526
G1 X67.378 Y116.246 F3600.000 E1.29737
G1 X67.420 Y115.969 E1.30139
G1 X67.505 Y115.702 E1.30541
G1 X67.629 Y115.451 E1.30944
G1 X67.790 Y115.222 E1.31346
G1 X67.984 Y115.021 E1.31748
G1 X68.207 Y114.851 E1.32150
G1 X68.400 Y114.746 E1.32466
G1 X68.716 Y114.623 E1.32954
G1 X68.991 Y114.569 E1.33356
G1 X69.271 Y114.558 E1.33759
G1 X69.549 Y114.591 E1.34161
G1 X69.819 Y114.665 E1.34563
G1 X70.075 Y114.779 E1.34966
G1 X70.310 Y114.932 E1.35368
G1 X70.519 Y115.118 E1.35770
G1 X70.697 Y115.334 E1.36173
G1 X70.809 Y115.523 E1.36488
G1 X70.945 Y115.834 E1.36976
G1 X71.009 Y116.107 E1.37379
G1 X71.030 Y116.386 E1.37781
G1 X71.009 Y116.665 E1.38183
G1 X70.959 Y116.879 E1.38499
G1 X70.840 Y117.198 E1.38987
G1 X70.697 Y117.438 E1.39389
G1 X70.519 Y117.654 E1.39792
G1 X70.310 Y117.841 E1.40194
G1 X70.075 Y117.993 E1.40596
G1 X69.819 Y118.107 E1.40998
G1 X69.549 Y118.182 E1.41401
G1 X69.271 Y118.214 E1.41803
G1 X68.991 Y118.203 E1.42205
G1 X68.716 Y118.150 E1.42608
G1 X68.453 Y118.055 E1.43010
G1 X68.207 Y117.921 E1.43412
G1 X67.984 Y117.752 E1.43814
G1 X67.832 Y117.593 E1.44130
G1 X67.629 Y117.321 E1.44618
G1 X67.505 Y117.070 E1.45021
G1 X67.420 Y116.803 E1.45423
G1 X67.386 Y116.583 E1.45742
G1 X67.767 Y116.527 F12000.000
G1 X67.762 Y116.276 F3600.000 E1.46103
G1 X67.796 Y116.057 E1.46421
G1 X67.863 Y115.847 E1.46738
G1 X67.947 Y115.676 E1.47011
G1 X68.088 Y115.468 E1.47372
G1 X68.241 Y115.309 E1.47690
G1 X68.417 Y115.175 E1.48007
G1 X68.584 Y115.084 E1.48281
G1 X68.819 Y114.995 E1.48642
G1 X69.036 Y114.953 E1.48959
G1 X69.256 Y114.944 E1.49276
G1 X69.476 Y114.970 E1.49594
G1 X69.689 Y115.028 E1.49911
G1 X69.890 Y115.118 E1.50229
G1 X70.076 Y115.239 E1.50546
G1 X70.241 Y115.385 E1.50863
G1 X70.381 Y115.556 E1.51181
G1 X70.494 Y115.746 E1.51498
G1 X70.565 Y115.922 E1.51771
G1 X70.627 Y116.166 E1.52133
G1 X70.644 Y116.386 E1.52450
G1 X70.627 Y116.606 E1.52767
G1 X70.584 Y116.792 E1.53041
G1 X70.494 Y117.026 E1.53402
G1 X70.381 Y117.216 E1.53719
G1 X70.241 Y117.387 E1.54036
G1 X70.076 Y117.534 E1.54354
G1 X69.890 Y117.654 E1.54671
G1 X69.689 Y117.744 E1.54989
G1 X69.476 Y117.803 E1.55306
G1 X69.256 Y117.828 E1.55623
G1 X69.036 Y117.820 E1.55941
G1 X68.819 Y117.777 E1.56258
G1 X68.611 Y117.703 E1.56576
G1 X68.417 Y117.597 E1.56893
G1 X68.241 Y117.463 E1.57210
G1 X68.109 Y117.326 E1.57484
G1 X67.961 Y117.123 E1.57845
G1 X67.863 Y116.926 E1.58162
G1 X67.796 Y116.715 E1.58480
G1 X67.776 Y116.584 E1.58670
G1 X67.542 Y116.415 F12000.000
G1 F1800.000 E0.58670
G92 E0
G1 X124.742 Y121.901 F12000.000
G1 F1800.000 E1.00000
G1 X124.742 Y130.747 F3600.000 E1.12708
G1 X83.326 Y130.747 E1.72211
G1 X82.988 Y130.733 E1.72697
G1 X82.660 Y130.694 E1.73172
G1 X82.335 Y130.630 E1.73647
G1 X82.017 Y130.540 E1.74122
G1 X81.707 Y130.426 E1.74597
G1 X81.404 Y130.286 E1.75077
G1 X81.116 Y130.124 E1.75551
G1 X80.847 Y129.945 E1.76015
G1 X80.582 Y129.736 E1.76501
G1 X80.339 Y129.511 E1.76975
G1 X80.115 Y129.268 E1.77450
G1 X79.915 Y129.015 E1.77914
G1 X79.727 Y128.734 E1.78399
G1 X79.566 Y128.446 E1.78874
G1 X79.428 Y128.146 E1.79349
G1 X79.316 Y127.843 E1.79812
G1 X79.224 Y127.518 E1.80298
G1 X79.159 Y127.194 E1.80773
G1 X79.121 Y126.866 E1.81247
G1 X79.107 Y126.524 E1.81738
G1 X79.107 Y123.604 E1.85934
G1 X79.091 Y123.194 E1.86523
G1 X79.042 Y122.775 E1.87129
G1 X78.959 Y122.362 E1.87734
G1 X78.845 Y121.957 E1.88340
G1 X78.699 Y121.561 E1.88945
G1 X78.523 Y121.179 E1.89550
G1 X78.317 Y120.811 E1.90156
G1 X78.113 Y120.505 E1.90684
G1 X77.822 Y120.130 E1.91366
G1 X77.536 Y119.820 E1.91972
G1 X77.226 Y119.534 E1.92577
G1 X76.896 Y119.273 E1.93183
G1 X76.545 Y119.039 E1.93788
G1 X76.178 Y118.833 E1.94393
G1 X75.795 Y118.657 E1.94999
G1 X75.399 Y118.511 E1.95604
G1 X74.994 Y118.397 E1.96210
G1 X74.289 Y118.256 E1.97243
G1 X74.289 Y118.270 E1.97262
G1 X73.752 Y118.249 E1.98033
G1 X71.116 Y118.249 E2.01821
G1 X70.421 Y118.779 E2.03076
G1 X67.981 Y118.779 E2.06582
G1 X67.286 Y118.249 E2.07838
