; generated by Slic3r 0.9.9 on 2013-09-29 at 13:18:44

; July 20, 2013:
; - Updated support material width to 50%
; 
; 
; Initial:
; Doubled the infill and perimeter speeds, trying this at 220

; layer_height = 0.25
; perimeters = 2
; top_solid_layers = 3
; bottom_solid_layers = 3
; fill_density = 0.1
; perimeter_speed = 60
; infill_speed = 100
; travel_speed = 200
; nozzle_diameter = 0.35
; filament_diameter = 2.92
; extrusion_multiplier = 1
; perimeters extrusion width = 0.39mm
; infill extrusion width = 0.39mm
; solid infill extrusion width = 0.39mm
; top infill extrusion width = 0.39mm
; first layer extrusion width = 0.70mm

G21 ; set units to millimeters
M107
M190 S70 ; wait for bed temperature to be reached
M104 S220 ; set temperature
G1 X30 Y30 F3000
G1 Z5 F5000 ; lift nozzle
M42 P5 S255 ; turn on the lights
M109 S220 ; wait for temperature to be reached
G90 ; use absolute coordinates
G92 E0
M82 ; use absolute distances for extrusion
G1 F1800.000 E-1.00000
G92 E0
G1 Z0.350 F12000.000
G1 X55.740 Y77.343
G1 F1800.000 E1.00000
G1 X56.180 Y77.043 F1080.000 E1.01739
G1 X56.640 Y76.773 E1.03481
G1 X56.880 Y76.653 E1.04358
G1 X57.620 Y76.363 E1.06953
G1 X58.390 Y76.153 E1.09560
G1 X58.920 Y76.063 E1.11316
G1 X59.450 Y76.023 E1.13052
G1 X79.990 Y76.023 E1.80135
G1 X80.830 Y76.113 E1.82894
G1 X81.380 Y76.233 E1.84733
G1 X81.660 Y76.313 E1.85684
G1 X82.190 Y76.503 E1.87523
G1 X82.950 Y76.863 E1.90269
G1 X83.190 Y77.003 E1.91177
G1 X83.660 Y77.323 E1.93034
G1 X84.100 Y77.683 E1.94891
G1 X134.670 Y122.393 E4.15347
G1 X135.260 Y122.983 E4.18072
G1 X135.610 Y123.423 E4.19908
G1 X135.930 Y123.883 E4.21738
G1 X136.200 Y124.373 E4.23566
G1 X136.430 Y124.893 E4.25423
G1 X136.620 Y125.423 E4.27261
G1 X136.760 Y125.963 E4.29083
G1 X136.850 Y126.513 E4.30904
G1 X136.900 Y127.073 E4.32740
G1 X136.900 Y157.623 E5.32516
G1 X136.860 Y158.153 E5.34252
G1 X136.710 Y158.943 E5.36878
G1 X136.560 Y159.453 E5.38614
G1 X136.270 Y160.193 E5.41210
G1 X136.020 Y160.663 E5.42949
G1 X135.580 Y161.333 E5.45567
G1 X135.240 Y161.743 E5.47306
G1 X134.870 Y162.133 E5.49062
G1 X134.260 Y162.653 E5.51680
G1 X133.590 Y163.093 E5.54298
G1 X133.120 Y163.343 E5.56036
G1 X132.380 Y163.633 E5.58632
G1 X131.870 Y163.783 E5.60368
G1 X131.080 Y163.933 E5.62995
G1 X130.550 Y163.973 E5.64731
G1 X99.990 Y163.973 E6.64539
G1 X99.430 Y163.923 E6.66376
G1 X98.870 Y163.833 E6.68228
G1 X98.060 Y163.603 E6.70978
G1 X97.800 Y163.503 E6.71888
G1 X97.290 Y163.273 E6.73715
G1 X96.800 Y162.993 E6.75558
G1 X96.560 Y162.843 E6.76483
G1 X96.110 Y162.513 E6.78305
G1 X55.560 Y129.793 E8.48479
G1 X54.940 Y129.223 E8.51230
G1 X54.390 Y128.573 E8.54010
G1 X54.230 Y128.343 E8.54925
G1 X53.940 Y127.863 E8.56757
G1 X53.680 Y127.363 E8.58598
G1 X53.470 Y126.843 E8.60429
G1 X53.240 Y126.033 E8.63179
G1 X53.150 Y125.473 E8.65032
G1 X53.100 Y124.913 E8.66868
G1 X53.100 Y82.373 E10.05803
G1 X53.140 Y81.843 E10.07539
G1 X53.290 Y81.053 E10.10166
G1 X53.530 Y80.293 E10.12769
G1 X53.730 Y79.803 E10.14497
G1 X53.850 Y79.563 E10.15373
G1 X54.120 Y79.103 E10.17115
G1 X54.420 Y78.663 E10.18855
G1 X54.590 Y78.453 E10.19737
G1 X55.130 Y77.863 E10.22349
G1 X55.667 Y77.402 E10.24661
G1 F1800.000 E9.24661
G92 E0
G1 X107.144 Y133.283 F12000.000
G1 F1800.000 E1.00000
G1 X107.723 Y132.795 F1080.000 E1.02476
G1 X108.333 Y132.343 E1.04952
G1 X108.969 Y131.931 E1.07428
G1 X109.629 Y131.559 E1.09903
G1 X110.311 Y131.228 E1.12380
G1 X111.013 Y130.941 E1.14855
G1 X111.731 Y130.697 E1.17331
G1 X112.405 Y130.515 E1.19612
G1 X113.205 Y130.347 E1.22283
G1 X113.956 Y130.241 E1.24759
G1 X114.712 Y130.183 E1.27234
G1 X115.470 Y130.171 E1.29710
G1 X116.167 Y130.203 E1.31991
G1 X116.980 Y130.288 E1.34662
G1 X117.727 Y130.418 E1.37138
G1 X118.465 Y130.593 E1.39613
G1 X119.190 Y130.814 E1.42089
G1 X119.844 Y131.058 E1.44370
G1 X120.593 Y131.388 E1.47041
G1 X121.264 Y131.739 E1.49516
G1 X121.862 Y132.101 E1.51797
G1 X122.536 Y132.564 E1.54468
G1 X123.130 Y133.034 E1.56944
G1 X123.695 Y133.540 E1.59420
G1 X124.227 Y134.081 E1.61896
G1 X124.724 Y134.653 E1.64371
G1 X125.148 Y135.207 E1.66652
G1 X125.607 Y135.884 E1.69323
G1 X125.989 Y136.539 E1.71799
G1 X126.330 Y137.216 E1.74275
G1 X126.629 Y137.913 E1.76751
G1 X126.863 Y138.571 E1.79031
G1 X127.092 Y139.355 E1.81702
G1 X127.256 Y140.096 E1.84178
G1 X127.374 Y140.845 E1.86654
G1 X127.444 Y141.599 E1.89129
G1 X127.468 Y142.357 E1.91605
G1 X127.444 Y143.115 E1.94081
G1 X127.374 Y143.870 E1.96557
G1 X127.256 Y144.618 E1.99033
G1 X127.092 Y145.359 E2.01509
G1 X126.883 Y146.087 E2.03985
G1 X126.629 Y146.801 E2.06461
G1 X126.330 Y147.498 E2.08937
G1 X125.989 Y148.175 E2.11412
G1 X125.607 Y148.830 E2.13888
G1 X125.185 Y149.459 E2.16364
G1 X124.724 Y150.061 E2.18840
G1 X124.227 Y150.634 E2.21316
G1 X123.695 Y151.174 E2.23792
G1 X123.130 Y151.680 E2.26268
G1 X122.535 Y152.150 E2.28744
G1 X121.913 Y152.582 E2.31219
G1 X121.264 Y152.975 E2.33695
G1 X120.645 Y153.298 E2.35976
G1 X119.900 Y153.635 E2.38647
G1 X119.190 Y153.901 E2.41123
G1 X118.465 Y154.121 E2.43598
G1 X117.727 Y154.297 E2.46075
G1 X116.980 Y154.426 E2.48550
G1 X116.227 Y154.508 E2.51026
G1 X115.469 Y154.543 E2.53502
G1 X114.771 Y154.532 E2.55783
G1 X113.956 Y154.473 E2.58454
G1 X113.205 Y154.367 E2.60929
G1 X112.462 Y154.215 E2.63405
G1 X111.731 Y154.017 E2.65881
G1 X111.069 Y153.793 E2.68162
G1 X110.311 Y153.486 E2.70832
G1 X109.629 Y153.156 E2.73308
G1 X108.969 Y152.783 E2.75784
G1 X108.333 Y152.371 E2.78260
G1 X107.723 Y151.919 E2.80736
G1 X107.144 Y151.431 E2.83212
G1 X106.595 Y150.908 E2.85688
G1 X106.080 Y150.351 E2.88164
G1 X105.601 Y149.764 E2.90639
G1 X105.159 Y149.148 E2.93115
G1 X104.757 Y148.506 E2.95591
G1 X104.395 Y147.839 E2.98067
G1 X104.075 Y147.152 E3.00543
G1 X103.820 Y146.502 E3.02824
G1 X103.567 Y145.725 E3.05494
G1 X103.380 Y144.990 E3.07970
G1 X103.239 Y144.245 E3.10446
G1 X103.145 Y143.493 E3.12922
G1 X103.098 Y142.736 E3.15398
G1 X103.098 Y141.978 E3.17874
G1 X103.145 Y141.221 E3.20350
G1 X103.239 Y140.469 E3.22825
G1 X103.380 Y139.724 E3.25301
G1 X103.567 Y138.990 E3.27777
G1 X103.799 Y138.268 E3.30253
G1 X104.075 Y137.562 E3.32729
G1 X104.395 Y136.875 E3.35205
G1 X104.757 Y136.209 E3.37681
G1 X105.159 Y135.566 E3.40157
G1 X105.601 Y134.950 E3.42632
G1 X106.080 Y134.363 E3.45108
G1 X106.595 Y133.806 E3.47584
G1 X107.076 Y133.348 E3.49754
G1 X107.532 Y133.776 F12000.000
G1 X108.111 Y133.285 F756.000 E3.52234
G1 X108.689 Y132.857 E3.54583
G1 X109.292 Y132.466 E3.56932
G1 X109.919 Y132.112 E3.59281
G1 X110.566 Y131.799 E3.61630
G1 X111.232 Y131.526 E3.63979
G1 X111.913 Y131.296 E3.66328
G1 X112.568 Y131.118 E3.68545
G1 X113.312 Y130.963 E3.71025
G1 X114.024 Y130.863 E3.73374
G1 X114.741 Y130.807 E3.75723
G1 X115.460 Y130.796 E3.78072
G1 X116.178 Y130.829 E3.80421
G1 X116.893 Y130.908 E3.82769
G1 X117.602 Y131.030 E3.85118
G1 X118.302 Y131.196 E3.87467
G1 X118.990 Y131.406 E3.89816
G1 X119.663 Y131.657 E3.92165
G1 X120.283 Y131.934 E3.94382
G1 X120.957 Y132.284 E3.96862
G1 X121.572 Y132.657 E3.99211
G1 X122.163 Y133.067 E4.01560
G1 X122.728 Y133.512 E4.03909
G1 X123.263 Y133.993 E4.06258
G1 X123.768 Y134.505 E4.08607
G1 X124.239 Y135.048 E4.10956
G1 X124.676 Y135.619 E4.13304
G1 X125.077 Y136.216 E4.15653
G1 X125.440 Y136.837 E4.18002
G1 X125.763 Y137.480 E4.20351
G1 X126.046 Y138.141 E4.22700
G1 X126.288 Y138.818 E4.25049
G1 X126.486 Y139.509 E4.27398
G1 X126.642 Y140.212 E4.29747
G1 X126.753 Y140.922 E4.32096
G1 X126.820 Y141.638 E4.34444
G1 X126.843 Y142.357 E4.36793
G1 X126.820 Y143.076 E4.39142
G1 X126.753 Y143.792 E4.41491
G1 X126.642 Y144.502 E4.43840
G1 X126.486 Y145.205 E4.46189
G1 X126.288 Y145.896 E4.48538
G1 X126.046 Y146.573 E4.50886
G1 X125.763 Y147.235 E4.53235
G1 X125.440 Y147.877 E4.55584
G1 X125.077 Y148.498 E4.57933
G1 X124.676 Y149.095 E4.60282
G1 X124.239 Y149.666 E4.62631
G1 X123.768 Y150.209 E4.64980
G1 X123.263 Y150.722 E4.67329
G1 X122.728 Y151.202 E4.69677
G1 X122.163 Y151.648 E4.72026
G1 X121.572 Y152.058 E4.74375
G1 X120.957 Y152.430 E4.76724
G1 X120.356 Y152.745 E4.78941
G1 X119.663 Y153.057 E4.81422
G1 X118.990 Y153.308 E4.83770
G1 X118.302 Y153.518 E4.86119
G1 X117.602 Y153.684 E4.88468
G1 X116.893 Y153.807 E4.90817
G1 X116.178 Y153.885 E4.93166
G1 X115.460 Y153.918 E4.95515
G1 X114.781 Y153.908 E4.97732
G1 X114.024 Y153.851 E5.00212
G1 X113.312 Y153.751 E5.02561
G1 X112.607 Y153.606 E5.04910
G1 X111.913 Y153.418 E5.07259
G1 X111.270 Y153.201 E5.09476
G1 X110.566 Y152.915 E5.11956
G1 X109.919 Y152.602 E5.14305
G1 X109.292 Y152.249 E5.16654
G1 X108.689 Y151.857 E5.19003
G1 X108.111 Y151.429 E5.21352
G1 X107.561 Y150.966 E5.23701
G1 X107.041 Y150.469 E5.26050
G1 X106.552 Y149.941 E5.28398
G1 X106.098 Y149.384 E5.30747
G1 X105.679 Y148.800 E5.33096
G1 X105.297 Y148.190 E5.35445
G1 X104.953 Y147.558 E5.37794
G1 X104.650 Y146.906 E5.40143
G1 X104.402 Y146.274 E5.42360
G1 X104.168 Y145.552 E5.44840
G1 X103.990 Y144.855 E5.47189
G1 X103.857 Y144.148 E5.49538
G1 X103.768 Y143.434 E5.51887
G1 X103.726 Y142.757 E5.54104
G1 X103.723 Y141.997 E5.56584
G1 X103.768 Y141.280 E5.58933
G1 X103.857 Y140.566 E5.61282
G1 X103.990 Y139.859 E5.63631
G1 X104.168 Y139.162 E5.65980
G1 X104.375 Y138.516 E5.68197
G1 X104.650 Y137.808 E5.70677
G1 X104.953 Y137.156 E5.73026
G1 X105.297 Y136.524 E5.75375
G1 X105.679 Y135.915 E5.77724
G1 X106.098 Y135.330 E5.80073
G1 X106.552 Y134.773 E5.82422
G1 X107.041 Y134.245 E5.84771
G1 X107.464 Y133.841 E5.86682
G1 X107.408 Y133.164 F12000.000
G1 F1800.000 E4.86682
G92 E0
G1 X125.321 Y152.398 F12000.000
G1 F1800.000 E1.00000
G1 X125.567 Y152.188 F1080.000 E1.01058
G1 X125.843 Y152.019 E1.02115
G1 X126.142 Y151.895 E1.03172
G1 X126.457 Y151.819 E1.04230
G1 X126.780 Y151.794 E1.05287
G1 X127.103 Y151.819 E1.06345
G1 X127.418 Y151.895 E1.07402
G1 X127.717 Y152.019 E1.08460
G1 X127.993 Y152.188 E1.09517
G1 X128.239 Y152.398 E1.10575
G1 X128.449 Y152.644 E1.11632
G1 X128.618 Y152.920 E1.12689
G1 X128.742 Y153.219 E1.13747
G1 X128.818 Y153.534 E1.14805
G1 X128.843 Y153.857 E1.15862
G1 X128.818 Y154.180 E1.16920
G1 X128.742 Y154.495 E1.17977
G1 X128.633 Y154.760 E1.18915
G1 X128.449 Y155.070 E1.20091
G1 X128.239 Y155.316 E1.21149
G1 X127.993 Y155.526 E1.22206
G1 X127.748 Y155.676 E1.23144
G1 X127.418 Y155.819 E1.24319
G1 X127.103 Y155.895 E1.25377
G1 X126.780 Y155.920 E1.26434
G1 X126.457 Y155.895 E1.27492
G1 X126.142 Y155.819 E1.28549
G1 X125.877 Y155.710 E1.29487
G1 X125.567 Y155.526 E1.30663
G1 X125.321 Y155.316 E1.31721
G1 X125.111 Y155.070 E1.32778
G1 X124.941 Y154.794 E1.33835
G1 X124.818 Y154.495 E1.34893
G1 X124.742 Y154.180 E1.35950
G1 X124.717 Y153.857 E1.37008
G1 X124.742 Y153.534 E1.38065
G1 X124.818 Y153.219 E1.39123
G1 X124.941 Y152.920 E1.40180
G1 X125.111 Y152.644 E1.41238
G1 X125.260 Y152.469 E1.41989
G1 X125.245 Y152.083 F12000.000
G1 F1800.000 E0.41989
G92 E0
G1 X126.780 Y132.920 F12000.000
G1 F1800.000 E1.00000
G1 X126.457 Y132.895 F1080.000 E1.01057
G1 X126.142 Y132.819 E1.02115
G1 X125.877 Y132.710 E1.03053
G1 X125.567 Y132.526 E1.04228
G1 X125.321 Y132.316 E1.05286
G1 X125.111 Y132.070 E1.06343
G1 X124.941 Y131.794 E1.07401
G1 X124.818 Y131.495 E1.08458
G1 X124.742 Y131.180 E1.09516
G1 X124.717 Y130.857 E1.10573
G1 X124.742 Y130.534 E1.11631
G1 X124.818 Y130.219 E1.12688
G1 X124.941 Y129.920 E1.13746
G1 X125.111 Y129.644 E1.14803
G1 X125.321 Y129.398 E1.15861
G1 X125.567 Y129.188 E1.16918
G1 X125.843 Y129.019 E1.17976
G1 X126.142 Y128.895 E1.19033
G1 X126.457 Y128.819 E1.20091
G1 X126.780 Y128.794 E1.21148
G1 X127.103 Y128.819 E1.22206
G1 X127.418 Y128.895 E1.23263
G1 X127.717 Y129.019 E1.24321
G1 X127.993 Y129.188 E1.25378
G1 X128.239 Y129.398 E1.26436
G1 X128.449 Y129.644 E1.27493
G1 X128.618 Y129.920 E1.28551
G1 X128.742 Y130.219 E1.29608
G1 X128.818 Y130.534 E1.30666
G1 X128.843 Y130.857 E1.31723
G1 X128.818 Y131.180 E1.32781
G1 X128.742 Y131.495 E1.33838
G1 X128.633 Y131.760 E1.34776
G1 X128.449 Y132.070 E1.35952
G1 X128.239 Y132.316 E1.37009
G1 X127.993 Y132.526 E1.38067
G1 X127.717 Y132.696 E1.39124
G1 X127.418 Y132.819 E1.40182
G1 X127.103 Y132.895 E1.41239
G1 X126.873 Y132.913 E1.41991
G1 X126.611 Y133.196 F12000.000
G1 F1800.000 E0.41991
G92 E0
G1 X120.956 Y124.853 F12000.000
G1 F1800.000 E1.00000
G1 X120.680 Y125.043 F1080.000 E1.01093
G1 X120.376 Y125.183 E1.02187
G1 X120.053 Y125.269 E1.03280
G1 X119.760 Y125.294 E1.04240
G1 X104.239 Y125.294 E1.54930
G1 X103.943 Y125.268 E1.55901
G1 X103.616 Y125.181 E1.57006
G1 X103.310 Y125.038 E1.58111
G1 X103.032 Y124.844 E1.59216
G1 X102.793 Y124.605 E1.60321
G1 X102.599 Y124.328 E1.61426
G1 X102.456 Y124.021 E1.62531
G1 X102.369 Y123.694 E1.63635
G1 X102.343 Y123.398 E1.64607
G1 X102.369 Y122.912 E1.66197
G1 X102.456 Y122.585 E1.67302
G1 X102.599 Y122.278 E1.68407
G1 X102.793 Y122.001 E1.69512
G1 X103.032 Y121.762 E1.70617
G1 X103.310 Y121.568 E1.71722
G1 X103.616 Y121.425 E1.72827
G1 X103.943 Y121.337 E1.73932
G1 X104.239 Y121.311 E1.74902
G1 X107.033 Y121.311 E1.84026
G1 X107.033 Y113.812 E2.08518
G1 X107.056 Y113.534 E2.09430
G1 X107.133 Y113.226 E2.10467
G1 X107.259 Y112.935 E2.11505
G1 X107.432 Y112.668 E2.12543
G1 X107.646 Y112.433 E2.13581
G1 X107.895 Y112.235 E2.14618
G1 X108.173 Y112.082 E2.15656
G1 X108.472 Y111.975 E2.16694
G1 X108.785 Y111.919 E2.17731
G1 X109.103 Y111.915 E2.18769
G1 X109.417 Y111.962 E2.19807
G1 X109.719 Y112.061 E2.20844
G1 X110.001 Y112.207 E2.21882
G1 X110.225 Y112.374 E2.22794
G1 X121.033 Y121.933 E2.69917
G1 X121.236 Y122.146 E2.70878
G1 X121.421 Y122.424 E2.71971
G1 X121.556 Y122.731 E2.73064
G1 X121.636 Y123.056 E2.74158
G1 X121.660 Y123.389 E2.75251
G1 X121.625 Y123.722 E2.76344
G1 X121.534 Y124.044 E2.77437
G1 X121.389 Y124.346 E2.78530
G1 X121.194 Y124.618 E2.79624
G1 X121.022 Y124.787 E2.80410
G1 X120.556 Y124.370 F12000.000
G1 X120.370 Y124.498 F756.000 E2.81151
G1 X120.164 Y124.593 E2.81890
G1 X119.945 Y124.651 E2.82630
G1 X119.733 Y124.669 E2.83326
G1 X104.266 Y124.669 E3.33839
G1 X104.052 Y124.651 E3.34542
G1 X103.831 Y124.591 E3.35290
G1 X103.623 Y124.495 E3.36037
G1 X103.436 Y124.363 E3.36785
G1 X103.274 Y124.201 E3.37533
G1 X103.142 Y124.014 E3.38281
G1 X103.046 Y123.806 E3.39029
G1 X102.986 Y123.585 E3.39777
G1 X102.968 Y123.235 E3.40922
G1 X102.986 Y123.021 E3.41625
G1 X103.046 Y122.799 E3.42373
G1 X103.142 Y122.592 E3.43121
G1 X103.274 Y122.404 E3.43868
G1 X103.436 Y122.242 E3.44616
G1 X103.623 Y122.111 E3.45364
G1 X103.831 Y122.014 E3.46112
G1 X104.052 Y121.955 E3.46860
G1 X104.266 Y121.936 E3.47563
G1 X107.089 Y121.925 E3.56783
G1 X107.205 Y121.894 E3.57173
G1 X107.411 Y121.774 E3.57952
G1 X107.564 Y121.592 E3.58730
G1 X107.646 Y121.368 E3.59509
G1 X107.658 Y121.235 E3.59944
G1 X107.658 Y113.838 E3.84103
G1 X107.674 Y113.636 E3.84763
G1 X107.726 Y113.428 E3.85466
G1 X107.812 Y113.231 E3.86168
G1 X107.929 Y113.050 E3.86871
G1 X108.074 Y112.891 E3.87573
G1 X108.242 Y112.757 E3.88275
G1 X108.430 Y112.653 E3.88978
G1 X108.633 Y112.581 E3.89680
G1 X108.845 Y112.543 E3.90383
G1 X109.060 Y112.540 E3.91085
G1 X109.272 Y112.573 E3.91787
G1 X109.477 Y112.639 E3.92490
G1 X109.668 Y112.738 E3.93192
G1 X109.830 Y112.859 E3.93853
G1 X120.599 Y122.383 E4.40804
G1 X120.745 Y122.537 E4.41500
G1 X120.871 Y122.726 E4.42240
G1 X120.962 Y122.933 E4.42980
G1 X121.017 Y123.153 E4.43720
G1 X121.032 Y123.379 E4.44460
G1 X121.009 Y123.604 E4.45200
G1 X120.948 Y123.822 E4.45939
G1 X120.849 Y124.026 E4.46679
G1 X120.717 Y124.211 E4.47419
G1 X120.623 Y124.304 E4.47853
G1 X120.587 Y124.594 F12000.000
G1 X106.339 Y130.026
G1 X106.437 Y130.436 F1080.000 E4.49231
G1 X106.470 Y130.857 E4.50610
G1 X106.437 Y131.278 E4.51988
G1 X106.339 Y131.688 E4.53368
G1 X106.177 Y132.078 E4.54747
G1 X105.956 Y132.438 E4.56125
G1 X105.682 Y132.759 E4.57504
G1 X105.361 Y133.033 E4.58882
G1 X105.001 Y133.254 E4.60262
G1 X104.611 Y133.416 E4.61640
G1 X104.201 Y133.514 E4.63019
G1 X103.780 Y133.547 E4.64398
G1 X103.359 Y133.514 E4.65776
G1 X102.949 Y133.416 E4.67155
G1 X102.559 Y133.254 E4.68534
G1 X102.199 Y133.033 E4.69912
G1 X101.878 Y132.759 E4.71291
G1 X101.604 Y132.438 E4.72669
G1 X101.383 Y132.078 E4.74049
G1 X101.221 Y131.688 E4.75428
